public/filters/konnect/Presets A Lighter Skin Tone/BW Contrast_18.2021-06-24 15-11-15.cube
TITLE "Generated by Resolve"
LUT_3D_SIZE 9
0.0335699 0.0335699 0.0335851
0.0549325 0.0549325 0.054963
0.0766461 0.0766461 0.0766918
0.0984207 0.0984207 0.0984817
0.120378 0.120363 0.120439
0.142611 0.142611 0.142702
0.165286 0.165286 0.165377
0.188495 0.188495 0.188602
0.212238 0.212222 0.21236
0.106386 0.106386 0.106447
0.128664 0.128664 0.12874
0.151232 0.151232 0.151324
0.174228 0.174228 0.174334
0.197711 0.197711 0.197833
0.221683 0.221683 0.22182
0.246189 0.246174 0.246326
0.271244 0.271229 0.271397
0.296681 0.296681 0.296864
0.18233 0.182315 0.182437
0.206195 0.20618 0.206317
0.230549 0.230533 0.230671
0.25536 0.255344 0.255512
0.280629 0.280613 0.280797
0.306264 0.306249 0.306432
0.332143 0.332128 0.332326
0.35819 0.358175 0.358404
0.384298 0.384283 0.384512
0.263798 0.263798 0.263951
0.289403 0.289403 0.28957
0.315297 0.315282 0.31548
0.341344 0.341329 0.341543
0.367483 0.367468 0.367681
0.393591 0.393576 0.39382
0.419608 0.419577 0.419837
0.445502 0.445487 0.445762
0.471519 0.471504 0.471794
0.349966 0.34995 0.350164
0.376287 0.376272 0.376501
0.402518 0.402502 0.402747
0.42855 0.428534 0.428794
0.45452 0.454505 0.45478
0.480583 0.480568 0.480858
0.506691 0.506676 0.506981
0.532799 0.532784 0.533104
0.558831 0.558801 0.559152
0.436957 0.436942 0.437217
0.463157 0.463142 0.463432
0.489403 0.489372 0.489677
0.515602 0.515572 0.515892
0.541726 0.541711 0.542031
0.567727 0.567697 0.568048
0.593545 0.593515 0.593881
0.61915 0.619135 0.619501
0.644465 0.644434 0.644831
0.524041 0.524025 0.524346
0.550347 0.550317 0.550652
0.57644 0.57641 0.576776
0.602289 0.602258 0.602625
0.627832 0.627802 0.628183
0.65301 0.652979 0.653391
0.677791 0.67776 0.678172
0.702159 0.702129 0.702556
0.726101 0.72607 0.726513
0.610559 0.610529 0.610895
0.636194 0.636164 0.636561
0.661433 0.661402 0.661799
0.686168 0.686137 0.686549
0.71043 0.710399 0.710826
0.734218 0.734188 0.734646
0.75758 0.757534 0.758007
0.780514 0.780484 0.780957
0.803052 0.803021 0.80351
0.69395 0.693919 0.694347
0.718257 0.718227 0.718669
0.742092 0.742061 0.742504
0.765423 0.765393 0.765866
0.788266 0.788235 0.788724
0.810697 0.810666 0.81117
0.832792 0.832761 0.833265
0.854643 0.854612 0.855131
0.87631 0.87628 0.876814
0.042649 0.042649 0.0426795
0.0644236 0.0644236 0.0644694
0.0861982 0.086183 0.086244
0.108049 0.108034 0.10811
0.130098 0.130083 0.130175
0.152483 0.152483 0.152575
0.175326 0.175326 0.175433
0.198718 0.198703 0.198825
0.222644 0.222644 0.222766
0.11606 0.116045 0.116121
0.13846 0.13846 0.138537
0.161212 0.161212 0.161303
0.184405 0.18439 0.184512
0.208072 0.208057 0.208179
0.232227 0.232227 0.232364
0.256916 0.256916 0.257069
0.282109 0.282109 0.282277
0.307683 0.307668 0.307866
0.192554 0.192554 0.19266
0.216632 0.216632 0.216754
0.241184 0.241169 0.241321
0.266194 0.266178 0.266346
0.291615 0.2916 0.291783
0.317342 0.317327 0.31751
0.343282 0.343267 0.343481
0.36936 0.369345 0.369574
0.395422 0.395407 0.395651
0.274678 0.274662 0.27483
0.300435 0.30042 0.300603
0.326421 0.326406 0.326604
0.352544 0.352529 0.352743
0.378683 0.378668 0.378897
0.404761 0.404746 0.405005
0.430701 0.430686 0.430961
0.456626 0.456611 0.456886
0.482658 0.482643 0.482933
0.36112 0.361105 0.361334
0.387472 0.387457 0.387701
0.413687 0.413672 0.413916
0.439673 0.439658 0.439933
0.46569 0.465675 0.465965
0.491768 0.491753 0.492058
0.517876 0.517861 0.518166
0.543954 0.543938 0.544274
0.56994 0.569909 0.57026
0.448066 0.448035 0.44831
0.474311 0.474296 0.474586
0.500587 0.500572 0.500877
0.526787 0.526772 0.527092
0.55288 0.552865 0.553201
0.57882 0.578805 0.579156
0.604562 0.604532 0.604913
0.63006 0.630045 0.630426
0.655238 0.655207 0.655619
0.53518 0.535164 0.535485
0.561456 0.561425 0.561776
0.587503 0.587488 0.587839
0.613275 0.613245 0.613626
0.638712 0.638682 0.639078
0.663767 0.663737 0.664149
0.68838 0.68835 0.688777
0.712596 0.712566 0.712993
0.73637 0.736339 0.736797
0.621469 0.621439 0.62182
0.647013 0.646983 0.647379
0.672099 0.672068 0.67248
0.696696 0.696666 0.697093
0.720806 0.720775 0.721218
0.744442 0.744411 0.744869
0.767651 0.76762 0.768093
0.790433 0.790402 0.79089
0.812833 0.812802 0.813306
0.704372 0.704341 0.704768
0.728557 0.728527 0.728969
0.752239 0.752209 0.752667
0.775433 0.775402 0.775876
0.798138 0.798108 0.798596
0.820447 0.820417 0.82092
0.842435 0.842405 0.842924
0.86421 0.864179 0.864713
0.885817 0.885786 0.886336
0.0522774 0.0522774 0.0523079
0.0740978 0.0740826 0.0741283
0.0959029 0.0959029 0.095964
0.117845 0.117845 0.117922
0.140017 0.140017 0.140108
0.162554 0.162554 0.162646
0.185595 0.18558 0.185702
0.209155 0.20914 0.209277
0.233249 0.233234 0.233387
0.125933 0.125917 0.125994
0.148501 0.148486 0.148577
0.171435 0.17142 0.171527
0.194812 0.194812 0.194934
0.218677 0.218662 0.218799
0.243015 0.243015 0.243153
0.267887 0.267872 0.26804
0.293217 0.293202 0.293385
0.318868 0.318853 0.319051
0.203037 0.203021 0.203143
0.227329 0.227314 0.227451
0.252079 0.252064 0.252216
0.277272 0.277256 0.277424
0.302815 0.302815 0.302998
0.328634 0.328618 0.328832
0.35462 0.354604 0.354833
0.380713 0.380697 0.380926
0.406729 0.406714 0.406973
0.285771 0.285771 0.285939
0.311681 0.311666 0.311864
0.337758 0.337743 0.337957
0.363928 0.363912 0.364126
0.390066 0.390051 0.390295
0.416114 0.416098 0.416342
0.441993 0.441978 0.442252
0.467948 0.467933 0.468208
0.493996 0.493965 0.49427
0.372488 0.372473 0.372702
0.39884 0.398825 0.399069
0.42501 0.424994 0.425254
0.450996 0.45098 0.451255
0.477058 0.477043 0.477333
0.503151 0.503136 0.503441
0.529244 0.529213 0.529549
0.555276 0.555261 0.555596
0.581186 0.581155 0.581521
0.459358 0.459342 0.459617
0.485679 0.485649 0.485954
0.511955 0.51194 0.512245
0.538155 0.53814 0.538476
0.564218 0.564187 0.564538
0.590097 0.590066 0.590433
0.615747 0.615717 0.616098
0.641123 0.641093 0.641489
0.666148 0.666117 0.666529
0.546471 0.546456 0.546792
0.572732 0.572702 0.573053
0.598733 0.598703 0.599069
0.624414 0.624384 0.624765
0.649729 0.649714 0.650111
0.674632 0.674601 0.675029
0.699092 0.699062 0.699504
0.72314 0.72311 0.723552
0.746746 0.746715 0.747173
0.632486 0.632456 0.632853
0.657938 0.657908 0.65832
0.682902 0.682872 0.683284
0.707347 0.707317 0.707744
0.731304 0.731273 0.731731
0.754788 0.754757 0.75523
0.777829 0.777798 0.778286
0.800458 0.800427 0.800916
0.822721 0.82269 0.823194
0.714885 0.714855 0.715297
0.738949 0.738918 0.739361
0.762493 0.762463 0.762936
0.78555 0.785519 0.785992
0.808118 0.808087 0.808576
0.830304 0.830274 0.830793
0.852201 0.852171 0.852689
0.873884 0.873854 0.874388
0.895445 0.895399 0.895949
0.0620737 0.0620737 0.0621195
0.0839246 0.0839246 0.0839704
0.105821 0.105806 0.105882
0.127855 0.12784 0.127932
0.150149 0.150149 0.15024
0.172869 0.172869 0.172976
0.196078 0.196078 0.196201
0.219837 0.219821 0.219959
0.244099 0.244083 0.244236
0.135988 0.135973 0.136065
0.158709 0.158694 0.158801
0.181827 0.181827 0.181933
0.205417 0.205402 0.205524
0.22945 0.22945 0.229587
0.254002 0.253986 0.254139
0.279042 0.279026 0.279194
0.304494 0.304479 0.304662
0.330236 0.33022 0.330434
0.213703 0.213687 0.213825
0.238193 0.238178 0.238315
0.263127 0.263111 0.263279
0.288487 0.288472 0.288655
0.314153 0.314137 0.314336
0.340047 0.340032 0.340246
0.366094 0.366064 0.366293
0.392157 0.392142 0.392386
0.418158 0.418143 0.418402
0.297047 0.297032 0.297215
0.323049 0.323033 0.323232
0.349203 0.349187 0.349401
0.375387 0.375372 0.375601
0.401526 0.401511 0.401755
0.427527 0.427497 0.427771
0.453391 0.453376 0.453651
0.479393 0.479377 0.479667
0.50544 0.505425 0.50573
0.383948 0.383932 0.384161
0.410285 0.410269 0.410513
0.436393 0.436377 0.436637
0.462425 0.462409 0.462684
0.488518 0.488502 0.488792
0.514626 0.514595 0.514916
0.540703 0.540673 0.541009
0.566705 0.566674 0.567025
0.592538 0.592523 0.592889
0.470787 0.470771 0.471061
0.497139 0.497124 0.497429
0.52343 0.523415 0.523735
0.549615 0.549584 0.54992
0.575631 0.575601 0.575952
0.601434 0.601404 0.60177
0.626993 0.626963 0.627344
0.652262 0.652232 0.652628
0.677134 0.677104 0.677531
0.5579 0.55787 0.558221
0.5841 0.584085 0.584436
0.61004 0.61001 0.610391
0.63563 0.635599 0.635981
0.660822 0.660792 0.661204
0.685588 0.685557 0.685969
0.709895 0.709865 0.710292
0.733776 0.733745 0.734203
0.757229 0.757198 0.757671
0.643641 0.64361 0.644007
0.668956 0.66894 0.669337
0.693782 0.693751 0.694179
0.71809 0.718059 0.718502
0.741894 0.741863 0.742321
0.76524 0.765209 0.765667
0.788128 0.788083 0.788571
0.810605 0.810575 0.811063
0.832746 0.832715 0.833219
0.725521 0.72549 0.725933
0.749447 0.749416 0.749874
0.772854 0.772824 0.773297
0.795773 0.795743 0.796231
0.818219 0.818189 0.818677
0.840299 0.840269 0.840787
0.862119 0.862074 0.862608
0.883726 0.883696 0.88423
0.905226 0.905196 0.905745
0.0719158 0.0719158 0.0719615
0.0938125 0.0937972 0.0938582
0.11577 0.115755 0.115831
0.137926 0.137911 0.138003
0.160372 0.160357 0.160464
0.183276 0.183261 0.183368
0.206683 0.206668 0.20679
0.23061 0.23061 0.230747
0.25507 0.25507 0.255222
0.146105 0.14609 0.146181
0.168994 0.168978 0.169085
0.192309 0.192294 0.192416
0.216068 0.216068 0.21619
0.240314 0.240299 0.240452
0.265049 0.265034 0.265202
0.290257 0.290242 0.290425
0.315831 0.315816 0.316014
0.34165 0.341634 0.341848
0.22443 0.224414 0.224552
0.249119 0.249104 0.249256
0.27425 0.274235 0.274403
0.299748 0.299733 0.299916
0.325536 0.325521 0.325719
0.351492 0.351476 0.35169
0.377554 0.377539 0.377768
0.403632 0.403616 0.403861
0.429572 0.429557 0.429816
0.308339 0.308324 0.308522
0.334447 0.334432 0.334646
0.360647 0.360632 0.360861
0.386862 0.386847 0.387076
0.41297 0.412955 0.413214
0.438911 0.438895 0.439155
0.46482 0.46479 0.46508
0.490852 0.490837 0.491127
0.516915 0.516899 0.51722
0.395407 0.395392 0.395636
0.421714 0.421698 0.421958
0.447776 0.447761 0.448035
0.473854 0.473838 0.474128
0.499977 0.499962 0.500267
0.526085 0.52607 0.52639
0.552148 0.552132 0.552468
0.578103 0.578088 0.578439
0.603891 0.603861 0.604227
0.482246 0.482216 0.482521
0.508598 0.508583 0.508888
0.53489 0.534874 0.53521
0.561044 0.561013 0.561364
0.587015 0.586984 0.58735
0.612741 0.612711 0.613092
0.638209 0.638178 0.638575
0.663355 0.663325 0.663737
0.68809 0.68806 0.688472
0.569314 0.569299 0.56965
0.595468 0.595453 0.595804
0.621317 0.621286 0.621668
0.646799 0.646769 0.647166
0.67187 0.671839 0.672251
0.696483 0.696452 0.69688
0.720638 0.720607 0.72105
0.744381 0.74435 0.744808
0.767681 0.767651 0.768124
0.654765 0.654734 0.655131
0.679957 0.679927 0.680339
0.704616 0.704585 0.705013
0.728771 0.72874 0.729198
0.752438 0.752407 0.752865
0.775631 0.775601 0.776074
0.798367 0.798337 0.798825
0.820737 0.820691 0.821195
0.842771 0.842741 0.843244
0.736156 0.736126 0.736584
0.759945 0.759915 0.760372
0.7832 0.783169 0.783658
0.805966 0.805936 0.806424
0.828305 0.828275 0.828779
0.850294 0.850263 0.850782
0.872038 0.871992 0.872526
0.893614 0.893568 0.894118
0.915084 0.915038 0.915602
0.0817731 0.0817731 0.0818189
0.103716 0.1037 0.103761
0.12575 0.12575 0.125826
0.148028 0.148013 0.148104
0.170642 0.170642 0.170748
0.193744 0.193729 0.193851
0.217334 0.217319 0.217456
0.241474 0.241459 0.241611
0.266117 0.266117 0.26627
0.156252 0.156252 0.156344
0.179324 0.179309 0.179431
0.202823 0.202823 0.202945
0.22678 0.226764 0.226917
0.251209 0.251209 0.251362
0.276143 0.276127 0.276295
0.301488 0.301488 0.301671
0.327199 0.327184 0.327382
0.353094 0.353079 0.353292
0.235218 0.235203 0.23534
0.260075 0.260075 0.260227
0.285374 0.285374 0.285542
0.311009 0.311009 0.311192
0.336889 0.336873 0.337087
0.362921 0.362905 0.363119
0.388998 0.388983 0.389212
0.415045 0.41503 0.41529
0.44094 0.440925 0.441199
0.319661 0.319646 0.319844
0.34583 0.345815 0.346029
0.372076 0.372061 0.37229
0.398276 0.39826 0.398505
0.424353 0.424338 0.424598
0.450248 0.450233 0.450507
0.476219 0.476204 0.476493
0.502281 0.502266 0.502571
0.528374 0.528344 0.528664
0.406851 0.406821 0.40708
0.433082 0.433066 0.433326
0.459144 0.459129 0.459403
0.485267 0.485252 0.485542
0.511406 0.511391 0.511696
0.537514 0.537499 0.53782
0.563546 0.563531 0.563882
0.589471 0.589441 0.589807
0.615183 0.615152 0.615534
0.493675 0.49366 0.49395
0.520043 0.520027 0.520348
0.546319 0.546288 0.546624
0.572427 0.572396 0.572747
0.598337 0.598306 0.598672
0.623987 0.623972 0.624353
0.649348 0.649332 0.649729
0.674372 0.674342 0.674754
0.69897 0.69894 0.699367
0.580713 0.580682 0.581033
0.60679 0.60676 0.607141
0.632532 0.632517 0.632898
0.657908 0.657877 0.658274
0.682841 0.682811 0.683223
0.707301 0.707271 0.707698
0.731319 0.731289 0.731731
0.75491 0.754879 0.755352
0.778088 0.778042 0.778531
0.665843 0.665812 0.666224
0.690867 0.690837 0.691264
0.715389 0.715358 0.715801
0.739406 0.739361 0.739818
0.762921 0.76289 0.763348
0.785962 0.785931 0.786419
0.80856 0.80853 0.809033
0.830823 0.830777 0.831296
0.852766 0.852735 0.853254
0.746746 0.746715 0.747173
0.770382 0.770336 0.770809
0.7935 0.793454 0.793942
0.816129 0.816083 0.816587
0.838346 0.838315 0.838834
0.860258 0.860227 0.860761
0.881941 0.88191 0.882445
0.903471 0.903441 0.90399
0.924926 0.924895 0.92546
0.0915694 0.0915694 0.0916304
0.113558 0.113542 0.113619
0.135683 0.135683 0.135775
0.158099 0.158083 0.15819
0.180896 0.18088 0.181003
0.204181 0.204181 0.204303
0.227985 0.22797 0.228107
0.252323 0.252308 0.252461
0.27718 0.277165 0.277333
0.166369 0.166369 0.166461
0.189609 0.189593 0.189715
0.213291 0.213291 0.213413
0.237446 0.23743 0.237568
0.262058 0.262058 0.262211
0.287175 0.28716 0.287343
0.312673 0.312657 0.312856
0.338476 0.33846 0.338659
0.364446 0.364431 0.364645
0.245945 0.245945 0.246082
0.270985 0.270985 0.271138
0.296437 0.296422 0.296605
0.322179 0.322164 0.322362
0.34815 0.348135 0.348348
0.374212 0.374197 0.374426
0.400305 0.40029 0.400534
0.426337 0.426322 0.426581
0.452201 0.452186 0.452461
0.330892 0.330877 0.331075
0.357107 0.357092 0.357321
0.383368 0.383352 0.383581
0.409552 0.409537 0.409781
0.435584 0.435569 0.435828
0.461494 0.461463 0.461753
0.487511 0.48748 0.487785
0.513603 0.513588 0.513909
0.539696 0.539681 0.540002
0.418128 0.418112 0.418372
0.444297 0.444282 0.444556
0.47039 0.470375 0.470665
0.496544 0.496529 0.496834
0.522698 0.522683 0.523003
0.548806 0.548775 0.549111
0.574807 0.574792 0.575143
0.600687 0.600656 0.601038
0.626337 0.626307 0.626688
0.505013 0.504982 0.505287
0.531365 0.531334 0.53167
0.557595 0.55758 0.557916
0.583658 0.583642 0.583993
0.609506 0.609476 0.609857
0.635081 0.63505 0.635447
0.660334 0.660304 0.660716
0.685237 0.685206 0.685618
0.709697 0.709667 0.710094
0.591974 0.591943 0.592309
0.61796 0.617929 0.618311
0.643595 0.643565 0.643961
0.668849 0.668818 0.66923
0.693629 0.693599 0.694026
0.717952 0.717922 0.718364
0.741817 0.741787 0.742245
0.765286 0.765255 0.765728
0.788327 0.788296 0.788769
0.676783 0.676753 0.677165
0.701656 0.701625 0.702052
0.726009 0.725978 0.726421
0.749859 0.749828 0.750301
0.773236 0.773205 0.773678
0.796139 0.796109 0.796597
0.818616 0.818586 0.819089
0.840772 0.840742 0.84126
0.862654 0.862623 0.863142
0.757214 0.757183 0.757641
0.780682 0.780652 0.781125
0.803647 0.803616 0.804105
0.826154 0.826108 0.826627
0.84828 0.848249 0.848768
0.870115 0.870085 0.870619
0.891752 0.891707 0.892256
0.913268 0.913222 0.913787
0.934722 0.934676 0.935256
0.101244 0.101244 0.101305
0.123278 0.123278 0.123354
0.145525 0.14551 0.145602
0.168063 0.168063 0.16817
0.191073 0.191058 0.19118
0.214557 0.214542 0.214679
0.238544 0.238544 0.238682
0.263096 0.263081 0.263249
0.288151 0.288136 0.288319
0.17641 0.176394 0.176501
0.199817 0.199802 0.199924
0.223682 0.223667 0.223804
0.24802 0.248005 0.248157
0.272847 0.272831 0.272999
0.298116 0.2981 0.298283
0.323735 0.32372 0.323919
0.34963 0.349615 0.349828
0.375662 0.375647 0.375875
0.256611 0.256596 0.256748
0.281819 0.281804 0.281971
0.307408 0.307393 0.307576
0.333257 0.333242 0.33344
0.359274 0.359258 0.359487
0.385382 0.385367 0.385595
0.411475 0.411444 0.411704
0.437476 0.437446 0.43772
0.46334 0.463325 0.463615
0.342 0.341985 0.342199
0.368261 0.368246 0.368475
0.394522 0.394507 0.394751
0.420676 0.420661 0.42092
0.446647 0.446632 0.446906
0.472602 0.472587 0.472877
0.498665 0.49865 0.498955
0.524788 0.524758 0.525078
0.550881 0.550866 0.551202
0.429267 0.429252 0.429511
0.455375 0.45536 0.45565
0.481529 0.481514 0.481804
0.507698 0.507683 0.507988
0.533852 0.533837 0.534157
0.559945 0.559915 0.560265
0.585916 0.585901 0.586252
0.611734 0.611704 0.612085
0.637308 0.637278 0.637675
0.516197 0.516182 0.516487
0.542519 0.542504 0.54284
0.568734 0.568704 0.569055
0.594736 0.59472 0.595071
0.620508 0.620478 0.620859
0.645991 0.64596 0.646357
0.671138 0.671107 0.671519
0.695888 0.695857 0.696284
0.720211 0.72018 0.720623
0.603067 0.603037 0.603403
0.628946 0.628916 0.629313
0.654475 0.654444 0.654856
0.679576 0.679561 0.679973
0.704219 0.704189 0.704616
0.728389 0.728359 0.728817
0.752132 0.752102 0.75256
0.775464 0.775433 0.775906
0.798367 0.798337 0.798825
0.687526 0.687495 0.687907
0.71223 0.7122 0.712627
0.736416 0.736385 0.736843
0.760128 0.760098 0.760555
0.783352 0.783322 0.78381
0.806119 0.806088 0.806577
0.828489 0.828458 0.828962
0.850553 0.850523 0.851041
0.872374 0.872343 0.872877
0.767483 0.767452 0.767926
0.790784 0.790753 0.791241
0.813596 0.813565 0.814069
0.835981 0.83595 0.836469
0.85803 0.857984 0.858518
0.879805 0.879774 0.880308
0.901396 0.901366 0.901915
0.922911 0.922866 0.92343
0.944381 0.944335 0.944915
0.110826 0.110811 0.110887
0.132937 0.132921 0.133013
0.155306 0.155291 0.155383
0.178012 0.178012 0.178119
0.201205 0.20119 0.201312
0.224887 0.224872 0.22501
0.249073 0.249073 0.249226
0.273823 0.273808 0.273976
0.299046 0.299031 0.299214
0.186419 0.186404 0.186526
0.21001 0.21001 0.210132
0.234073 0.234073 0.234211
0.25861 0.258595 0.258747
0.283604 0.283604 0.283772
0.309041 0.309026 0.309209
0.334768 0.334752 0.334951
0.360723 0.360708 0.360937
0.386786 0.38677 0.387015
0.267262 0.267247 0.267414
0.292653 0.292638 0.292821
0.318364 0.318349 0.318547
0.344305 0.344289 0.344503
0.370382 0.370367 0.370596
0.39649 0.396475 0.396719
0.422568 0.422553 0.422812
0.448493 0.448478 0.448753
0.474418 0.474388 0.474693
0.353079 0.353063 0.353277
0.37937 0.379355 0.379583
0.405631 0.405615 0.405859
0.431754 0.431739 0.431998
0.457694 0.457679 0.457954
0.483696 0.483665 0.48397
0.509789 0.509758 0.510079
0.535912 0.535882 0.536217
0.561975 0.561959 0.562295
0.440314 0.440299 0.440574
0.466438 0.466423 0.466712
0.492622 0.492607 0.492912
0.518822 0.518791 0.519112
0.544961 0.544945 0.545281
0.571023 0.571008 0.571359
0.596948 0.596918 0.597284
0.62269 0.622675 0.623056
0.648173 0.648142 0.648539
0.527306 0.527291 0.527611
0.553628 0.553613 0.553948
0.579797 0.579767 0.580133
0.605737 0.605722 0.606088
0.631434 0.631403 0.6318
0.656809 0.656779 0.657176
0.681819 0.681788 0.6822
0.706432 0.706401 0.706828
0.730602 0.730571 0.731029
0.614038 0.614023 0.614389
0.639841 0.639811 0.640208
0.665248 0.665217 0.665629
0.690211 0.690181 0.690608
0.714702 0.714672 0.715114
0.738735 0.738705 0.739147
0.762325 0.762295 0.762768
0.785504 0.785473 0.785962
0.80827 0.80824 0.808728
0.6981 0.69807 0.698497
0.722652 0.722622 0.723064
0.7467 0.74667 0.747127
0.77026 0.77023 0.770703
0.793332 0.793301 0.79379
0.815961 0.81593 0.816434
0.838224 0.838178 0.838697
0.860197 0.860166 0.8607
0.881956 0.881926 0.88246
0.777584 0.777554 0.778027
0.800732 0.800702 0.80119
0.823407 0.823377 0.82388
0.845685 0.845655 0.846174
0.867643 0.867613 0.868147
0.889372 0.889326 0.889876
0.910933 0.910887 0.911452
0.932418 0.932387 0.932952
0.953902 0.953872 0.954452
