public/filters/konnect/Presets A Lighter Skin Tone/BW Contrast_18.2021-06-24 15-11-15.cube
TITLE "Generated by Resolve"
LUT_3D_SIZE 5
0.0335699 0.0335699 0.0335851
0.0766461 0.0766461 0.0766918
0.120378 0.120363 0.120439
0.165286 0.165286 0.165377
0.212238 0.212222 0.21236
0.18233 0.182315 0.182437
0.230549 0.230533 0.230671
0.280629 0.280613 0.280797
0.332143 0.332128 0.332326
0.384298 0.384283 0.384512
0.349966 0.34995 0.350164
0.402518 0.402502 0.402747
0.45452 0.454505 0.45478
0.506691 0.506676 0.506981
0.558831 0.558801 0.559152
0.524041 0.524025 0.524346
0.57644 0.57641 0.576776
0.627832 0.627802 0.628183
0.677791 0.67776 0.678172
0.726101 0.72607 0.726513
0.69395 0.693919 0.694347
0.742092 0.742061 0.742504
0.788266 0.788235 0.788724
0.832792 0.832761 0.833265
0.87631 0.87628 0.876814
0.0522774 0.0522774 0.0523079
0.0959029 0.0959029 0.095964
0.140017 0.140017 0.140108
0.185595 0.18558 0.185702
0.233249 0.233234 0.233387
0.203037 0.203021 0.203143
0.252079 0.252064 0.252216
0.302815 0.302815 0.302998
0.35462 0.354604 0.354833
0.406729 0.406714 0.406973
0.372488 0.372473 0.372702
0.42501 0.424994 0.425254
0.477058 0.477043 0.477333
0.529244 0.529213 0.529549
0.581186 0.581155 0.581521
0.546471 0.546456 0.546792
0.598733 0.598703 0.599069
0.649729 0.649714 0.650111
0.699092 0.699062 0.699504
0.746746 0.746715 0.747173
0.714885 0.714855 0.715297
0.762493 0.762463 0.762936
0.808118 0.808087 0.808576
0.852201 0.852171 0.852689
0.895445 0.895399 0.895949
0.0719158 0.0719158 0.0719615
0.11577 0.115755 0.115831
0.160372 0.160357 0.160464
0.206683 0.206668 0.20679
0.25507 0.25507 0.255222
0.22443 0.224414 0.224552
0.27425 0.274235 0.274403
0.325536 0.325521 0.325719
0.377554 0.377539 0.377768
0.429572 0.429557 0.429816
0.395407 0.395392 0.395636
0.447776 0.447761 0.448035
0.499977 0.499962 0.500267
0.552148 0.552132 0.552468
0.603891 0.603861 0.604227
0.569314 0.569299 0.56965
0.621317 0.621286 0.621668
0.67187 0.671839 0.672251
0.720638 0.720607 0.72105
0.767681 0.767651 0.768124
0.736156 0.736126 0.736584
0.7832 0.783169 0.783658
0.828305 0.828275 0.828779
0.872038 0.871992 0.872526
0.915084 0.915038 0.915602
0.0915694 0.0915694 0.0916304
0.135683 0.135683 0.135775
0.180896 0.18088 0.181003
0.227985 0.22797 0.228107
0.27718 0.277165 0.277333
0.245945 0.245945 0.246082
0.296437 0.296422 0.296605
0.34815 0.348135 0.348348
0.400305 0.40029 0.400534
0.452201 0.452186 0.452461
0.418128 0.418112 0.418372
0.47039 0.470375 0.470665
0.522698 0.522683 0.523003
0.574807 0.574792 0.575143
0.626337 0.626307 0.626688
0.591974 0.591943 0.592309
0.643595 0.643565 0.643961
0.693629 0.693599 0.694026
0.741817 0.741787 0.742245
0.788327 0.788296 0.788769
0.757214 0.757183 0.757641
0.803647 0.803616 0.804105
0.84828 0.848249 0.848768
0.891752 0.891707 0.892256
0.934722 0.934676 0.935256
0.110826 0.110811 0.110887
0.155306 0.155291 0.155383
0.201205 0.20119 0.201312
0.249073 0.249073 0.249226
0.299046 0.299031 0.299214
0.267262 0.267247 0.267414
0.318364 0.318349 0.318547
0.370382 0.370367 0.370596
0.422568 0.422553 0.422812
0.474418 0.474388 0.474693
0.440314 0.440299 0.440574
0.492622 0.492607 0.492912
0.544961 0.544945 0.545281
0.596948 0.596918 0.597284
0.648173 0.648142 0.648539
0.614038 0.614023 0.614389
0.665248 0.665217 0.665629
0.714702 0.714672 0.715114
0.762325 0.762295 0.762768
0.80827 0.80824 0.808728
0.777584 0.777554 0.778027
0.823407 0.823377 0.82388
0.867643 0.867613 0.868147
0.910933 0.910887 0.911452
0.953902 0.953872 0.954452
