public/filters/konnect/Presets A Lighter Skin Tone/BW Contrast_18.2021-06-24 15-11-15.cube
TITLE "Generated by Resolve"
LUT_3D_SIZE 33
0.0335699 0.0335699 0.0335851
0.0386053 0.0386053 0.0386358
0.0440528 0.0440528 0.0440833
0.0495003 0.049485 0.0495155
0.0549325 0.0549325 0.054963
0.0603647 0.0603494 0.0603952
0.0657816 0.0657816 0.0658274
0.0712139 0.0712139 0.0712596
0.0766461 0.0766461 0.0766918
0.0820783 0.0820783 0.0821393
0.0875257 0.0875257 0.0875715
0.0929732 0.0929732 0.093019
0.0984207 0.0984207 0.0984817
0.103899 0.103883 0.103944
0.109377 0.109361 0.109438
0.11487 0.114855 0.114931
0.120378 0.120363 0.120439
0.125902 0.125902 0.125978
0.131456 0.131441 0.131533
0.137026 0.137011 0.137102
0.142611 0.142611 0.142702
0.148241 0.148226 0.148318
0.153887 0.153872 0.153979
0.159564 0.159564 0.159655
0.165286 0.165286 0.165377
0.171038 0.171023 0.17113
0.176822 0.176806 0.176928
0.18265 0.182635 0.182757
0.188495 0.188495 0.188602
0.194385 0.194385 0.194491
0.200305 0.20029 0.200412
0.206256 0.206241 0.206378
0.212238 0.212222 0.21236
0.0514382 0.0514382 0.0514687
0.0568856 0.0568856 0.0569162
0.0623331 0.0623331 0.0623636
0.0677806 0.0677806 0.0678264
0.073228 0.073228 0.0732738
0.0786755 0.0786755 0.0787213
0.084123 0.084123 0.084184
0.0895857 0.0895857 0.0896315
0.0950484 0.0950484 0.0951095
0.100526 0.100511 0.100587
0.106004 0.106004 0.106065
0.111513 0.111498 0.111574
0.117021 0.117006 0.117082
0.122545 0.122545 0.122606
0.128084 0.128084 0.128161
0.133654 0.133654 0.13373
0.139239 0.139239 0.13933
0.144854 0.144854 0.144945
0.1505 0.150484 0.150576
0.156161 0.156161 0.156252
0.161868 0.161852 0.161959
0.16759 0.16759 0.167681
0.173358 0.173342 0.173449
0.179156 0.179141 0.179248
0.184985 0.18497 0.185092
0.190845 0.190845 0.190951
0.19675 0.196735 0.196857
0.202686 0.20267 0.202792
0.208652 0.208637 0.208774
0.214649 0.214649 0.214771
0.220691 0.220676 0.220813
0.226764 0.226749 0.226886
0.232853 0.232853 0.23299
0.0697032 0.069688 0.0697337
0.0751659 0.0751507 0.0751965
0.0806287 0.0806287 0.0806744
0.0860914 0.0860914 0.0861372
0.0915694 0.0915694 0.0916304
0.0970626 0.0970474 0.0971084
0.102541 0.102541 0.102602
0.108049 0.108049 0.108125
0.113573 0.113573 0.113634
0.119097 0.119097 0.119173
0.124651 0.124651 0.124727
0.13022 0.130205 0.130297
0.135805 0.13579 0.135882
0.141405 0.141405 0.141482
0.147036 0.147036 0.147127
0.152697 0.152697 0.152789
0.158389 0.158373 0.15848
0.164111 0.164096 0.164202
0.169848 0.169848 0.169955
0.175631 0.175631 0.175738
0.181445 0.181445 0.181552
0.187289 0.187289 0.187396
0.193179 0.193164 0.193286
0.199084 0.199084 0.199207
0.205035 0.20502 0.205142
0.211017 0.211002 0.211139
0.217029 0.217014 0.217151
0.223072 0.223072 0.223209
0.22916 0.229145 0.229297
0.235279 0.235264 0.235401
0.241428 0.241413 0.241566
0.247608 0.247593 0.247745
0.253819 0.253803 0.253971
0.0879988 0.0879835 0.0880446
0.093492 0.093492 0.0935378
0.0990005 0.0989853 0.0990463
0.104509 0.104494 0.10457
0.110033 0.110033 0.110094
0.115572 0.115557 0.115633
0.121126 0.121111 0.121187
0.126696 0.12668 0.126757
0.13228 0.132265 0.132357
0.137881 0.137881 0.137972
0.143511 0.143511 0.143587
0.149172 0.149157 0.149248
0.154849 0.154849 0.15494
0.160555 0.160555 0.160647
0.166293 0.166293 0.1664
0.172061 0.172061 0.172168
0.177874 0.177859 0.177966
0.183703 0.183703 0.18381
0.189563 0.189563 0.18967
0.195468 0.195453 0.195575
0.201389 0.201373 0.201511
0.207355 0.20734 0.207462
0.213336 0.213336 0.213458
0.219379 0.219364 0.219501
0.225437 0.225422 0.225559
0.231525 0.231525 0.231662
0.237659 0.237644 0.237797
0.243824 0.243809 0.243961
0.250019 0.250019 0.250172
0.25626 0.256245 0.256397
0.262516 0.262501 0.262669
0.268803 0.268803 0.268956
0.27512 0.275105 0.275273
0.106386 0.106386 0.106447
0.11194 0.11194 0.112001
0.117494 0.117494 0.117571
0.123079 0.123064 0.12314
0.128664 0.128664 0.12874
0.134279 0.134264 0.134356
0.13991 0.13991 0.139986
0.145556 0.145556 0.145647
0.151232 0.151232 0.151324
0.156939 0.156939 0.157031
0.162676 0.162676 0.162768
0.168444 0.168429 0.168536
0.174228 0.174228 0.174334
0.180056 0.180041 0.180163
0.185916 0.185901 0.186023
0.191791 0.191791 0.191913
0.197711 0.197711 0.197833
0.203662 0.203647 0.203769
0.209644 0.209628 0.209766
0.215641 0.215641 0.215763
0.221683 0.221683 0.22182
0.227771 0.227756 0.227893
0.233875 0.23386 0.234012
0.240009 0.240009 0.240146
0.246189 0.246174 0.246326
0.252399 0.252399 0.252552
0.258656 0.25864 0.258793
0.264927 0.264912 0.26508
0.271244 0.271229 0.271397
0.277562 0.277562 0.277729
0.283925 0.283909 0.284077
0.290303 0.290288 0.290471
0.296681 0.296681 0.296864
0.124956 0.124956 0.125032
0.130571 0.130571 0.130648
0.136217 0.136202 0.136294
0.141863 0.141863 0.141939
0.147539 0.147539 0.147631
0.153246 0.153231 0.153338
0.158984 0.158968 0.159075
0.164736 0.164736 0.164828
0.17052 0.17052 0.170626
0.176349 0.176333 0.17644
0.182193 0.182193 0.1823
0.188067 0.188067 0.188174
0.193973 0.193973 0.19408
0.199908 0.199908 0.200031
0.205875 0.205875 0.205997
0.211887 0.211872 0.211994
0.217914 0.217899 0.218036
0.223972 0.223957 0.224094
0.23006 0.23006 0.230198
0.236194 0.236179 0.236332
0.242359 0.242344 0.242496
0.248539 0.248524 0.248676
0.254765 0.254749 0.254917
0.261021 0.261021 0.261173
0.267308 0.267292 0.26746
0.273625 0.27361 0.273777
0.279973 0.279957 0.280125
0.286336 0.28632 0.286503
0.292729 0.292714 0.292897
0.299138 0.299123 0.299306
0.305562 0.305547 0.30573
0.312001 0.311986 0.312184
0.318456 0.318441 0.318639
0.143771 0.143755 0.143847
0.149462 0.149462 0.149554
0.1552 0.155184 0.155291
0.160952 0.160937 0.161044
0.166735 0.166735 0.166827
0.172549 0.172549 0.172656
0.178393 0.178393 0.1785
0.184268 0.184268 0.184375
0.190173 0.190158 0.19028
0.196109 0.196094 0.196216
0.20206 0.20206 0.202182
0.208057 0.208042 0.208179
0.214084 0.214069 0.214206
0.220127 0.220111 0.220249
0.226215 0.2262 0.226337
0.232319 0.232319 0.232456
0.238468 0.238453 0.238605
0.244648 0.244633 0.244785
0.250858 0.250843 0.250996
0.257099 0.257084 0.257237
0.263371 0.263355 0.263508
0.269657 0.269657 0.269825
0.27599 0.27599 0.276158
0.282338 0.282338 0.282506
0.288716 0.288701 0.288884
0.295109 0.295109 0.295277
0.301534 0.301518 0.301701
0.307973 0.307958 0.308156
0.314427 0.314412 0.314611
0.320897 0.320882 0.32108
0.327367 0.327352 0.32755
0.333852 0.333837 0.334051
0.340352 0.340337 0.340551
0.16286 0.16286 0.162951
0.168673 0.168673 0.16878
0.174517 0.174517 0.174624
0.180392 0.180377 0.180499
0.186282 0.186282 0.186389
0.192218 0.192203 0.192325
0.198169 0.198169 0.198291
0.20415 0.20415 0.204273
0.210178 0.210163 0.2103
0.21622 0.216205 0.216342
0.222293 0.222278 0.222416
0.228397 0.228397 0.228534
0.234531 0.234516 0.234668
0.240696 0.240696 0.240833
0.246906 0.246891 0.247044
0.253132 0.253117 0.253269
0.259388 0.259388 0.259541
0.265675 0.26566 0.265827
0.271992 0.271977 0.272145
0.278325 0.278325 0.278492
0.284688 0.284688 0.284855
0.291081 0.291066 0.291249
0.297475 0.297459 0.297642
0.303899 0.303899 0.304082
0.310338 0.310338 0.310521
0.316808 0.316793 0.316991
0.323293 0.323278 0.323476
0.329778 0.329763 0.329961
0.336278 0.336263 0.336461
0.342779 0.342763 0.342977
0.349294 0.349279 0.349493
0.35581 0.355795 0.356008
0.362325 0.36231 0.362524
0.18233 0.182315 0.182437
0.188251 0.188235 0.188357
0.194202 0.194202 0.194308
0.200183 0.200168 0.20029
0.206195 0.20618 0.206317
0.212238 0.212238 0.21236
0.218311 0.218296 0.218433
0.224414 0.224399 0.224537
0.230549 0.230533 0.230671
0.236698 0.236683 0.236835
0.242893 0.242878 0.24303
0.249104 0.249104 0.249256
0.25536 0.255344 0.255512
0.261631 0.261631 0.261784
0.267948 0.267933 0.268101
0.274281 0.274266 0.274434
0.280629 0.280613 0.280797
0.287007 0.287007 0.287175
0.293416 0.2934 0.293584
0.299825 0.299809 0.299992
0.306264 0.306249 0.306432
0.312703 0.312688 0.312886
0.319173 0.319158 0.319356
0.325643 0.325628 0.325841
0.332143 0.332128 0.332326
0.338643 0.338628 0.338842
0.345144 0.345129 0.345342
0.351675 0.351659 0.351873
0.35819 0.358175 0.358404
0.364721 0.364706 0.364935
0.371252 0.371237 0.371466
0.377768 0.377752 0.377981
0.384298 0.384283 0.384512
0.202152 0.202136 0.202258
0.208179 0.208179 0.208301
0.214252 0.214237 0.214374
0.22034 0.22034 0.220478
0.226474 0.226459 0.226596
0.232624 0.232609 0.232761
0.238804 0.238804 0.238941
0.245029 0.245014 0.245167
0.25127 0.251255 0.251408
0.257542 0.257542 0.257694
0.263844 0.263828 0.263996
0.270176 0.270161 0.270329
0.276524 0.276509 0.276677
0.282887 0.282887 0.283055
0.289281 0.289281 0.289448
0.295689 0.295689 0.295857
0.302129 0.302113 0.302296
0.308568 0.308553 0.308751
0.315022 0.315022 0.315206
0.321508 0.321492 0.321691
0.327977 0.327977 0.328176
0.334478 0.334478 0.334676
0.340993 0.340978 0.341192
0.347494 0.347494 0.347707
0.354025 0.354009 0.354223
0.36054 0.360525 0.360754
0.367071 0.367056 0.367285
0.373602 0.373587 0.373816
0.380133 0.380118 0.380346
0.386664 0.386648 0.386877
0.393179 0.393164 0.393408
0.399695 0.39968 0.399924
0.406195 0.40618 0.406424
0.222324 0.222324 0.222461
0.228489 0.228473 0.228611
0.234653 0.234653 0.234791
0.240879 0.240864 0.241016
0.247105 0.247105 0.247257
0.253376 0.253376 0.253529
0.259678 0.259663 0.259831
0.265995 0.265995 0.266148
0.272358 0.272343 0.272511
0.278721 0.278706 0.278874
0.285115 0.2851 0.285267
0.291524 0.291508 0.291691
0.297948 0.297932 0.298116
0.304387 0.304387 0.30457
0.310842 0.310842 0.311025
0.317327 0.317311 0.31751
0.323812 0.323796 0.323995
0.330297 0.330282 0.330495
0.336797 0.336782 0.336996
0.343313 0.343297 0.343511
0.349828 0.349813 0.350027
0.356344 0.356329 0.356558
0.362875 0.36286 0.363088
0.369406 0.36939 0.369619
0.375937 0.375921 0.37615
0.382467 0.382452 0.382681
0.388998 0.388983 0.389212
0.395514 0.395499 0.395743
0.402029 0.402014 0.402258
0.408545 0.408515 0.408774
0.41503 0.415015 0.415274
0.421515 0.4215 0.421759
0.42797 0.427955 0.428229
0.242878 0.242878 0.243015
0.249149 0.249134 0.249287
0.255436 0.255436 0.255589
0.261769 0.261753 0.261921
0.268116 0.268101 0.268269
0.274479 0.274479 0.274647
0.280873 0.280858 0.281041
0.287282 0.287266 0.287449
0.293721 0.293706 0.293889
0.30016 0.300145 0.300328
0.306615 0.3066 0.306798
0.313085 0.313069 0.313268
0.31957 0.31957 0.319753
0.32607 0.326055 0.326253
0.33257 0.332555 0.332769
0.339086 0.339071 0.339284
0.345617 0.345602 0.345815
0.352132 0.352117 0.352331
0.358663 0.358648 0.358862
0.365194 0.365179 0.365393
0.371725 0.37171 0.371939
0.378241 0.378225 0.378454
0.384771 0.384756 0.384985
0.391302 0.391287 0.391516
0.397818 0.397803 0.398047
0.404334 0.404303 0.404562
0.410834 0.410819 0.411063
0.417319 0.417304 0.417563
0.423804 0.423789 0.424048
0.430274 0.430259 0.430518
0.436744 0.436728 0.437003
0.443214 0.443198 0.443473
0.449714 0.449683 0.449958
0.263798 0.263798 0.263951
0.270176 0.270161 0.270329
0.27657 0.276555 0.276722
0.282979 0.282963 0.283131
0.289403 0.289403 0.28957
0.295857 0.295842 0.296025
0.302327 0.302312 0.302495
0.308797 0.308782 0.30898
0.315297 0.315282 0.31548
0.321798 0.321782 0.321981
0.328298 0.328298 0.328496
0.334829 0.334813 0.335012
0.341344 0.341329 0.341543
0.347875 0.34786 0.348074
0.354406 0.354391 0.354604
0.360937 0.360922 0.361151
0.367483 0.367468 0.367681
0.374014 0.373999 0.374228
0.380545 0.380529 0.380758
0.38706 0.387045 0.387289
0.393591 0.393576 0.39382
0.400107 0.400092 0.400336
0.406622 0.406592 0.406851
0.413108 0.413092 0.413352
0.419608 0.419577 0.419837
0.426078 0.426062 0.426322
0.432547 0.432532 0.432792
0.439017 0.439002 0.439277
0.445502 0.445487 0.445762
0.452003 0.451972 0.452262
0.458503 0.458473 0.458762
0.465003 0.464988 0.465263
0.471519 0.471504 0.471794
0.285039 0.285023 0.285206
0.291493 0.291478 0.291661
0.297963 0.297948 0.298131
0.304448 0.304433 0.304616
0.310933 0.310933 0.311116
0.317449 0.317433 0.317632
0.323964 0.323949 0.324147
0.330495 0.33048 0.330678
0.337026 0.337011 0.337224
0.343557 0.343542 0.343755
0.350103 0.350088 0.350301
0.356649 0.356634 0.356863
0.363195 0.36318 0.363409
0.369741 0.369726 0.369955
0.376272 0.376257 0.376486
0.382818 0.382803 0.383032
0.389349 0.389334 0.389563
0.395865 0.39585 0.396094
0.40238 0.402365 0.402609
0.408881 0.408865 0.409125
0.415381 0.415366 0.415625
0.421866 0.421851 0.42211
0.428336 0.428321 0.42858
0.434806 0.434775 0.43505
0.441276 0.44126 0.441535
0.447761 0.447745 0.44802
0.454261 0.454246 0.45452
0.460777 0.460746 0.461036
0.467277 0.467262 0.467552
0.473808 0.473777 0.474067
0.480323 0.480293 0.480598
0.486839 0.486824 0.487129
0.49337 0.493339 0.493645
0.306523 0.306508 0.306691
0.313024 0.313024 0.313207
0.319554 0.319539 0.319738
0.326101 0.326085 0.326284
0.332647 0.332631 0.33283
0.339193 0.339178 0.339391
0.345739 0.345724 0.345937
0.3523 0.352285 0.352499
0.358862 0.358846 0.35906
0.365408 0.365393 0.365621
0.371969 0.371954 0.372183
0.378515 0.3785 0.378729
0.385061 0.385031 0.385275
0.391592 0.391577 0.391821
0.398123 0.398108 0.398352
0.404639 0.404623 0.404868
0.411154 0.411124 0.411383
0.417639 0.417624 0.417884
0.424125 0.424109 0.424369
0.430594 0.430564 0.430838
0.437064 0.437034 0.437308
0.443534 0.443519 0.443793
0.450019 0.450004 0.450278
0.456519 0.456504 0.456779
0.463035 0.463004 0.463294
0.469551 0.46952 0.46981
0.476066 0.476036 0.476326
0.482597 0.482567 0.482872
0.489113 0.489097 0.489403
0.495644 0.495628 0.495933
0.502174 0.502159 0.502464
0.508705 0.508675 0.508995
0.515236 0.515206 0.515526
0.328176 0.328176 0.328374
0.334737 0.334722 0.334936
0.341314 0.341299 0.341497
0.347875 0.34786 0.348074
0.354452 0.354437 0.35465
0.361013 0.360998 0.361227
0.36759 0.367575 0.367803
0.374151 0.374136 0.374365
0.380713 0.380697 0.380926
0.387259 0.387243 0.387488
0.393805 0.39379 0.394034
0.400336 0.40032 0.400565
0.406867 0.406851 0.407095
0.413382 0.413352 0.413611
0.419867 0.419852 0.420111
0.426352 0.426337 0.426596
0.432822 0.432807 0.433066
0.439307 0.439292 0.439551
0.445792 0.445777 0.446052
0.452293 0.452262 0.452552
0.458793 0.458762 0.459052
0.465293 0.465278 0.465553
0.471809 0.471794 0.472084
0.478325 0.478309 0.478599
0.484855 0.484825 0.48513
0.491371 0.491356 0.491661
0.497902 0.497887 0.498192
0.504433 0.504417 0.504723
0.510964 0.510948 0.511269
0.517494 0.517479 0.5178
0.524025 0.52401 0.52433
0.530556 0.530526 0.530846
0.537072 0.537041 0.537377
0.349966 0.34995 0.350164
0.356542 0.356527 0.356756
0.363134 0.363119 0.363333
0.369711 0.369696 0.369924
0.376287 0.376272 0.376501
0.382864 0.382849 0.383078
0.389425 0.38941 0.389654
0.395972 0.395956 0.396201
0.402518 0.402502 0.402747
0.409049 0.409033 0.409277
0.415579 0.415549 0.415808
0.42208 0.422049 0.422309
0.42855 0.428534 0.428794
0.435035 0.435019 0.435279
0.44152 0.441505 0.441779
0.44802 0.448005 0.44828
0.45452 0.454505 0.45478
0.461036 0.461006 0.461295
0.467552 0.467521 0.467811
0.474067 0.474037 0.474327
0.480583 0.480568 0.480858
0.487098 0.487083 0.487388
0.493629 0.493614 0.493919
0.50016 0.500145 0.50045
0.506691 0.506676 0.506981
0.513222 0.513207 0.513512
0.519753 0.519738 0.520058
0.526284 0.526253 0.526574
0.532799 0.532784 0.533104
0.53933 0.5393 0.539635
0.54583 0.545815 0.546151
0.552346 0.552316 0.552651
0.558831 0.558801 0.559152
0.371786 0.371771 0.372
0.378378 0.378363 0.378592
0.38497 0.384955 0.385183
0.391546 0.391516 0.39176
0.398108 0.398093 0.398337
0.404654 0.404639 0.404883
0.4112 0.41117 0.411429
0.417716 0.4177 0.41796
0.424231 0.424216 0.424475
0.430716 0.430701 0.430961
0.437217 0.437201 0.437461
0.443717 0.443702 0.443961
0.450217 0.450202 0.450477
0.456733 0.456718 0.456992
0.463249 0.463233 0.463523
0.46978 0.469764 0.470039
0.476295 0.47628 0.47657
0.482826 0.482811 0.483101
0.489357 0.489342 0.489632
0.495888 0.495857 0.496162
0.502419 0.502388 0.502693
0.508934 0.508919 0.509224
0.515465 0.51545 0.515755
0.521996 0.521965 0.522286
0.528511 0.528496 0.528817
0.535042 0.535012 0.535348
0.541558 0.541527 0.541863
0.548074 0.548043 0.548379
0.554574 0.554559 0.554894
0.561074 0.561044 0.561395
0.567559 0.567529 0.56788
0.574029 0.574014 0.574365
0.580499 0.580468 0.580819
0.393606 0.393591 0.393835
0.400183 0.400153 0.400412
0.406744 0.406729 0.406973
0.413291 0.413275 0.41352
0.419821 0.419806 0.420066
0.426337 0.426322 0.426581
0.432837 0.432822 0.433097
0.439353 0.439338 0.439612
0.445869 0.445853 0.446128
0.452399 0.452369 0.452659
0.458915 0.4589 0.459174
0.465446 0.465431 0.465705
0.471977 0.471962 0.472251
0.478508 0.478492 0.478782
0.485039 0.485023 0.485328
0.491585 0.491554 0.491859
0.498116 0.4981 0.498405
0.504646 0.504631 0.504936
0.511177 0.511162 0.511467
0.517708 0.517693 0.518013
0.524239 0.524208 0.524529
0.530755 0.530739 0.53106
0.53727 0.537255 0.537575
0.543786 0.543755 0.544091
0.550301 0.550271 0.550607
0.556786 0.556771 0.557107
0.563287 0.563256 0.563607
0.569772 0.569757 0.570092
0.576242 0.576226 0.576577
0.582712 0.582681 0.583047
0.589166 0.589136 0.589502
0.59559 0.595575 0.595941
0.602014 0.601984 0.602365
0.415335 0.41532 0.415579
0.421881 0.421866 0.422126
0.428397 0.428382 0.428641
0.434928 0.434897 0.435172
0.441444 0.441428 0.441703
0.447974 0.447959 0.448234
0.45452 0.454505 0.45478
0.461051 0.461036 0.461326
0.467597 0.467582 0.467872
0.474144 0.474128 0.474418
0.48069 0.480674 0.480964
0.487236 0.487221 0.487526
0.493782 0.493767 0.494072
0.500328 0.500313 0.500618
0.506859 0.506844 0.507149
0.513405 0.513375 0.513695
0.519936 0.519921 0.520241
0.526467 0.526436 0.526772
0.532982 0.532967 0.533288
0.539513 0.539483 0.539818
0.546014 0.545998 0.546334
0.552529 0.552499 0.552834
0.559014 0.558999 0.559335
0.565499 0.565484 0.56582
0.571984 0.571954 0.572305
0.578454 0.578424 0.578775
0.584909 0.584878 0.585245
0.591348 0.591333 0.591684
0.597787 0.597757 0.598123
0.604212 0.604181 0.604547
0.610605 0.610574 0.610956
0.616983 0.616953 0.617334
0.623346 0.623316 0.623697
0.436957 0.436942 0.437217
0.443503 0.443488 0.443763
0.45005 0.450034 0.450309
0.456611 0.456596 0.45687
0.463157 0.463142 0.463432
0.469718 0.469703 0.469993
0.47628 0.476265 0.476555
0.482841 0.482826 0.483116
0.489403 0.489372 0.489677
0.495949 0.495933 0.496239
0.50251 0.50248 0.5028
0.509056 0.509041 0.509346
0.515602 0.515572 0.515892
0.522148 0.522118 0.522438
0.528679 0.528649 0.528984
0.53521 0.53518 0.535515
0.541726 0.541711 0.542031
0.548241 0.548211 0.548547
0.554742 0.554726 0.555062
0.561242 0.561212 0.561563
0.567727 0.567697 0.568048
0.574197 0.574166 0.574517
0.580652 0.580636 0.580987
0.587106 0.587076 0.587442
0.593545 0.593515 0.593881
0.59997 0.599939 0.60032
0.606378 0.606348 0.606729
0.612772 0.612741 0.613123
0.61915 0.619135 0.619501
0.625513 0.625483 0.625864
0.631846 0.63183 0.632212
0.638163 0.638132 0.638529
0.644465 0.644434 0.644831
0.458656 0.458625 0.458915
0.465217 0.465202 0.465492
0.471794 0.471778 0.472068
0.47837 0.478355 0.478645
0.484947 0.484932 0.485222
0.491524 0.491493 0.491798
0.498085 0.49807 0.498375
0.504662 0.504631 0.504952
0.511223 0.511193 0.511513
0.517769 0.517754 0.518074
0.524315 0.5243 0.52462
0.530861 0.530846 0.531167
0.537408 0.537377 0.537713
0.543923 0.543908 0.544228
0.550439 0.550423 0.550759
0.556954 0.556924 0.55726
0.563455 0.563424 0.563775
0.56994 0.569909 0.57026
0.57641 0.576379 0.57673
0.582864 0.582834 0.5832
0.589303 0.589288 0.589639
0.595743 0.595712 0.596078
0.602152 0.602136 0.602502
0.60856 0.60853 0.608911
0.614939 0.614923 0.61529
0.621302 0.621286 0.621668
0.627665 0.627634 0.628016
0.633997 0.633967 0.634363
0.640314 0.640284 0.640681
0.646601 0.646571 0.646967
0.652857 0.652842 0.653239
0.659098 0.659083 0.65948
0.665324 0.665293 0.66569
0.48043 0.4804 0.480705
0.487007 0.486992 0.487282
0.493599 0.493568 0.493874
0.500175 0.50016 0.500465
0.506752 0.506737 0.507042
0.513329 0.513313 0.513634
0.519905 0.519875 0.520195
0.526467 0.526452 0.526772
0.533028 0.532998 0.533333
0.539574 0.539544 0.539879
0.546105 0.546075 0.54641
0.552621 0.552605 0.552941
0.559136 0.559121 0.559457
0.565637 0.565621 0.565957
0.572122 0.572106 0.572457
0.578607 0.578576 0.578927
0.585061 0.585031 0.585397
0.591501 0.591485 0.591852
0.59794 0.59791 0.598276
0.604349 0.604318 0.6047
0.610742 0.610727 0.611093
0.617121 0.617105 0.617472
0.623484 0.623453 0.623835
0.629831 0.629801 0.630182
0.636149 0.636118 0.636515
0.642451 0.64242 0.642817
0.648722 0.648707 0.649104
0.654978 0.654948 0.65536
0.661219 0.661189 0.661601
0.66743 0.667399 0.667811
0.673594 0.673564 0.673991
0.679744 0.679728 0.68014
0.685878 0.685847 0.686259
0.502235 0.50222 0.502525
0.508827 0.508797 0.509117
0.515419 0.515389 0.515709
0.521996 0.521981 0.522301
0.528572 0.528542 0.528878
0.535134 0.535119 0.535439
0.541695 0.541665 0.542
0.548241 0.548211 0.548547
0.554772 0.554757 0.555093
0.561288 0.561273 0.561624
0.567803 0.567788 0.568124
0.574304 0.574273 0.574624
0.580789 0.580758 0.581109
0.587243 0.587228 0.587579
0.593698 0.593668 0.594034
0.600122 0.600092 0.600473
0.606531 0.606516 0.606882
0.612924 0.612909 0.613275
0.619303 0.619287 0.619654
0.62565 0.625635 0.626017
0.631998 0.631968 0.632349
0.6383 0.63827 0.638666
0.644587 0.644572 0.644968
0.650858 0.650843 0.65124
0.657115 0.657084 0.657481
0.663325 0.66331 0.663706
0.66952 0.66949 0.669902
0.6757 0.675669 0.676081
0.681834 0.681804 0.682231
0.687953 0.687922 0.68835
0.694041 0.694011 0.694438
0.700099 0.700069 0.700496
0.706127 0.706096 0.706538
0.524041 0.524025 0.524346
0.530632 0.530602 0.530938
0.537209 0.537194 0.537514
0.543786 0.543755 0.544091
0.550347 0.550317 0.550652
0.556878 0.556863 0.557198
0.563424 0.563394 0.563745
0.56994 0.569909 0.57026
0.57644 0.57641 0.576776
0.582925 0.58291 0.583261
0.589395 0.589364 0.589731
0.59585 0.595819 0.596185
0.602289 0.602258 0.602625
0.608698 0.608667 0.609049
0.615091 0.615076 0.615442
0.621469 0.621439 0.62182
0.627832 0.627802 0.628183
0.634165 0.634134 0.634531
0.640467 0.640436 0.640833
0.646754 0.646723 0.64712
0.65301 0.652979 0.653391
0.659251 0.65922 0.659617
0.665461 0.665431 0.665843
0.671641 0.671611 0.672023
0.677791 0.67776 0.678172
0.683925 0.683894 0.684306
0.690028 0.689998 0.690425
0.696101 0.696071 0.696498
0.702159 0.702129 0.702556
0.708186 0.708156 0.708598
0.714183 0.714153 0.714595
0.72015 0.720119 0.720562
0.726101 0.72607 0.726513
0.545815 0.5458 0.546136
0.552392 0.552377 0.552712
0.558953 0.558923 0.559274
0.565499 0.565469 0.56582
0.57203 0.572 0.572351
0.578531 0.578515 0.578866
0.585031 0.585016 0.585367
0.591516 0.591485 0.591852
0.597986 0.597955 0.598321
0.604425 0.604395 0.604761
0.610834 0.610819 0.611185
0.617243 0.617212 0.617594
0.623621 0.62359 0.623972
0.629969 0.629953 0.630335
0.636301 0.636286 0.636667
0.642618 0.642588 0.642985
0.64889 0.648875 0.649271
0.655146 0.655131 0.655528
0.661387 0.661357 0.661753
0.667582 0.667567 0.667964
0.673762 0.673732 0.674144
0.679896 0.679881 0.680293
0.686015 0.685985 0.686412
0.692119 0.692088 0.6925
0.698177 0.698146 0.698573
0.704219 0.704189 0.704616
0.710231 0.710201 0.710643
0.716213 0.716197 0.716625
0.722179 0.722148 0.722591
0.72813 0.728099 0.728542
0.734035 0.734005 0.734447
0.739925 0.739895 0.740337
0.745769 0.745739 0.746197
0.567529 0.567498 0.567849
0.57406 0.574044 0.574395
0.580591 0.58056 0.580926
0.587106 0.587076 0.587442
0.593591 0.593561 0.593927
0.600061 0.600031 0.600397
0.6065 0.606485 0.606851
0.61294 0.612909 0.613291
0.619348 0.619318 0.619699
0.625727 0.625696 0.626093
0.63209 0.632074 0.632456
0.638422 0.638407 0.638788
0.644739 0.644709 0.645106
0.651026 0.650996 0.651392
0.657282 0.657252 0.657649
0.663508 0.663478 0.66389
0.669703 0.669673 0.670085
0.675868 0.675837 0.676265
0.682017 0.681987 0.682399
0.688121 0.68809 0.688518
0.694209 0.694179 0.694606
0.700252 0.700221 0.700664
0.706294 0.706264 0.706691
0.712291 0.712261 0.712703
0.718273 0.718242 0.718685
0.724224 0.724193 0.724636
0.730144 0.730114 0.730556
0.736049 0.736019 0.736461
0.741924 0.741894 0.742351
0.747768 0.747738 0.748196
0.753597 0.753567 0.754025
0.75938 0.75935 0.759823
0.765148 0.765118 0.765591
0.58912 0.58909 0.589456
0.595621 0.59559 0.595956
0.602106 0.602075 0.602441
