public/filters/konnect/Presets A Lighter Skin Tone/Captivate v1_29.2021-06-18 12-03-14.cube
TITLE "Generated by Resolve"
LUT_3D_SIZE 5
0.00848402 0.00848402 0.00848402
0.245167 0.00712596 0.00738537
0.523293 0.0053254 0.00587472
0.817395 0.000442512 0.0012665
1 0 0
0 0.233982 0.00109865
0.233875 0.236194 0.00619516
0.496513 0.23328 0.00276188
0.838849 0.276555 0.0252079
1 0.283742 0.0268101
0 0.489723 0
0.224918 0.495003 0
0.490303 0.495354 0.00144961
0.771511 0.492683 0
1 0.491142 0
0 0.764263 0
0.214206 0.771572 0
0.482567 0.774319 0
0.766018 0.774029 0
1 0.771588 0
0 1 0
0.201678 1 0
0.472709 1 0
0.758221 1 0
1 1 0
0.00581369 0.00605783 0.252766
0.235355 0.000640879 0.24947
0.496422 0 0.242557
0.776089 0 0.234241
1 0 0.226719
0 0.234089 0.247639
0.237308 0.239872 0.25362
0.530632 0.263188 0.277485
0.853834 0.289464 0.304402
1 0.291066 0.306371
0 0.49102 0.237995
0.230259 0.500496 0.248859
0.496681 0.502007 0.250813
0.789578 0.509987 0.257511
1 0.592706 0.328908
0 0.766262 0.227131
0.218067 0.774487 0.238941
0.486625 0.77818 0.243809
0.769482 0.777768 0.244099
1 0.775616 0.24213
0 1 0.214969
0.206592 1 0.229816
0.477348 1 0.236957
0.762661 1 0.239979
1 1 0.240238
0.000122072 0.000595102 0.532906
0.231586 0 0.529625
0.493339 0 0.524193
0.772976 0 0.517052
1 0 0.508721
0 0.23125 0.527062
0.233402 0.23621 0.531228
0.49723 0.234821 0.530358
0.77644 0.229221 0.525414
1 0.223072 0.520363
0 0.490379 0.519982
0.229587 0.499916 0.529671
0.50074 0.50634 0.5364
0.83212 0.549065 0.579934
1 0.606882 0.638788
0 0.766445 0.510674
0.218997 0.775357 0.521096
0.492607 0.784848 0.530739
0.777874 0.786465 0.532662
1 0.811841 0.556023
0 1 0.499916
0.20827 1 0.513008
0.479057 1 0.519615
0.765743 1 0.523751
1 1 0.522988
0 0 0.832822
0.227176 0 0.829465
0.489601 0 0.824765
0.769528 0 0.818418
1 0 0.810895
0 0.228031 0.826459
0.228977 0.232044 0.828489
0.49247 0.230503 0.827359
0.7729 0.226108 0.824063
1 0.219821 0.819242
0 0.488533 0.820569
0.225513 0.495735 0.826642
0.49456 0.500435 0.831678
0.778225 0.500282 0.831983
1 0.495521 0.827543
0 0.765484 0.81239
0.218112 0.774639 0.821622
0.491005 0.783337 0.830579
0.782757 0.791653 0.839246
1 0.845777 0.894377
0 1 0.802686
0.208347 1 0.814572
0.479774 1 0.821393
0.773342 1 0.83241
1 1 0.834913
0 0 1
0.222065 0 1
0.485267 0 1
0.765606 0 1
1 0 1
0 0.223957 1
0.224964 0.228275 1
0.488914 0.226993 1
0.769467 0.222705 1
1 0.21648 1
0 0.485817 1
0.222675 0.493309 1
0.489265 0.495399 1
0.771878 0.494575 1
1 0.491814 1
0 0.763684 1
0.216281 0.773175 1
0.485328 0.777508 1
0.773938 0.783108 1
1 0.784009 1
0 1 1
0.207324 1 1
0.478553 1 1
0.77055 1 1
1 1 1
