public/filters/konnect/Presets A Lighter Skin Tone/Captivate v1_29.2021-06-18 12-03-14.cube
TITLE "Generated by Resolve"
LUT_3D_SIZE 33
0.00848402 0.00848402 0.00848402
0.0346685 0.00877394 0.00880446
0.061387 0.00851453 0.00859083
0.0894026 0.00814832 0.00823987
0.118578 0.0077821 0.00790417
0.148836 0.00747692 0.00762951
0.180072 0.00726329 0.0074464
0.212222 0.00715648 0.00737011
0.245167 0.00712596 0.00738537
0.278798 0.00715648 0.00746166
0.312993 0.00721752 0.00755322
0.347601 0.00723278 0.00759899
0.382498 0.00715648 0.00755322
0.417472 0.00688182 0.00732433
0.452461 0.00640879 0.00686656
0.487724 0.00587472 0.00637827
0.523293 0.0053254 0.00587472
0.559152 0.00476081 0.00534066
0.5953 0.00418097 0.00479133
0.631708 0.00360113 0.00424201
0.668376 0.00299077 0.00366217
0.705287 0.00236515 0.00308232
0.742428 0.00173953 0.00248722
0.779812 0.00109865 0.00187686
0.817395 0.000442512 0.0012665
0.855207 0 0.000640879
0.893217 0 0
0.931411 0 0
0.969818 0 0
1 0 0
1 0 0
1 0 0
1 0 0
0.00825513 0.0344091 0.00859083
0.0340887 0.0343328 0.00865187
0.0605325 0.0341802 0.00849927
0.0888228 0.0344854 0.00860609
0.118166 0.0346838 0.00860609
0.148623 0.0349889 0.00863661
0.180072 0.0353857 0.00874342
0.212436 0.0358892 0.00894179
0.245624 0.0364843 0.00920119
0.279515 0.0371405 0.00952163
0.313985 0.0377966 0.00985733
0.348898 0.0383917 0.0101472
0.3841 0.0388647 0.0103609
0.419409 0.0391241 0.0103761
0.454643 0.0390784 0.0101472
0.48986 0.0387884 0.00970474
0.525399 0.038468 0.00924697
0.561212 0.038117 0.00875868
0.597314 0.0377508 0.00825513
0.633692 0.0373693 0.00773632
0.670314 0.0369573 0.00720226
0.707179 0.0365301 0.00665293
0.744289 0.0360876 0.00608835
0.781613 0.0356298 0.00550851
0.819165 0.0351568 0.00492866
0.856931 0.0346685 0.0043183
0.894896 0.034165 0.00370794
0.933059 0.0336461 0.00308232
0.97142 0.0331121 0.0024567
1 0.0325628 0.00180056
1 0.0320134 0.00115969
1 0.0314488 0.000488289
1 0.030869 0
0.0074464 0.0606851 0.00807202
0.0336919 0.0607767 0.00846876
0.0603189 0.0608225 0.00857557
0.0879072 0.0606394 0.00840772
0.116365 0.0603494 0.00807202
0.147631 0.0616464 0.00874342
0.180316 0.0633555 0.00968948
0.213153 0.0645151 0.0102541
0.246845 0.0657969 0.0109102
0.281254 0.0671244 0.0115969
0.316213 0.0684215 0.0122988
0.351568 0.0696117 0.0129244
0.387182 0.070634 0.0134279
0.422889 0.071397 0.0137484
0.458503 0.071809 0.0137942
0.493889 0.071809 0.0135042
0.529442 0.0716716 0.0131228
0.565286 0.0715038 0.0127108
0.601404 0.0713054 0.0122835
0.637781 0.0710918 0.0118257
0.674403 0.0708476 0.0113527
0.711269 0.0705882 0.0108492
0.748379 0.0702983 0.0103456
0.785702 0.0699931 0.00982681
0.823255 0.0696727 0.00927749
0.861021 0.0693217 0.00872816
0.89897 0.0689555 0.00814832
0.937133 0.0685893 0.00756847
0.975494 0.0681926 0.00697337
1 0.0677806 0.00637827
1 0.0673686 0.00575265
1 0.0669261 0.00512703
1 0.0664836 0.00450141
0.00639353 0.087953 0.00727855
0.03299 0.0881819 0.00798047
0.0598459 0.0883955 0.00833143
0.087602 0.0883803 0.00839246
0.116106 0.0881666 0.00820935
0.145266 0.0878157 0.00784314
0.175204 0.0874952 0.0074464
0.208682 0.0895705 0.00846876
0.245167 0.0934615 0.0107271
0.281239 0.0963912 0.0124208
0.316838 0.098436 0.0135348
0.352819 0.100343 0.0145724
0.389136 0.102113 0.0155337
0.425544 0.103593 0.0162966
0.461799 0.104631 0.0167697
0.497704 0.105135 0.0168154
0.53344 0.105257 0.0166018
0.569421 0.105318 0.0163272
0.605631 0.105303 0.0160067
0.642084 0.105257 0.0156405
0.678767 0.10518 0.0152438
0.715679 0.105058 0.0148318
0.752819 0.104921 0.0143893
0.790173 0.104753 0.0139315
0.827756 0.104555 0.0134585
0.865522 0.104341 0.0129549
0.903502 0.104112 0.0124514
0.94168 0.103853 0.0119173
0.980041 0.103593 0.011368
1 0.103304 0.0108186
1 0.102998 0.0102541
1 0.102678 0.00967422
1 0.102342 0.00907912
0.00514229 0.11603 0.00630198
0.0320745 0.116381 0.00726329
0.059144 0.116716 0.00784314
0.087068 0.116838 0.00808728
0.115709 0.116777 0.00810254
0.144976 0.116533 0.00790417
0.174777 0.116152 0.00753796
0.205081 0.115648 0.00704967
0.236271 0.115419 0.00663767
0.271473 0.118074 0.00791943
0.310903 0.123659 0.0110781
0.350637 0.128893 0.0141604
0.388937 0.132479 0.0162509
0.426123 0.134752 0.0175021
0.46302 0.136461 0.0183719
0.499657 0.137652 0.0188907
0.535973 0.138323 0.019028
0.572396 0.138811 0.0190585
0.608988 0.139193 0.0189975
0.645762 0.139483 0.0188602
0.682689 0.139666 0.0186465
0.719783 0.139773 0.0183719
0.757061 0.139834 0.0180667
0.794537 0.139834 0.0177157
0.832197 0.139788 0.017319
0.870039 0.139727 0.016907
0.90808 0.13962 0.0164645
0.946303 0.139498 0.0160067
0.984695 0.139345 0.0155337
1 0.139178 0.0150301
1 0.138979 0.0145266
1 0.138766 0.0139925
1 0.138537 0.0134585
0.00373846 0.144747 0.00517281
0.0309758 0.145205 0.00636301
0.0582437 0.145663 0.00714122
0.0863203 0.145922 0.00758373
0.115099 0.145968 0.00775158
0.144488 0.145846 0.00772107
0.174395 0.145586 0.00750744
0.204776 0.145174 0.00715648
0.235584 0.144656 0.00666819
0.266789 0.144045 0.00607309
0.299123 0.143984 0.00573739
0.335714 0.147097 0.00717174
0.37702 0.153613 0.0107271
0.419684 0.160678 0.0148165
0.460685 0.165927 0.0179141
0.499565 0.169055 0.0196841
0.536721 0.170504 0.0203403
0.57351 0.171405 0.0206149
0.610529 0.172198 0.0208286
0.64773 0.172915 0.0209659
0.685084 0.173526 0.0210422
0.722606 0.174029 0.0210422
0.76025 0.174441 0.0209659
0.798047 0.174762 0.0208286
0.835966 0.17499 0.0206149
0.874037 0.175158 0.0203708
0.912245 0.175265 0.0200656
0.950607 0.175326 0.0197147
0.98912 0.175326 0.0193332
1 0.175296 0.0189364
1 0.175235 0.0185092
1 0.175158 0.0180514
1 0.175036 0.0175784
0.00221256 0.174029 0.00392157
0.0297093 0.174578 0.0053254
0.0571603 0.175143 0.00627146
0.0853895 0.175509 0.00688182
0.114305 0.175677 0.00721752
0.143801 0.175662 0.00733959
0.173816 0.175494 0.00727855
0.204288 0.175189 0.00704967
0.235172 0.174762 0.00669871
0.266438 0.174228 0.00622568
0.298085 0.173617 0.00564584
0.330083 0.172946 0.0049897
0.363516 0.173144 0.00474556
0.401205 0.176562 0.00627146
0.443519 0.183368 0.00982681
0.487785 0.191287 0.0142672
0.530663 0.197604 0.0179141
0.571313 0.20174 0.020264
0.61033 0.204273 0.0215915
0.648341 0.205707 0.0222019
0.685985 0.206653 0.0224765
0.723827 0.207492 0.0226902
0.761837 0.20827 0.022858
0.8 0.208957 0.0229496
0.8383 0.209552 0.0229953
0.876738 0.210071 0.0229648
0.915282 0.210513 0.0228885
0.953948 0.210849 0.0227359
0.992752 0.211139 0.0225528
1 0.211353 0.0223087
1 0.21149 0.0220188
1 0.211597 0.0216831
1 0.211643 0.0213169
0.000595102 0.203784 0.00256352
0.0283207 0.20441 0.00415045
0.0559396 0.205081 0.00526436
0.0843061 0.205554 0.00602731
0.113344 0.205814 0.0065156
0.142947 0.205905 0.00677501
0.173068 0.205829 0.0068513
0.203632 0.205615 0.00675975
0.234592 0.205295 0.00653086
0.265949 0.204852 0.0061799
0.297658 0.204318 0.00570687
0.329717 0.203723 0.00515755
0.362097 0.203067 0.00453193
0.394827 0.20238 0.00384527
0.429328 0.202899 0.00373846
0.467826 0.206455 0.0052491
0.510399 0.212985 0.00851453
0.555245 0.220951 0.0128023
0.599832 0.228275 0.0169223
0.64268 0.233829 0.0200656
0.683757 0.237629 0.0221561
0.723491 0.240101 0.0234073
0.762325 0.241611 0.0240482
0.800763 0.242603 0.0243229
0.839323 0.243488 0.0245518
0.87805 0.244297 0.0247196
0.916899 0.245045 0.0248264
0.955901 0.245716 0.0249027
0.995026 0.246326 0.024918
1 0.246845 0.0248722
1 0.247303 0.0247807
1 0.247669 0.0246433
1 0.247974 0.024445
0 0.233982 0.00109865
0.0268101 0.234684 0.0028687
0.0545815 0.235431 0.0041352
0.0830701 0.235996 0.00505074
0.11223 0.236347 0.00567636
0.141955 0.23653 0.00607309
0.172168 0.236561 0.00627146
0.202823 0.236439 0.00630198
0.233875 0.236194 0.00619516
0.265309 0.235843 0.00595102
0.297093 0.235401 0.00560006
0.329213 0.234882 0.00515755
0.361669 0.234302 0.00463874
0.394446 0.233692 0.0040589
0.427558 0.233051 0.00340276
0.461006 0.232441 0.00273136
0.496513 0.23328 0.00276188
0.535515 0.236759 0.00416571
0.57818 0.242939 0.00709544
0.623423 0.250828 0.0112001
0.669215 0.258793 0.0155337
0.713909 0.265507 0.0192874
0.756939 0.270558 0.0220951
0.798459 0.274128 0.0240024
0.838849 0.276555 0.0252079
0.878431 0.278141 0.025864
0.917571 0.279179 0.0261692
0.956786 0.280095 0.0263828
0.996155 0.280949 0.026566
1 0.281743 0.026688
1 0.282475 0.0267796
1 0.283146 0.0268254
1 0.283742 0.0268101
0 0.264576 0
0.0252079 0.265339 0.00149538
0.0531167 0.266163 0.00291447
0.0817273 0.266804 0.00395209
0.110994 0.267247 0.00469978
0.14081 0.267521 0.00523384
0.17113 0.267628 0.00555428
0.201877 0.267597 0.00570687
0.233021 0.267445 0.00570687
0.26453 0.267185 0.0055848
0.296391 0.266819 0.00534066
0.328588 0.266377 0.00500496
0.36112 0.265888 0.00459297
0.393957 0.265354 0.00410468
0.427131 0.264805 0.00355535
0.460624 0.26424 0.00296025
0.494453 0.263691 0.00234989
0.528634 0.263188 0.00170901
0.564904 0.264195 0.00178531
0.604318 0.267582 0.00308232
0.647074 0.273426 0.00573739
0.692515 0.281132 0.00959792
0.739071 0.289387 0.013962
0.785199 0.296941 0.0180972
0.829984 0.30312 0.0215
0.873243 0.30779 0.0240482
0.915221 0.311208 0.0258488
0.956191 0.313588 0.0269932
0.996445 0.315221 0.0276646
1 0.31635 0.0280003
1 0.317281 0.0282139
1 0.318166 0.028397
1 0.319005 0.0285344
0 0.295583 0
0.0235294 0.296361 6.10361e-05
0.0515602 0.297246 0.0016022
0.0802777 0.297948 0.00276188
0.109651 0.298482 0.00363165
0.139559 0.298833 0.00427253
0.16997 0.299031 0.00471504
0.200809 0.299077 0.0049897
0.232044 0.299016 0.00509651
0.263645 0.298833 0.00508125
0.295583 0.298558 0.00495918
0.327855 0.298207 0.0047303
0.360449 0.297795 0.00440986
0.393378 0.297353 0.00401312
0.426612 0.296864 0.00357061
0.460166 0.296391 0.00306706
0.494057 0.295918 0.002533
0.528206 0.295415 0.00195315
0.5626 0.294865 0.00131228
0.597375 0.294408 0.000671397
0.634302 0.295552 0.000793469
0.674113 0.298848 0.00198367
0.716991 0.304402 0.00442512
0.762539 0.311864 0.00801099
0.809598 0.320211 0.012314
0.856764 0.328344 0.0166476
0.902983 0.335409 0.0205081
0.947875 0.341115 0.023621
0.991409 0.34551 0.0259861
1 0.348775 0.0276493
1 0.351156 0.0287785
1 0.352834 0.0294652
1 0.35404 0.0298314
0 0.32697 0
0.0218051 0.327764 0
0.0499428 0.328695 0.000213626
0.0787671 0.329458 0.00149538
0.108217 0.330037 0.00248722
0.138216 0.330465 0.00323491
0.168719 0.330739 0.00378424
0.199634 0.330877 0.00416571
0.230961 0.330892 0.00437934
0.262638 0.3308 0.00447089
0.294667 0.330602 0.00445563
0.327031 0.330343 0.0043183
0.359701 0.330022 0.00410468
0.392706 0.329656 0.00381476
0.426017 0.329259 0.0034638
0.459648 0.328862 0.0030518
0.493584 0.328466 0.00260929
0.527779 0.328023 0.00209049
0.562203 0.32752 0.0015259
0.596872 0.327001 0.000915541
0.631754 0.326421 0.000244144
0.667124 0.326055 0
0.704646 0.327291 0
0.744839 0.330541 0.000900282
0.787839 0.335851 0.0031281
0.833463 0.343038 0.00648508
0.880812 0.351339 0.0106203
0.928695 0.359777 0.0150301
0.97612 0.367559 0.0191958
1 0.374166 0.0227817
1 0.379507 0.0256657
1 0.383658 0.027863
1 0.386816 0.0294499
0 0.358755 0
0.0200656 0.359533 0
0.0482948 0.360494 0
0.0771954 0.361288 0.000167849
0.106737 0.361929 0.0012665
0.136812 0.362417 0.002121
0.167391 0.362768 0.00276188
0.198398 0.362982 0.00325017
0.229801 0.363073 0.00357061
0.26157 0.363058 0.00376898
0.293675 0.362951 0.00384527
0.326131 0.362783 0.00381476
0.358877 0.362539 0.00369268
0.391959 0.362264 0.00349432
0.425361 0.361959 0.00323491
0.459068 0.361654 0.00292973
0.49305 0.361303 0.00256352
0.527276 0.360906 0.002121
0.561746 0.360479 0.00163272
0.59646 0.360006 0.00108339
0.631373 0.359487 0.000488289
0.666499 0.358938 0
0.701839 0.358358 0
0.737789 0.358083 0
0.77586 0.359411 0
0.816388 0.362585 0
0.859586 0.367727 0.00187686
0.905241 0.374655 0.00500496
0.952758 0.382803 0.00895705
1 0.391424 0.0133364
1 0.399695 0.0177005
1 0.407034 0.0216373
1 0.41323 0.0249638
0 0.390967 0
0.0183108 0.391714 0
0.0466316 0.39266 0
0.0756085 0.393484 0
0.105211 0.394171 0
0.135378 0.394705 0.000946059
0.166018 0.395117 0.00169375
0.197101 0.395392 0.00227359
0.228595 0.39556 0.00268559
0.260441 0.395621 0.00299077
0.292638 0.395605 0.00315862
0.32517 0.395514 0.00321965
0.358007 0.395361 0.00320439
0.391165 0.395178 0.00309758
0.424659 0.394965 0.00294499
0.458427 0.39472 0.00271611
0.492454 0.39443 0.00241093
0.526726 0.39408 0.00205997
0.561227 0.393698 0.00163272
0.595972 0.393286 0.00115969
0.63093 0.392828 0.00062562
0.666102 0.392325 4.57771e-05
0.701473 0.391791 0
0.737041 0.391226 0
0.772793 0.390616 0
0.809293 0.390463 0
0.847883 0.391882 0
0.888747 0.39501 0
0.932067 0.399954 0.000610361
0.977798 0.406622 0.00352483
1 0.414649 0.00730907
1 0.423301 0.0116121
1 0.431861 0.0160372
0 0.423575 0
0.0165866 0.424292 0
0.0449836 0.425223 0
0.0740215 0.426062 0
0.1037 0.426764 0
0.133913 0.427329 0
0.16463 0.427787 0.000579843
0.195789 0.428122 0.00123598
0.227359 0.428367 0.00175479
0.259281 0.428504 0.00213626
0.291554 0.428565 0.00241093
0.324178 0.42855 0.00256352
0.357107 0.428489 0.00263981
0.390356 0.428397 0.00263981
0.423896 0.428244 0.00256352
0.45771 0.428061 0.00239567
0.491783 0.427817 0.00218204
0.526101 0.427527 0.00189212
0.560647 0.427192 0.00154116
0.595422 0.426825 0.00112917
0.630426 0.426413 0.000671397
0.665629 0.425956 0.00015259
0.70103 0.425483 0
0.736629 0.424949 0
0.772427 0.424399 0
0.808392 0.423819 0
0.844556 0.423209 0
0.88159 0.423178 0
0.920653 0.424674 0
0.961868 0.427771 0
1 0.432578 0
1 0.439033 0.002121
1 0.446815 0.00569161
0 0.456504 0
0.0148775 0.457237 0
0.0433661 0.458198 0
0.0724804 0.459022 0
0.102205 0.459739 0
0.132494 0.460334 0
0.163272 0.460822 0
0.194491 0.461204 0.000183108
0.226123 0.461509 0.00077821
0.258122 0.461723 0.00125124
0.290486 0.461845 0.00161746
0.323171 0.461921 0.0018616
0.356191 0.461936 0.00202945
0.389502 0.461906 0.00210575
0.423102 0.461799 0.00209049
0.456947 0.461662 0.00201419
0.491066 0.461463 0.00184634
0.525429 0.461219 0.00163272
0.560021 0.460945 0.00134279
0.594827 0.460609 0.0010071
0.629862 0.460243 0.000610361
0.665095 0.459846 0.00015259
0.700542 0.459403 0
0.736171 0.45893 0
0.772 0.458427 0
0.807996 0.457893 0
0.84419 0.457313 0
0.880537 0.456718 0
0.917067 0.456092 0
0.95465 0.456214 0
0.994141 0.457755 0
1 0.460838 0
1 0.465507 0
0 0.489723 0
0.013138 0.490471 0
0.0417334 0.491463 0
0.0709392 0.492332 0
0.100755 0.49308 0
0.131106 0.493706 0
0.161944 0.494224 0
0.193225 0.494667 0
0.224918 0.495003 0
0.256992 0.495262 0.000350958
0.289418 0.49546 0.000793469
0.322179 0.495583 0.00111391
0.355245 0.495644 0.00135805
0.388602 0.495659 0.00149538
0.422232 0.495613 0.00155642
0.456138 0.495506 0.00154116
0.490303 0.495354 0.00144961
0.524697 0.495155 0.00129702
0.559319 0.494926 0.00108339
0.594171 0.494636 0.000808728
0.629252 0.494316 0.00047303
0.664515 0.493965 7.62951e-05
0.699992 0.493568 0
0.735668 0.493141 0
0.771511 0.492683 0
0.807553 0.49218 0
0.843763 0.491661 0
0.88014 0.491096 0
0.916701 0.490517 0
0.953414 0.489906 0
0.990326 0.489296 0
1 0.48954 0
1 0.491142 0
0 0.523201 0
0.0113527 0.52398 0
0.0400702 0.525002 0
0.0693675 0.525917 0
0.0992599 0.526696 0
0.129686 0.527367 0
0.160601 0.527932 0
0.191943 0.528405 0
0.223713 0.528786 0
0.255833 0.529091 0
0.288319 0.529335 0
0.321126 0.529503 0.00030518
0.354238 0.52961 0.000610361
0.387655 0.529656 0.000823987
0.421332 0.529656 0.000946059
0.455283 0.529595 0.0010071
0.489479 0.529488 0.000976577
0.523919 0.529335 0.000885023
0.558587 0.529137 0.000732433
0.593469 0.528908 0.000518807
0.62858 0.528634 0.000244144
0.66389 0.528313 0
0.699397 0.527962 0
0.735103 0.527565 0
0.770977 0.527153 0
0.80705 0.526696 0
0.84329 0.526207 0
0.879698 0.525704 0
0.916289 0.525154 0
0.953017 0.52459 0
0.989914 0.52398 0
1 0.523354 0
1 0.522774 0
0 0.556939 0
0.00956741 0.557748 0
0.0383764 0.558801 0
0.0677653 0.559747 0
0.0977493 0.560555 0
0.128237 0.561273 0
0.159228 0.561868 0
0.190631 0.562387 0
0.222446 0.562814 0
0.254643 0.563165 0
0.287175 0.563439 0
0.320027 0.563653 0
0.353201 0.563806 0
0.386648 0.563897 9.15541e-05
0.420386 0.563928 0.000289921
0.454368 0.563912 0.000396735
0.488609 0.563851 0.000442512
0.523095 0.563729 0.000411994
0.557794 0.563577 0.000320439
0.592721 0.563378 0.000167849
0.627863 0.563149 0
0.663203 0.562875 0
0.698756 0.56257 0
0.734478 0.562219 0
0.770397 0.561837 0
0.8065 0.561425 0
0.842771 0.560983 0
0.87921 0.56051 0
0.915816 0.560006 0
0.95259 0.559472 0
0.989502 0.558907 0
1 0.558328 0
1 0.557717 0
0 0.590936 0
0.00773632 0.59176 0
0.0366522 0.592844 0
0.0661326 0.59382 0
0.0961929 0.594675 0
0.126757 0.595407 0
0.157809 0.596063 0
0.189288 0.596613 0
0.221164 0.59707 0
0.253407 0.597467 0
0.285985 0.597772 0
0.318898 0.598032 0
0.352117 0.598215 0
0.385611 0.598352 0
0.419394 0.598428 0
0.453422 0.598444 0
0.487709 0.598428 0
0.522225 0.598352 0
0.55697 0.59823 0
0.591928 0.598077 0
0.6271 0.597879 0
0.662486 0.59765 0
0.698054 0.597375 0
0.733822 0.59707 0
0.769772 0.596719 0
0.805905 0.596353 0
0.842206 0.595941 0
0.878676 0.595514 0
0.915312 0.595041 0
0.952102 0.594553 0
0.989059 0.594034 0
1 0.593484 0
1 0.592905 0
0 0.625162 0
0.00588998 0.626001 0
0.0349126 0.627115 0
0.0644846 0.628122 0
0.0946059 0.629007 0
0.125246 0.629786 0
0.156359 0.630472 0
0.1879 0.631052 0
0.219837 0.631556 0
0.252125 0.631983 0
0.284764 0.632334 0
0.317723 0.632624 0
0.350988 0.632853 0
0.384543 0.633021 0
0.418357 0.633127 0
0.45243 0.633188 0
0.486748 0.633204 0
0.521309 0.633173 0
0.556085 0.633097 0
0.591089 0.632975 0
0.626307 0.632822 0
0.661723 0.632624 0
0.697322 0.632395 0
0.73312 0.63212 0
0.7691 0.631815 0
0.805264 0.631479 0
0.841596 0.631113 0
0.878096 0.630716 0
0.914748 0.630274 0
0.951583 0.629831 0
0.988556 0.629343 0
1 0.628824 0
1 0.62829 0
0 0.659617 0
0.00401312 0.660471 0
0.0331426 0.661616 0
0.0627909 0.662638 0
0.0930037 0.663569 0
0.123705 0.664378 0
0.154879 0.665095 0
0.186481 0.665721 0
0.218463 0.666255 0
0.250828 0.666712 0
0.283513 0.667109 0
0.316518 0.66743 0
0.349828 0.667689 0
0.383413 0.667903 0
0.417288 0.668055 0
0.451392 0.668147 0
0.485756 0.668193 0
0.520348 0.668208 0
0.555169 0.668162 0
0.590219 0.668086 0
0.625467 0.667964 0
0.660914 0.667796 0
0.696544 0.667597 0
0.732372 0.667369 0
0.768383 0.667094 0
0.804578 0.666789 0
0.84094 0.666468 0
0.87747 0.666102 0
0.914153 0.665705 0
0.951003 0.665278 0
0.988006 0.664836 0
1 0.664363 0
1 0.663859 0
0 0.694286 0
0.002121 0.695155 0
0.031342 0.69633 0
0.0610819 0.697383 0
0.0913558 0.698344 0
0.122133 0.699184 0
0.153368 0.699931 0
0.185031 0.700587 0
0.217075 0.701167 0
0.249485 0.701656 0
0.282216 0.702083 0
0.315282 0.702449 0
0.348638 0.702739 0
0.382269 0.702983 0
0.416175 0.703166 0
0.450324 0.703304 0
0.484733 0.70338 0
0.519371 0.703426 0
0.554223 0.703426 0
0.589303 0.703365 0
0.624582 0.703288 0
0.66006 0.703151 0
0.695735 0.702998 0
0.731594 0.7028 0
0.767636 0.702556 0
0.803861 0.702296 0
0.840238 0.701991 0
0.876799 0.701671 0
0.913527 0.701305 0
0.950393 0.700923 0
0.987427 0.700511 0
1 0.700069 0
1 0.699596 0
0 0.729168 0
0.000213626 0.730053 0
0.0295262 0.731243 0
0.0593423 0.732341 0
0.0896925 0.733318 0
0.120531 0.734203 0
0.151843 0.734981 0
0.183551 0.735668 0
0.215656 0.736263 0
0.248112 0.736797 0
0.280903 0.737255 0
0.314 0.737652 0
0.347402 0.737987 0
0.381079 0.738262 0
0.41503 0.738476 0
0.449226 0.738643 0
0.483665 0.738766 0
0.518334 0.738842 0
0.553231 0.738857 0
0.588342 0.738857 0
0.623652 0.738796 0
0.659175 0.738705 0
0.694881 0.738567 0
0.73077 0.738415 0
0.766842 0.738216 0
0.803098 0.737972 0
0.839506 0.737713 0
0.876097 0.737423 0
0.91284 0.737087 0
0.949752 0.736736 0
0.986801 0.736355 0
1 0.735943 0
1 0.735515 0
0 0.764263 0
0 0.765164 0
0.0276799 0.766369 0
0.0575875 0.767498 0
0.0879988 0.768505 0
0.118914 0.769406 0
0.150271 0.770214 0
0.18204 0.770932 0
0.214206 0.771572 0
0.246708 0.772137 0
0.279545 0.772625 0
0.312703 0.773053 0
0.346136 0.773419 0
0.379858 0.773724 0
0.413855 0.773968 0
0.448096 0.774166 0
0.482567 0.774319 0
0.517281 0.774426 0
0.552209 0.774487 0
0.58735 0.774517 0
0.622705 0.774487 0
0.658244 0.774426 0
0.693996 0.774334 0
0.729915 0.774197 0
0.766018 0.774029 0
0.802289 0.773831 0
0.838743 0.773602 0
0.875349 0.773342 0
0.912123 0.773037 0
0.94905 0.772717 0
0.986145 0.772366 0
1 0.772 0
1 0.771588 0
0 0.799542 0
0 0.800458 0
0.0258335 0.801694 0
0.0558022 0.802838 0
0.0862898 0.803876 0
0.117266 0.804807 0
0.148684 0.805646 0
0.180514 0.806394 0
0.212726 0.807065 0
0.245274 0.80766 0
0.278172 0.808179 0
0.31136 0.808637 0
0.344854 0.809033 0
0.378622 0.809369 0
0.41265 0.809644 0
0.446921 0.809888 0
0.481437 0.810071 0
0.516182 0.810208 0
0.551156 0.8103 0
0.586328 0.810346 0
0.621714 0.810361 0
0.657298 0.81033 0
0.693065 0.810269 0
0.729015 0.810162 0
0.765148 0.810025 0
0.801465 0.809857 0
0.837934 0.809659 0
0.874571 0.80943 0
0.911376 0.809155 0
0.948333 0.808865 0
0.985443 0.808545 0
1 0.808209 0
1 0.807828 0
0 0.835019 0
0 0.83595 0
0.0239567 0.837201 0
0.0540017 0.838376 0
0.0845655 0.839429 0
0.115602 0.840391 0
0.147066 0.84126 0
0.178958 0.842039 0
0.211215 0.842741 0
0.243824 0.843351 0
0.276753 0.843915 0
0.310002 0.844388 0
0.343526 0.844816 0
0.37734 0.845182 0
0.411399 0.845502 0
0.445716 0.845762 0
0.480278 0.845975 0
0.515053 0.846143 0
0.550057 0.846265 0
0.585275 0.846357 0
0.620691 0.846387 0
0.656306 0.846387 0
0.692103 0.846357 0
0.728084 0.846296 0
0.764248 0.846189 0
0.800595 0.846052 0
0.837095 0.845869 0
0.873762 0.84567 0
0.910597 0.845441 0
0.94757 0.845182 0
0.98471 0.844892 0
1 0.844572 0
1 0.844236 0
0 0.87068 0
0 0.871626 0
0.0220493 0.872892 0
0.0521706 0.874083 0
0.0828107 0.875166 0
0.113909 0.876158 0
0.145434 0.877058 0
0.177371 0.877852 0
0.209689 0.878584 0
