public/filters/konnect/Presets A Lighter Skin Tone/Captivate v1_29.2021-06-18 12-03-14.cube
TITLE "Generated by Resolve"
LUT_3D_SIZE 9
0.00848402 0.00848402 0.00848402
0.118578 0.0077821 0.00790417
0.245167 0.00712596 0.00738537
0.382498 0.00715648 0.00755322
0.523293 0.0053254 0.00587472
0.668376 0.00299077 0.00366217
0.817395 0.000442512 0.0012665
0.969818 0 0
1 0 0
0.00514229 0.11603 0.00630198
0.115709 0.116777 0.00810254
0.236271 0.115419 0.00663767
0.388937 0.132479 0.0162509
0.535973 0.138323 0.019028
0.682689 0.139666 0.0186465
0.832197 0.139788 0.017319
0.984695 0.139345 0.0155337
1 0.138537 0.0134585
0 0.233982 0.00109865
0.11223 0.236347 0.00567636
0.233875 0.236194 0.00619516
0.361669 0.234302 0.00463874
0.496513 0.23328 0.00276188
0.669215 0.258793 0.0155337
0.838849 0.276555 0.0252079
0.996155 0.280949 0.026566
1 0.283742 0.0268101
0 0.358755 0
0.106737 0.361929 0.0012665
0.229801 0.363073 0.00357061
0.358877 0.362539 0.00369268
0.49305 0.361303 0.00256352
0.631373 0.359487 0.000488289
0.77586 0.359411 0
0.952758 0.382803 0.00895705
1 0.41323 0.0249638
0 0.489723 0
0.100755 0.49308 0
0.224918 0.495003 0
0.355245 0.495644 0.00135805
0.490303 0.495354 0.00144961
0.629252 0.494316 0.00047303
0.771511 0.492683 0
0.916701 0.490517 0
1 0.491142 0
0 0.625162 0
0.0946059 0.629007 0
0.219837 0.631556 0
0.350988 0.632853 0
0.486748 0.633204 0
0.626307 0.632822 0
0.7691 0.631815 0
0.914748 0.630274 0
1 0.62829 0
0 0.764263 0
0.0879988 0.768505 0
0.214206 0.771572 0
0.346136 0.773419 0
0.482567 0.774319 0
0.622705 0.774487 0
0.766018 0.774029 0
0.912123 0.773037 0
1 0.771588 0
0 0.906523 0
0.0810254 0.911086 0
0.208133 0.914611 0
0.34081 0.916915 0
0.477867 0.918303 0
0.618555 0.918959 0
0.762356 0.918975 0
0.908919 0.918471 0
1 0.917494 0
0 1 0
0.0737316 1 0
0.201678 1 0
0.335058 1 0
0.472709 1 0
0.613931 1 0
0.758221 1 0
0.905211 1 0
1 1 0
0.00793469 0.00805676 0.124025
0.116487 0.00616464 0.122988
0.236667 0.0021973 0.120256
0.364401 0 0.116564
0.499046 0 0.113313
0.647471 0 0.116381
0.805142 0 0.12256
0.963928 0 0.126482
1 0 0.128023
0.0052491 0.11603 0.122286
0.116426 0.117617 0.123934
0.242374 0.120989 0.127489
0.384833 0.129702 0.136446
0.536034 0.138949 0.145953
0.68481 0.141878 0.149081
0.833906 0.141756 0.149126
0.986282 0.141268 0.148821
1 0.140475 0.148211
9.15541e-05 0.234791 0.118608
0.114244 0.238407 0.122835
0.236637 0.239078 0.123705
0.367819 0.240299 0.124697
0.539956 0.270939 0.151202
0.700359 0.284932 0.163256
0.851789 0.28751 0.165194
1 0.288624 0.165743
1 0.289219 0.16582
0 0.359899 0.113176
0.109407 0.364538 0.119051
0.233341 0.366735 0.121614
0.362554 0.366339 0.121569
0.495628 0.364111 0.119722
0.64065 0.368307 0.122621
0.840391 0.415091 0.159548
1 0.431922 0.172747
1 0.437675 0.176837
0 0.490684 0.107424
0.10312 0.494957 0.113832
0.227939 0.497917 0.117494
0.358373 0.498817 0.118883
0.492744 0.497932 0.118456
0.6309 0.496284 0.117098
0.773068 0.494697 0.115496
0.92752 0.50074 0.119265
1 0.543572 0.150561
0 0.626307 0.101625
0.0969863 0.630518 0.108766
0.222095 0.63331 0.11284
0.353246 0.634867 0.115145
0.488838 0.635248 0.11603
0.62829 0.634928 0.115999
0.771023 0.634028 0.11519
0.916609 0.632563 0.113725
1 0.63064 0.111696
0 0.765545 0.0954452
0.0907149 0.770153 0.103593
0.21677 0.773449 0.108522
0.348608 0.775448 0.111589
0.484947 0.776486 0.113329
0.624994 0.776761 0.114046
0.768246 0.776394 0.113954
0.91429 0.775494 0.113161
1 0.774105 0.111788
0 0.907927 0.0889906
0.0840314 0.912871 0.0980087
0.210986 0.916594 0.103746
0.343557 0.919081 0.107546
0.480522 0.920592 0.110002
0.621134 0.921355 0.111406
0.764874 0.921477 0.111955
0.91136 0.92105 0.111788
1 0.92015 0.111009
0 1 0.0822614
0.0770123 1 0.0920882
0.204791 1 0.0985428
0.338064 1 0.103029
0.475624 1 0.106142
0.61677 1 0.108171
0.760983 1 0.109331
0.907912 1 0.109758
1 1 0.109545
0.00581369 0.00605783 0.252766
0.114977 0.00433356 0.251652
0.235355 0.000640879 0.24947
0.363073 0 0.246265
0.496422 0 0.242557
0.634363 0 0.23856
0.776089 0 0.234241
0.921157 0 0.229709
1 0 0.226719
0.00386053 0.114748 0.250492
0.115343 0.11664 0.252079
0.236515 0.116014 0.251682
0.36434 0.11371 0.249668
0.497505 0.110552 0.246921
0.638621 0.1093 0.246555
0.801022 0.119326 0.259403
0.970062 0.130602 0.273579
1 0.136416 0.281361
0 0.234089 0.247639
0.114046 0.23827 0.251896
0.237308 0.239872 0.25362
0.37438 0.246448 0.260395
0.530632 0.263188 0.277485
0.695521 0.281239 0.295918
0.853834 0.289464 0.304402
1 0.29044 0.305562
1 0.291066 0.306371
0 0.359869 0.243091
0.110094 0.365316 0.249042
0.235157 0.368765 0.252613
0.365438 0.36936 0.253361
0.50602 0.374044 0.25771
0.694408 0.416358 0.296757
0.867704 0.438865 0.317586
1 0.443458 0.321752
1 0.445243 0.323247
0 0.49102 0.237995
0.104295 0.496147 0.244236
0.230259 0.500496 0.248859
0.361898 0.502602 0.251133
0.496681 0.502007 0.250813
0.63389 0.499367 0.248554
0.789578 0.509987 0.257511
1 0.575097 0.313741
1 0.592706 0.328908
0 0.626841 0.232761
0.0980392 0.631281 0.239063
0.223926 0.635203 0.243656
0.356161 0.637995 0.246754
0.492164 0.638758 0.247837
0.630777 0.637568 0.247059
0.772274 0.635477 0.245335
0.917586 0.633844 0.243793
1 0.646784 0.253956
0 0.766262 0.227131
0.0920577 0.771084 0.234379
0.218067 0.774487 0.238941
0.350042 0.776776 0.241947
0.486625 0.77818 0.243809
0.626505 0.778332 0.244358
0.769482 0.777768 0.244099
0.915526 0.776928 0.243397
1 0.775616 0.24213
0 0.908782 0.22118
0.0856489 0.913939 0.229282
0.212543 0.9178 0.234592
0.345083 0.920378 0.238148
0.482033 0.921981 0.240467
0.622614 0.92282 0.241794
0.766339 0.923003 0.242344
0.91281 0.922652 0.242222
1 0.921798 0.24152
0 1 0.214969
0.0788739 1 0.223819
0.206592 1 0.229816
0.339818 1 0.234028
0.477348 1 0.236957
0.618463 1 0.23888
0.762661 1 0.239979
0.909575 1 0.240406
1 1 0.240238
0.00311284 0.0034638 0.389776
0.112917 0.00192264 0.388418
0.233555 0 0.386526
0.361486 0 0.383764
0.494957 0 0.380499
0.632883 0 0.376837
0.774533 0 0.372808
0.919417 0 0.368521
1 0 0.363973
0.00178531 0.112902 0.386679
0.113313 0.114733 0.387808
0.234714 0.114366 0.387717
0.362783 0.112337 0.386114
0.495872 0.109194 0.383505
0.633402 0.105547 0.380484
0.775021 0.101671 0.377401
0.919921 0.0974594 0.374029
1 0.093019 0.370489
0 0.232639 0.384222
0.112398 0.236622 0.387854
0.235889 0.238575 0.38996
0.365362 0.238331 0.389899
0.499092 0.236408 0.388144
0.636957 0.233829 0.385809
0.781888 0.233448 0.385992
0.95433 0.250706 0.405829
1 0.271626 0.429603
0 0.359091 0.380484
0.109209 0.364355 0.385794
0.234714 0.368414 0.389975
0.366155 0.370199 0.391897
0.510658 0.378531 0.400473
0.679896 0.403616 0.426017
0.857771 0.430549 0.453422
1 0.445258 0.468467
1 0.446967 0.470375
0 0.490883 0.37615
0.104204 0.49601 0.381811
0.230838 0.501228 0.387182
0.363882 0.504829 0.390845
0.500023 0.505486 0.391638
0.650141 0.514961 0.400671
0.851926 0.566949 0.449958
1 0.598093 0.479576
1 0.605676 0.486778
0 0.626917 0.371359
0.0983902 0.631556 0.377111
0.224994 0.636423 0.38233
0.358633 0.640803 0.386786
0.496132 0.643046 0.389105
0.635355 0.642283 0.388617
0.775921 0.639185 0.385885
0.943481 0.657954 0.40264
1 0.740398 0.476844
0 0.766522 0.366155
0.0926833 0.771511 0.372763
0.218784 0.775128 0.377188
0.351919 0.778866 0.381247
0.48986 0.781735 0.384253
0.630396 0.782467 0.385229
0.772564 0.780987 0.384131
0.916838 0.778424 0.381964
1 0.776516 0.380255
0 0.909209 0.360601
0.0865187 0.914519 0.368032
0.213413 0.918486 0.373068
0.345953 0.921141 0.376471
0.483284 0.923278 0.379065
0.624323 0.924636 0.380743
0.767819 0.924605 0.381064
0.913725 0.923705 0.380468
1 0.922866 0.379797
0 1 0.354757
0.0799878 1 0.362936
0.207691 1 0.368627
0.340902 1 0.372641
0.478431 1 0.375448
0.619532 1 0.377295
0.763729 1 0.378378
0.910628 1 0.378805
1 1 0.378668
0.000122072 0.000595102 0.532906
0.110674 0 0.531334
0.231586 0 0.529625
0.359747 0 0.527184
0.493339 0 0.524193
0.631312 0 0.52079
0.772976 0 0.517052
0.917845 0 0.513008
1 0 0.508721
0 0.111025 0.529244
0.11104 0.112566 0.52958
0.232395 0.112184 0.529412
0.360678 0.110384 0.52813
0.494041 0.10753 0.525948
0.631754 0.104067 0.523278
0.773312 0.100221 0.520378
0.918059 0.095964 0.517113
1 0.0913558 0.513527
0 0.23125 0.527062
0.110201 0.23444 0.529381
0.233402 0.23621 0.531228
0.363119 0.236316 0.531579
0.49723 0.234821 0.530358
0.634989 0.232227 0.528038
0.77644 0.229221 0.525414
0.92166 0.226291 0.523003
1 0.223072 0.520363
0 0.358251 0.523888
0.107454 0.362493 0.527687
0.232563 0.366232 0.531533
0.364279 0.36846 0.533974
0.499794 0.36849 0.534188
0.638148 0.36669 0.532525
0.779828 0.364309 0.530312
0.927062 0.363546 0.529915
1 0.384985 0.553643
0 0.490379 0.519982
0.103212 0.494926 0.524559
0.229587 0.499916 0.529671
0.36318 0.504219 0.534112
0.50074 0.50634 0.5364
0.647013 0.512139 0.542382
0.83212 0.549065 0.579934
1 0.584909 0.616388
1 0.606882 0.638788
0 0.626657 0.515541
0.0981918 0.631373 0.52079
0.224689 0.636133 0.525765
0.359152 0.641489 0.531197
0.498329 0.645472 0.535241
0.6392 0.646281 0.536156
0.799359 0.661799 0.551141
1 0.721538 0.608637
1 0.761364 0.647059
0 0.766445 0.510674
0.0927749 0.771557 0.516793
0.218997 0.775357 0.521096
0.353002 0.780163 0.52607
0.492607 0.784848 0.530739
0.634928 0.787335 0.533288
0.777874 0.786465 0.532662
0.921263 0.782879 0.529458
1 0.811841 0.556023
0 0.9093 0.505455
0.0868696 0.914748 0.512352
0.213794 0.918807 0.517189
0.346578 0.921813 0.520699
0.485374 0.925643 0.524697
0.628046 0.92874 0.527855
0.772442 0.929503 0.528817
0.917632 0.927749 0.527443
1 0.924666 0.524773
0 1 0.499916
0.0805676 1 0.507561
0.20827 1 0.513008
0.341497 1 0.516884
0.479057 1 0.519615
0.62089 1 0.522103
0.765743 1 0.523751
0.912398 1 0.523903
1 1 0.522988
0 0 0.680858
0.108248 0 0.679133
0.22948 0 0.677562
0.357839 0 0.675303
0.491554 0 0.672541
0.629602 0 0.669352
0.771313 0 0.665812
0.916213 0 0.661997
1 0 0.657923
0 0.10898 0.676722
0.108919 0.110552 0.676753
0.230289 0.110109 0.676371
0.358602 0.108354 0.675135
0.49221 0.10573 0.673274
0.630121 0.102434 0.670909
0.771664 0.0986496 0.668147
0.916381 0.0944228 0.665019
1 0.0898451 0.661601
0 0.22977 0.6748
0.108263 0.232654 0.676341
0.230854 0.233783 0.677333
0.360372 0.233783 0.677546
0.494743 0.232593 0.676707
0.632883 0.230396 0.674891
0.774578 0.227634 0.672633
0.919722 0.224704 0.670329
1 0.221378 0.667674
0 0.357168 0.671946
0.105791 0.360891 0.674754
0.229892 0.363546 0.677317
0.361166 0.365484 0.679454
0.497032 0.365957 0.680201
0.63592 0.364767 0.67921
0.777554 0.362402 0.677028
0.922362 0.359731 0.674617
1 0.357382 0.672663
0 0.489586 0.66836
0.102129 0.493935 0.672267
0.22739 0.497597 0.675898
0.360449 0.501457 0.679957
0.498344 0.504097 0.682841
0.638712 0.504372 0.683314
0.780865 0.502602 0.681651
0.925765 0.500252 0.679438
1 0.498878 0.678309
0 0.626093 0.664225
0.0976272 0.63093 0.669078
0.223407 0.634745 0.672984
0.357504 0.639796 0.678157
0.497322 0.644556 0.683101
0.639857 0.647089 0.685786
0.784802 0.648005 0.686839
0.985962 0.697566 0.737194
1 0.743221 0.783581
0 0.766094 0.659648
0.0924849 0.771313 0.665354
0.218647 0.775051 0.669367
0.352514 0.77969 0.674159
0.493065 0.785458 0.679973
0.637308 0.78996 0.68452
0.782223 0.790967 0.685649
0.952697 0.813352 0.707439
1 0.879286 0.771496
0 0.909102 0.654704
0.0868238 0.914672 0.661189
0.213794 0.918822 0.665843
0.3467 0.921996 0.669367
0.486503 0.927016 0.674449
0.631098 0.932143 0.679545
0.777569 0.934966 0.682399
0.923751 0.934035 0.681697
1 0.929961 0.678004
0 1 0.649454
0.0807202 1 0.656641
0.208469 1 0.661891
0.341741 1 0.66566
0.479713 1 0.668742
0.62324 1 0.672908
0.770016 1 0.676326
0.9178 1 0.677363
1 1 0.675715
0 0 0.832822
0.105592 0 0.830945
0.227176 0 0.829465
0.355734 0 0.827375
0.489601 0 0.824765
0.627756 0 0.821759
0.769528 0 0.818418
0.914473 0 0.814771
1 0 0.810895
0 0.106691 0.828199
0.106615 0.10837 0.828031
0.228229 0.108049 0.827695
0.356725 0.106386 0.826551
0.490425 0.103838 0.824781
0.628382 0.100618 0.822538
0.769955 0.0968795 0.819883
0.914672 0.0927138 0.816892
1 0.0881819 0.813611
0 0.228031 0.826459
0.106371 0.231006 0.827756
0.228977 0.232044 0.828489
0.35819 0.231739 0.82826
0.49247 0.230503 0.827359
0.630915 0.22858 0.825925
0.7729 0.226108 0.824063
0.917998 0.223163 0.82182
1 0.219821 0.819242
0 0.35581 0.823865
0.10428 0.35964 0.826383
0.227893 0.361654 0.828061
0.35819 0.362631 0.829053
0.493736 0.362936 0.829602
0.632959 0.362142 0.829099
0.775113 0.360296 0.827543
0.920241 0.357946 0.825544
1 0.355596 0.823682
0 0.488533 0.820569
0.100954 0.492988 0.82414
0.225513 0.495735 0.826642
0.357214 0.498207 0.829175
0.49456 0.500435 0.831678
0.63534 0.501274 0.832792
0.778225 0.500282 0.831983
0.923156 0.498039 0.829877
1 0.495521 0.827543
0 0.625299 0.816709
0.0967422 0.630228 0.82121
0.222171 0.63357 0.82443
0.354818 0.636957 0.827909
0.49395 0.641169 0.832364
0.636912 0.644266 0.835737
0.781353 0.644816 0.836469
0.926757 0.64303 0.834791
1 0.640604 0.832486
0 0.765484 0.81239
0.0918593 0.770825 0.817731
0.218112 0.774639 0.821622
0.350896 0.777981 0.825071
0.491005 0.783337 0.830579
0.635935 0.788678 0.836103
0.782757 0.791653 0.839246
0.929595 0.791211 0.838941
1 0.845777 0.894377
0 0.908675 0.807691
0.0864271 0.914351 0.813794
0.213474 0.918593 0.818311
0.346212 0.921553 0.821485
0.485801 0.926345 0.826398
0.631434 0.932647 0.832746
0.780087 0.937728 0.837888
0.928557 0.93901 0.839277
1 0.968368 0.86804
0 1 0.802686
0.0805524 1 0.809476
0.208347 1 0.814572
0.341665 1 0.81825
0.479774 1 0.821393
0.624414 1 0.82678
0.773342 1 0.83241
0.923506 1 0.83566
1 1 0.834913
0 0 0.988235
0.102785 0 0.986206
0.224689 0 0.984802
0.353491 0 0.982834
0.487495 0 0.980392
0.625757 0 0.977523
0.76762 0 0.974334
0.912627 0 0.970871
1 0 0.967132
0 0.104219 0.983124
0.104097 0.105974 0.982757
0.225986 0.10576 0.982467
0.354665 0.104219 0.981399
0.488487 0.101762 0.979721
0.62652 0.0986191 0.977584
0.768139 0.0949416 0.975052
0.912886 0.090837 0.972183
1 0.0863508 0.969009
0 0.226093 0.981521
0.10425 0.229129 0.982574
0.22707 0.230259 0.983291
0.35642 0.230015 0.983093
0.490761 0.22884 0.982223
0.629236 0.226932 0.980835
0.771221 0.224475 0.979004
0.916289 0.221546 0.976822
1 0.218204 0.974304
0 0.354253 0.979156
0.10251 0.358144 0.981399
0.226291 0.360235 0.983017
0.35639 0.360967 0.983627
0.491371 0.360739 0.983505
0.630426 0.359823 0.982864
0.7729 0.358328 0.98175
0.918471 0.356374 0.98027
1 0.354025 0.978469
0 0.487282 0.976089
0.0995193 0.491798 0.97937
0.224201 0.494636 0.981796
0.355032 0.496101 0.983124
0.491081 0.497093 0.984207
0.631464 0.497673 0.985061
0.774762 0.497169 0.984833
0.920348 0.495583 0.983474
1 0.493492 0.981643
0 0.624277 0.972473
0.0955825 0.629297 0.976669
0.221149 0.632715 0.979797
0.352667 0.634806 0.981781
0.49012 0.637308 0.984436
0.632395 0.639887 0.987335
0.77734 0.641093 0.988815
0.923674 0.640284 0.988174
1 0.638056 0.986068
0 0.764675 0.968399
0.090959 0.770108 0.973404
0.217319 0.774014 0.977188
0.349477 0.776577 0.979736
0.487785 0.77998 0.983276
0.631922 0.784619 0.98819
0.779202 0.78822 0.992096
0.927214 0.789044 0.993103
1 0.787228 0.991409
0 0.908049 0.963928
0.0857557 0.913802 0.96968
0.212894 0.918135 0.974075
0.345663 0.921126 0.977157
0.483848 0.9243 0.980438
0.628916 0.930068 0.986404
0.778302 0.936034 0.992554
0.928908 0.939498 0.996201
1 0.939025 0.995865
0 1 0.959136
0.0800793 1 0.96556
0.20795 1 0.970535
0.341344 1 0.974136
0.479133 1 0.976822
0.623499 1 0.98201
0.773541 1 0.988983
0.926116 1 0.994751
1 1 0.99646
0 0 1
0.0998093 0 1
0.222065 0 1
0.35108 0 1
0.485267 0 1
0.623652 0 1
0.765606 0 1
0.910674 0 1
1 0 1
0 0.101564 1
0.101396 0.103395 1
0.223575 0.103304 1
0.352438 0.101854 1
0.486397 0.0994888 1
0.624521 0.096437 1
0.766217 0.0928359 1
0.911009 0.0887922 1
1 0.0843824 1
0 0.223957 1
0.101915 0.22707 1
0.224964 0.228275 1
0.354452 0.228122 1
0.488914 0.226993 1
0.627436 0.225132 1
0.769467 0.222705 1
0.914534 0.219791 1
1 0.21648 1
0 0.352499 1
0.100526 0.356466 1
0.224491 0.358618 1
0.354711 0.359411 1
0.489769 0.359228 1
0.628809 0.358312 1
0.771298 0.356802 1
0.916808 0.354833 1
1 0.352438 1
0 0.485817 1
0.0978256 0.490425 1
0.222675 0.493309 1
0.353613 0.49485 1
0.489265 0.495399 1
0.62884 0.495247 1
0.771878 0.494575 1
0.917861 0.493385 1
1 0.491814 1
0 0.623072 1
0.0941787 0.628168 1
0.219867 0.631662 1
0.351476 0.633799 1
0.487709 0.634958 1
0.628382 0.636011 1
0.772854 0.636881 1
0.919661 0.636637 1
1 0.635233 1
0 0.763684 1
0.0897993 0.769192 1
0.216281 0.773175 1
0.348531 0.775814 1
0.485328 0.777508 1
0.627466 0.780133 1
0.773938 0.783108 1
0.92253 0.784649 1
1 0.784009 1
0 0.90724 1
0.0848249 0.913069 1
0.212055 0.917479 1
0.34493 0.920546 1
0.4822 0.922637 1
0.625162 0.926177 1
0.773602 0.931289 1
0.924697 0.935424 1
1 0.936522 1
0 1 1
0.0793622 1 1
0.207324 1 1
0.34078 1 1
0.478553 1 1
0.621195 1 1
0.77055 1 1
0.923888 1 1
1 1 1
