public/filters/konnect/Presets A Lighter Skin Tone/Contrast v1_19.2021-06-18 12-03-14.cube
TITLE "Generated by Resolve"
LUT_3D_SIZE 9
0 0 0.0244907
0.0452277 0.00457771 0.0351263
0.114565 0.00920119 0.0403449
0.213809 0.00573739 0.0370336
0.34786 0 0.0247501
0.491905 0 0.0107881
0.628092 0 0.000579843
0.735103 0 0.000534066
0.830854 0 0.00645457
0.0185855 0.0717479 0.0513771
0.0704967 0.0818952 0.0613718
0.139101 0.0891127 0.0649119
0.241856 0.0888228 0.0624247
0.379919 0.0814527 0.0537728
0.529412 0.0740063 0.0456245
0.671473 0.0718853 0.0429694
0.785733 0.0807813 0.0514076
0.89041 0.0956741 0.0659495
0.0294499 0.163302 0.0633555
0.0904555 0.177691 0.0783551
0.167178 0.191318 0.0892958
0.278309 0.1991 0.0934462
0.423499 0.20116 0.092546
0.580346 0.203159 0.0925307
0.727993 0.209918 0.0977951
0.846891 0.225818 0.112444
0.955047 0.244953 0.130571
0.0309606 0.291173 0.0656443
0.102617 0.314122 0.0883803
0.190906 0.335637 0.107942
0.311818 0.350362 0.119402
0.461189 0.35848 0.123842
0.61944 0.364248 0.126284
0.764645 0.372625 0.131945
0.881071 0.388891 0.146014
0.988479 0.408301 0.163592
0.0422065 0.453635 0.0775006
0.119921 0.480888 0.105043
0.213169 0.503822 0.12697
0.337789 0.51754 0.138277
0.487495 0.525246 0.142565
0.645045 0.53135 0.145251
0.788296 0.541299 0.1523
0.902983 0.558343 0.166766
1 0.576608 0.182757
0.0588998 0.623606 0.094728
0.137545 0.650431 0.121981
0.233326 0.67306 0.144198
0.362112 0.686595 0.15642
0.512932 0.693462 0.161135
0.668757 0.697612 0.162524
0.806622 0.704723 0.166964
0.914916 0.717311 0.177066
1 0.729534 0.186984
0.09691 0.786664 0.133196
0.175662 0.812299 0.15967
0.270878 0.831708 0.178134
0.398703 0.840436 0.186664
0.546029 0.841474 0.187732
0.69633 0.838956 0.184161
0.826017 0.839292 0.182742
0.926452 0.84506 0.186633
1 0.850492 0.190265
0.150683 0.930999 0.187381
0.224308 0.950591 0.20798
0.31426 0.963134 0.22121
0.437232 0.964187 0.222492
0.579034 0.957702 0.215808
0.723384 0.948241 0.20557
0.846052 0.942794 0.199008
0.940642 0.943542 0.198627
1 0.944793 0.198535
0.188388 1 0.225467
0.25568 1 0.239094
0.3402 1 0.245548
0.459022 1 0.240558
0.596994 1 0.229068
0.738064 1 0.215564
0.857038 1 0.206836
0.949187 1 0.20502
1 1 0.204318
0 0 0.0822309
0.0480354 0.0069276 0.0937514
0.115618 0.0116274 0.102861
0.214801 0.0081178 0.102113
0.349355 0 0.0915847
0.493263 0 0.0788281
0.630198 0 0.0697337
0.738262 0 0.0708324
0.834577 0 0.0779278
0.0207523 0.0743572 0.110597
0.0731518 0.0847181 0.121279
0.138857 0.093019 0.129854
0.242924 0.0934157 0.130098
0.382803 0.0869306 0.123507
0.532494 0.0799725 0.11693
0.675502 0.0782635 0.115526
0.791211 0.0879377 0.125277
0.896773 0.103548 0.140963
0.0336309 0.166979 0.12987
0.0976577 0.181399 0.148257
0.172412 0.196582 0.162493
0.281544 0.20618 0.166934
0.427573 0.20943 0.166812
0.585245 0.2121 0.16759
0.733883 0.218906 0.173526
0.853559 0.23473 0.188479
0.961822 0.253727 0.206897
0.0381476 0.297566 0.137987
0.112047 0.320867 0.163592
0.201205 0.342794 0.185702
0.320043 0.358526 0.197635
0.467506 0.367422 0.20116
0.624704 0.37322 0.202625
0.770047 0.381292 0.208499
0.887282 0.397696 0.223087
0.994919 0.417105 0.240787
0.051194 0.461769 0.153475
0.129885 0.48867 0.182254
0.223728 0.510933 0.205112
0.347906 0.524697 0.217075
0.495628 0.532967 0.22121
0.651286 0.539254 0.222934
0.794186 0.549493 0.230243
0.909056 0.566644 0.245045
1 0.584573 0.260609
0.0677653 0.63154 0.171832
0.147158 0.658198 0.200076
0.243809 0.680095 0.222675
0.372686 0.69308 0.235294
0.521828 0.700267 0.240955
0.675593 0.70428 0.241917
0.811841 0.710903 0.245212
0.919417 0.723201 0.254719
1 0.734966 0.263935
0.105516 0.794415 0.211078
0.184314 0.819409 0.237842
0.279683 0.837812 0.257389
0.407248 0.845075 0.265034
0.55314 0.84567 0.265705
0.701488 0.84271 0.26154
0.829236 0.842374 0.259037
0.929061 0.848127 0.262989
1 0.853422 0.266377
0.157321 0.936828 0.264164
0.230594 0.955535 0.284688
0.320409 0.96701 0.297673
0.442939 0.966522 0.29752
0.583429 0.959197 0.290349
0.726345 0.949538 0.280613
0.847471 0.943847 0.273732
0.941939 0.944823 0.273991
1 0.946319 0.274479
0.192386 1 0.300481
0.259571 1 0.314137
0.343908 1 0.320012
0.462104 1 0.312779
0.599237 1 0.301244
0.74049 1 0.290562
0.858854 1 0.282918
0.950515 1 0.281117
1 1 0.280949
0 0 0.166583
0.0510872 0.0069276 0.175448
0.118166 0.0117952 0.18439
0.217288 0.00840772 0.186847
0.35198 0 0.179644
0.495232 0 0.168963
0.632013 0 0.161532
0.741405 0 0.164691
0.837949 0 0.172976
0.0193027 0.0760815 0.192554
0.0747234 0.0864118 0.198337
0.141405 0.09514 0.208682
0.244343 0.0963455 0.216464
0.385183 0.0907759 0.214725
0.535866 0.0848249 0.211093
0.67924 0.0835889 0.21146
0.79617 0.0938735 0.22295
0.902129 0.109987 0.240024
0.034226 0.170352 0.216159
0.100969 0.185367 0.231403
0.176883 0.201236 0.247639
0.281743 0.212924 0.259571
0.430472 0.216953 0.262852
0.589273 0.220233 0.265538
0.737972 0.226154 0.273167
0.858396 0.24181 0.288823
0.966751 0.260456 0.307591
0.0420996 0.303471 0.231907
0.119005 0.326787 0.258671
0.211795 0.347875 0.285496
0.326741 0.364874 0.300999
0.470695 0.374807 0.302892
0.626871 0.380285 0.303624
0.772808 0.388083 0.309636
0.891249 0.404501 0.325154
0.999268 0.423804 0.343252
0.0573129 0.468498 0.252659
0.137377 0.494804 0.282536
0.232898 0.515831 0.307591
0.357549 0.529213 0.322591
0.501579 0.53843 0.32781
0.654505 0.545007 0.32842
0.796475 0.554665 0.333791
0.912215 0.572137 0.348821
1 0.590112 0.364645
0.0741741 0.637827 0.273701
0.154452 0.664073 0.303212
0.252369 0.685145 0.327672
0.381949 0.697093 0.342016
0.528893 0.703853 0.348409
0.679133 0.707164 0.348196
0.81268 0.712398 0.349096
0.92137 0.727184 0.36083
1 0.738125 0.368627
0.111528 0.800153 0.314717
0.190616 0.82443 0.342229
0.286229 0.841443 0.362387
0.413642 0.846525 0.369833
0.557595 0.845701 0.370321
0.703563 0.84271 0.366918
0.829328 0.842206 0.364233
0.928634 0.847913 0.367529
1 0.853758 0.371023
0.15996 0.940246 0.367041
0.23444 0.958206 0.388327
0.323995 0.9682 0.401068
0.446052 0.965774 0.400214
0.584878 0.957229 0.392905
0.72668 0.947875 0.385
0.84651 0.942367 0.378958
0.940139 0.942962 0.378134
1 0.945144 0.379507
0.191562 1 0.402014
0.260945 1 0.416724
0.345083 1 0.4224
0.463478 1 0.4159
0.599527 1 0.404334
0.739452 1 0.393835
0.85713 1 0.387472
0.948516 1 0.385641
1 1 0.388708
0 0 0.284016
0.0505837 0.00468452 0.291173
0.118822 0.00943008 0.298177
0.218128 0.00631724 0.300542
0.352911 0 0.295628
0.497108 0 0.288075
0.633722 0 0.282795
0.74345 0 0.287572
0.840635 0 0.297292
0.0162509 0.075288 0.308766
0.07364 0.085359 0.315099
0.144076 0.0936141 0.322255
0.246815 0.0960098 0.329397
0.387747 0.0920882 0.331823
0.539284 0.0876936 0.332189
0.682582 0.0872816 0.335058
0.799802 0.0979171 0.348226
0.9066 0.114412 0.366735
0.0319982 0.172244 0.332753
0.0994736 0.18822 0.345403
0.179858 0.20444 0.355459
0.286366 0.217014 0.369009
0.43267 0.221881 0.380819
0.591775 0.225635 0.387854
0.741054 0.232136 0.397024
0.861631 0.24686 0.414496
0.969924 0.264927 0.434104
0.0431983 0.308003 0.352285
0.121462 0.332052 0.376394
0.216571 0.353399 0.397635
0.332158 0.370413 0.413779
0.469368 0.38146 0.423514
0.62649 0.385718 0.426505
0.773236 0.392828 0.43328
0.89305 0.408988 0.450553
1 0.428458 0.470619
0.0599832 0.473716 0.376684
0.141436 0.499641 0.404974
0.239078 0.519966 0.429297
0.368139 0.532158 0.448218
0.505852 0.542672 0.457298
0.654551 0.549386 0.455253
0.795773 0.557671 0.458869
0.91252 0.574746 0.474327
1 0.593256 0.491814
0.0768597 0.64242 0.399908
0.159289 0.668696 0.429328
0.25864 0.689265 0.454032
0.390372 0.69958 0.469154
0.535576 0.705135 0.477241
0.681285 0.708934 0.477623
0.811856 0.713298 0.476448
0.918639 0.724025 0.483131
1 0.737621 0.494102
0.112902 0.803662 0.441901
0.194659 0.827817 0.469566
0.290867 0.844114 0.489784
0.419318 0.848127 0.497841
0.562142 0.845365 0.498085
0.704952 0.841306 0.49456
0.827512 0.840116 0.490852
0.925216 0.844129 0.491524
1 0.85098 0.496117
0.155871 0.941009 0.492317
0.23595 0.958953 0.51458
0.325902 0.968093 0.527153
0.448936 0.965026 0.527153
0.587167 0.955306 0.519722
0.726314 0.944656 0.510597
0.843702 0.938857 0.504356
0.936492 0.939239 0.502922
1 0.941711 0.504631
0.181323 1 0.52462
0.259861 1 0.541451
0.345632 1 0.549004
0.464698 1 0.542657
0.599359 1 0.528939
0.737087 1 0.517296
0.854414 1 0.512947
0.945693 1 0.511971
1 1 0.511849
0 0 0.411994
0.0487678 0.00175479 0.41854
0.118044 0.00640879 0.423713
0.217594 0.00350958 0.423682
0.351415 0 0.417777
0.496422 0 0.411475
0.63357 0 0.408026
0.743206 0 0.414069
0.842603 0 0.426078
0.0131228 0.0737926 0.435813
0.0720989 0.0838178 0.442802
0.145068 0.0919509 0.449256
0.249714 0.0945907 0.453422
0.388769 0.0914015 0.454597
0.540413 0.0883192 0.456489
0.685435 0.0898756 0.462303
0.803433 0.101549 0.477394
0.910704 0.118441 0.497093
0.0306706 0.172946 0.458671
0.0988479 0.190173 0.472297
0.18172 0.206394 0.484276
0.294484 0.218296 0.494026
0.438483 0.224704 0.503822
0.595804 0.22948 0.513207
0.74464 0.236667 0.5243
0.865019 0.251362 0.54284
0.972946 0.269001 0.563333
0.0436408 0.312428 0.479271
0.122683 0.337316 0.501778
0.216464 0.359609 0.519966
0.337163 0.37586 0.528588
0.474113 0.386847 0.538781
0.628367 0.391257 0.549554
0.775235 0.397894 0.559121
0.895048 0.413123 0.576791
1 0.432609 0.59881
0.0610056 0.478843 0.504402
0.143679 0.50457 0.530175
0.241398 0.525383 0.550942
0.373449 0.537804 0.56318
0.511376 0.548623 0.573022
0.653559 0.557244 0.580423
0.79646 0.563546 0.585824
0.912306 0.576867 0.598764
1 0.594736 0.617273
0.0769818 0.646815 0.528161
0.162646 0.673243 0.556268
0.262852 0.693767 0.579171
0.397436 0.703914 0.593439
0.546197 0.70808 0.604639
0.684565 0.712535 0.608484
0.810773 0.715892 0.604059
0.916121 0.723095 0.607034
1 0.735302 0.617258
0.107942 0.80592 0.569192
0.197101 0.830472 0.596674
0.294194 0.846601 0.616205
0.424247 0.849928 0.623911
0.568399 0.846006 0.625177
0.709041 0.841001 0.62359
0.827314 0.839948 0.620203
0.921981 0.841657 0.616922
1 0.845716 0.617716
0.14313 0.940185 0.616098
0.235264 0.958618 0.639612
0.327291 0.968246 0.653544
0.451591 0.964569 0.653651
0.590616 0.953948 0.646693
0.72842 0.942214 0.637781
0.843458 0.936599 0.632975
0.93341 0.93611 0.629282
1 0.936507 0.625895
0.168887 1 0.647395
0.256413 1 0.664652
0.344991 1 0.674281
0.466026 1 0.669718
0.602686 1 0.658366
0.739376 1 0.645899
0.853376 1 0.640177
0.943343 1 0.639094
1 1 0.636851
0 0 0.539284
0.0464485 0 0.546517
0.116976 0.00340276 0.551125
0.217868 0.000549325 0.549584
0.351507 0 0.542214
0.496529 0 0.535592
0.633158 0 0.532509
0.743145 0 0.539818
0.843671 0 0.553292
0.0109865 0.0713512 0.562707
0.0703899 0.0821546 0.571176
0.145449 0.0907149 0.578134
0.252689 0.0936294 0.581109
0.392279 0.0911269 0.580758
0.54377 0.0890516 0.582238
0.688853 0.092134 0.589151
0.806714 0.104875 0.605356
0.914 0.122469 0.626001
0.0301976 0.173465 0.586404
0.0990463 0.191836 0.601526
0.183978 0.208667 0.615122
0.300847 0.220447 0.624598
0.446448 0.227115 0.631647
0.60235 0.232486 0.639948
0.749813 0.240497 0.651621
0.869108 0.255695 0.670451
0.976562 0.273274 0.690944
0.0458991 0.316182 0.607553
0.124407 0.342 0.630228
0.218036 0.364797 0.648798
0.341299 0.380148 0.658854
0.484672 0.389425 0.664515
0.63592 0.395392 0.672526
0.779599 0.402457 0.682628
0.898756 0.418204 0.702373
1 0.437461 0.725002
0.06392 0.48368 0.631952
0.145388 0.509438 0.656046
0.242344 0.530983 0.675074
0.372152 0.544747 0.684611
0.517067 0.554681 0.686839
0.659541 0.563775 0.694636
0.799649 0.570428 0.707164
0.914366 0.582315 0.722179
1 0.598398 0.740475
0.0798199 0.651698 0.655116
0.165362 0.678172 0.681529
0.265126 0.698878 0.702098
0.399435 0.709499 0.712566
0.551202 0.713146 0.715953
0.689326 0.717494 0.719448
0.809796 0.72256 0.723659
0.915373 0.727779 0.728618
1 0.736782 0.737469
0.108644 0.809369 0.69485
0.199069 0.833539 0.720485
0.29604 0.849256 0.737835
0.42681 0.852384 0.743252
0.573877 0.848035 0.742657
0.717601 0.84181 0.742855
0.82884 0.841718 0.743023
0.917113 0.837125 0.730678
1 0.843397 0.734722
0.147402 0.942245 0.741161
0.235431 0.959304 0.76144
0.327443 0.968261 0.773373
0.452827 0.964248 0.772335
0.593759 0.953155 0.764721
0.732769 0.940581 0.75613
0.845548 0.935042 0.753582
0.932326 0.935042 0.750622
1 0.935378 0.746258
0.164202 1 0.768093
0.254047 1 0.783871
0.343893 1 0.793088
0.46627 1 0.788067
0.60473 1 0.776959
0.742443 1 0.764813
0.855314 1 0.760204
0.943709 1 0.760586
1 1 0.756939
0 0 0.65066
0.0451209 0 0.658289
0.116747 0.00177005 0.662745
0.219287 0 0.660288
0.353613 0 0.651682
0.498009 0 0.643427
0.634974 0 0.640406
0.745129 0 0.648112
0.846281 0 0.662211
0.0102235 0.0702678 0.673289
0.0699016 0.0817273 0.682994
0.146715 0.0910201 0.690837
0.256565 0.0944533 0.693629
0.397803 0.092668 0.692348
0.549859 0.0915084 0.692836
0.694438 0.0957198 0.699351
0.811933 0.10959 0.715618
0.919524 0.127855 0.736278
0.0317235 0.175265 0.697765
0.100938 0.194491 0.714397
0.187533 0.212329 0.729595
0.307332 0.224445 0.739467
0.455222 0.231205 0.745174
0.611551 0.236881 0.751492
0.757641 0.245533 0.761975
0.87541 0.261112 0.77995
0.982208 0.279179 0.80032
0.0507057 0.321065 0.719036
0.128099 0.347814 0.742687
0.221912 0.370825 0.762097
0.3467 0.385595 0.772824
0.493599 0.393561 0.777234
0.64654 0.399847 0.782284
0.789151 0.409079 0.792798
0.905943 0.425513 0.811627
1 0.444526 0.833005
0.0695048 0.489662 0.74168
0.148913 0.515694 0.765469
0.245136 0.537835 0.784573
0.374411 0.551858 0.794446
0.522866 0.560632 0.797925
0.672312 0.568276 0.801541
0.808408 0.576989 0.811246
0.920119 0.589776 0.827207
1 0.604944 0.844755
0.0877241 0.658564 0.763561
0.169375 0.684749 0.788663
0.26804 0.705653 0.80795
0.400488 0.716487 0.816373
0.550103 0.7205 0.816541
0.695003 0.723278 0.812711
0.814969 0.728847 0.816693
0.917433 0.734478 0.827298
1 0.742168 0.837324
0.120287 0.816236 0.802594
0.202899 0.839017 0.825177
0.29807 0.853407 0.839551
0.427878 0.856443 0.842466
0.575067 0.852232 0.838117
0.72163 0.845151 0.830915
0.83209 0.844968 0.830335
0.918212 0.84744 0.832731
1 0.849638 0.834867
0.153704 0.945861 0.845426
0.237308 0.96199 0.862715
0.328222 0.970092 0.87187
0.453498 0.965667 0.868635
0.595911 0.954543 0.85919
0.73817 0.941588 0.848905
0.852613 0.935515 0.847639
0.934005 0.936782 0.848508
1 0.937377 0.843946
0.178241 1 0.872541
0.256321 1 0.884474
0.343938 1 0.889632
0.466636 1 0.882673
0.606775 1 0.870756
0.74699 1 0.858549
0.860639 1 0.854765
0.94728 1 0.856977
1 1 0.854871
0 0 0.736675
0.0458686 0 0.744411
0.118273 0.00222782 0.748791
0.222324 0 0.745983
0.357839 0 0.73698
0.503105 0 0.728374
0.640208 0 0.725429
0.750469 0 0.733303
0.851759 0 0.74725
0.0113527 0.0716106 0.758984
0.0717327 0.0836042 0.769543
0.150011 0.0936141 0.778286
0.262028 0.0976272 0.78143
0.405127 0.0965744 0.780102
0.558343 0.0962844 0.780209
0.7028 0.101503 0.786435
0.820066 0.116304 0.802609
0.927382 0.135088 0.822995
0.0358129 0.17908 0.784344
0.105272 0.199374 0.802518
0.193317 0.218204 0.819135
0.315251 0.230701 0.829587
0.465064 0.237537 0.834928
0.62237 0.243259 0.84007
0.767605 0.252186 0.849393
0.884001 0.267979 0.866239
0.990448 0.286671 0.886275
0.0569162 0.328267 0.806836
0.134127 0.355322 0.831296
0.228046 0.378485 0.851377
0.353841 0.392782 0.862287
0.502846 0.399985 0.866316
0.657923 0.406165 0.870283
0.800214 0.416205 0.879591
0.915496 0.433356 0.897337
1 0.452308 0.917525
0.076585 0.497307 0.827893
0.154665 0.52372 0.851987
0.250492 0.546227 0.871656
0.379828 0.560082 0.881987
0.530221 0.568002 0.885863
0.683284 0.57435 0.888487
0.819684 0.583612 0.895888
0.929213 0.59794 0.910628
1 0.612253 0.926314
0.0957504 0.666957 0.848722
0.175525 0.693462 0.873686
0.272786 0.71426 0.892515
0.403647 0.724575 0.900114
0.55259 0.72784 0.899779
0.700481 0.728771 0.896101
0.825345 0.733059 0.896696
0.924208 0.74107 0.905119
1 0.748394 0.914504
0.131441 0.824292 0.886351
0.207797 0.845808 0.907286
0.301427 0.85977 0.920577
0.429435 0.862287 0.921859
0.574975 0.857618 0.915343
0.719753 0.850462 0.90544
0.836088 0.84889 0.899016
0.922225 0.8533 0.902281
1 0.85568 0.90811
0.168276 0.952117 0.92784
0.241291 0.966781 0.942351
0.330129 0.973892 0.949371
0.454292 0.969009 0.944442
0.596292 0.957656 0.933028
0.739239 0.944717 0.919997
0.855695 0.938003 0.913161
0.937331 0.940047 0.914809
1 0.942824 0.917174
0.193896 1 0.952834
0.259358 1 0.961929
0.344717 1 0.964508
0.467231 1 0.956374
0.607889 1 0.943175
0.749996 1 0.929854
0.865629 1 0.924773
0.954421 1 0.929183
1 1 0.931502
0 0 0.807065
0.047776 0 0.814939
0.120943 0.00399786 0.81944
0.226337 0.00158694 0.816709
0.363088 0 0.807858
0.509499 0 0.799588
0.646967 0 0.797223
0.757534 0 0.805768
0.859525 0.00199893 0.820325
0.0137942 0.0743267 0.829984
0.0750591 0.0869612 0.841352
0.15465 0.097673 0.850919
0.268513 0.102342 0.854673
0.413352 0.102037 0.853834
0.568032 0.102571 0.854322
0.712673 0.108675 0.860868
0.82974 0.124147 0.877165
0.936919 0.143221 0.897337
0.0407568 0.184726 0.857496
0.111284 0.205921 0.876799
0.20058 0.225483 0.894423
0.324056 0.238315 0.905394
0.475349 0.245212 0.910765
0.6336 0.250828 0.915389
0.778286 0.259754 0.924041
0.893828 0.2757 0.940322
1 0.294759 0.960189
0.06421 0.336675 0.881651
0.141527 0.363958 0.906493
0.235569 0.387106 0.926925
0.361913 0.4009 0.937835
0.512459 0.407736 0.941878
0.6692 0.413733 0.945541
0.811475 0.423865 0.954238
0.925872 0.44123 0.971206
1 0.460182 0.99057
0.0834974 0.505776 0.901884
0.161578 0.532509 0.926345
0.257343 0.5552 0.946365
0.386847 0.568933 0.957
0.53846 0.576242 0.960937
0.693431 0.581628 0.963058
0.83032 0.59028 0.969284
0.938567 0.604364 0.982406
1 0.618158 0.996506
0.102937 0.675883 0.922545
0.182193 0.702296 0.947188
0.278584 0.722911 0.965682
0.408347 0.732738 0.9729
0.557107 0.735134 0.972091
0.706401 0.734661 0.967956
0.833463 0.737484 0.967422
0.931884 0.745296 0.973617
1 0.752483 0.981231
0.137514 0.8318 0.958572
0.212955 0.852811 0.978607
0.305318 0.866514 0.991119
0.431632 0.868437 0.991485
0.575891 0.862989 0.983993
0.720272 0.855131 0.973373
0.839261 0.852018 0.966766
0.928893 0.855055 0.967269
1 0.857862 0.970916
0.175113 0.957595 0.997772
0.244465 0.971359 1
0.33193 0.977874 1
0.454841 0.972778 1
0.595865 0.961242 0.998917
0.737987 0.948272 0.984558
0.854032 0.941619 0.97557
0.940154 0.942763 0.972656
1 0.945647 0.975006
0.195987 1 1
0.260884 1 1
0.345678 1 1
0.467597 1 1
0.607996 1 1
0.75021 1 0.993561
0.86659 1 0.986465
0.957382 1 0.986969
1 1 0.989563
