public/filters/konnect/Presets A Lighter Skin Tone/Contrast v1_19.2021-06-18 12-03-14.cube
TITLE "Generated by Resolve"
LUT_3D_SIZE 33
0 0 0.0244907
0.0039826 0 0.0281224
0.0165255 0.000503548 0.030808
0.0304265 0.00268559 0.0331121
0.0452277 0.00457771 0.0351263
0.0609598 0.00619516 0.0369726
0.0776379 0.00753796 0.038529
0.0953689 0.00857557 0.0396429
0.114565 0.00920119 0.0403449
0.135714 0.009308 0.0404974
0.159152 0.00880446 0.0400244
0.185107 0.00762951 0.0388952
0.213809 0.00573739 0.0370336
0.24509 0.00315862 0.0345006
0.27837 0.000106813 0.0314641
0.312886 0 0.0281376
0.34786 0 0.0247501
0.382742 0 0.0214389
0.418601 0 0.0179446
0.455177 0 0.0143435
0.491905 0 0.0107881
0.528176 0 0.00746166
0.563348 0 0.00453193
0.59675 0 0.00221256
0.628092 0 0.000579843
0.657435 0 0
0.68484 0 0
0.710552 0 0
0.735103 0 0.000534066
0.758938 0 0.00175479
0.782513 0 0.00323491
0.806317 0 0.00485237
0.830854 0 0.00645457
0.00456245 0.0124971 0.0357214
0.0134585 0.0159609 0.0393072
0.024567 0.0190127 0.0404364
0.0377508 0.0213931 0.0417029
0.0521401 0.0233921 0.043061
0.0675212 0.0251011 0.044358
0.0839246 0.0265202 0.0454871
0.101579 0.0276188 0.0463417
0.12076 0.0282902 0.0468452
0.141955 0.0284428 0.0468757
0.165484 0.0280156 0.0463264
0.191577 0.0269169 0.0451362
0.220432 0.0251316 0.0432746
0.251865 0.0226902 0.0407721
0.285283 0.019791 0.0378119
0.319921 0.0166323 0.0346075
0.355032 0.0134432 0.0313725
0.390097 0.0103609 0.0282444
0.426184 0.00709544 0.0249485
0.462989 0.00375372 0.0215763
0.499947 0.000488289 0.0182956
0.536477 0 0.015259
0.571878 0 0.0126802
0.605539 0 0.0107271
0.637201 0 0.00949111
0.666896 0 0.0089723
0.694697 0 0.00917067
0.720836 0 0.0100099
0.745846 0 0.0113527
0.770153 0 0.0130922
0.794232 0 0.0150759
0.81857 0 0.0171969
0.843656 0.00172427 0.0193332
0.00996414 0.0319829 0.0418555
0.0206302 0.0348516 0.0456092
0.0317998 0.0377203 0.0476539
0.0443427 0.0402838 0.0487831
0.0582895 0.0424659 0.0497902
0.0733959 0.0443122 0.0507668
0.0896925 0.0458534 0.0516823
0.107317 0.0470588 0.0523995
0.126574 0.0478676 0.0528115
0.147906 0.0481575 0.0527657
0.171618 0.0478523 0.0522011
0.19791 0.0469215 0.0510414
0.227008 0.0453193 0.0492409
0.258701 0.0431067 0.0468452
0.292332 0.0404517 0.0440375
0.327199 0.037583 0.0410468
0.362478 0.0346838 0.038056
0.397803 0.0319371 0.0352178
0.434195 0.0290074 0.0322271
0.471305 0.0260471 0.0291905
0.508583 0.0231937 0.026276
0.545434 0.0206455 0.0236667
0.581201 0.0185702 0.0215457
0.615244 0.0171664 0.0200809
0.647288 0.016495 0.0193484
0.677394 0.016556 0.0193637
0.705623 0.017319 0.0200809
0.732235 0.0187228 0.0214389
0.757717 0.0206302 0.0233158
0.782559 0.0229343 0.0255894
0.807172 0.0254978 0.0281071
0.832059 0.0281987 0.0307774
0.857954 0.0308537 0.033402
0.0145418 0.051667 0.0469368
0.0260471 0.0543221 0.0504616
0.038056 0.0569467 0.0530709
0.050721 0.0594949 0.0547494
0.0644541 0.0618296 0.0559091
0.0793927 0.0638743 0.0568704
0.095613 0.0656138 0.0577096
0.113283 0.0670176 0.058381
0.132662 0.0680247 0.0587625
0.154223 0.0685435 0.0587015
0.178195 0.0684825 0.0581674
0.204822 0.0678111 0.0570687
0.234272 0.0664836 0.055375
0.266285 0.0645609 0.0531472
0.300221 0.0622568 0.0505684
0.335363 0.0597543 0.0478828
0.370886 0.0572671 0.0452888
0.4065 0.0549172 0.0428473
0.443259 0.0524453 0.0402991
0.480751 0.049958 0.0377508
0.51841 0.0476234 0.0353399
0.555657 0.0456092 0.0332647
0.591821 0.0440833 0.0316625
0.626261 0.0432441 0.0307317
0.658732 0.0431525 0.0305333
0.689281 0.0437781 0.0310826
0.717968 0.0451209 0.0323491
0.745052 0.0471046 0.0342718
0.771054 0.0496071 0.0366979
0.796414 0.052491 0.0395209
0.821576 0.0556497 0.0426032
0.847044 0.0589456 0.0458534
0.873533 0.0621958 0.0490425
0.0185855 0.0717479 0.0513771
0.0306554 0.0743725 0.0547799
0.0433509 0.0769207 0.0576181
0.0565347 0.0794537 0.0597696
0.0704967 0.0818952 0.0613718
0.0854963 0.0841535 0.0625925
0.101762 0.0861524 0.0635843
0.119539 0.0878157 0.0643778
0.139101 0.0891127 0.0649119
0.160891 0.0899214 0.0650339
0.185138 0.0901656 0.0646982
0.21207 0.0898146 0.0638437
0.241856 0.0888228 0.0624247
0.274205 0.0872969 0.060502
0.308492 0.0854353 0.0582895
0.344015 0.0834058 0.0559701
0.379919 0.0814527 0.0537728
0.416022 0.0796368 0.0517586
0.453285 0.0776989 0.0496376
0.491264 0.0757763 0.0475471
0.529412 0.0740063 0.0456245
0.567102 0.0725719 0.0440375
0.603708 0.0716259 0.0429694
0.63856 0.071397 0.0425879
0.671473 0.0718853 0.0429694
0.702464 0.0731212 0.0440681
0.731609 0.0750744 0.0458991
0.759213 0.0776684 0.0484016
0.785733 0.0807813 0.0514076
0.811658 0.0842908 0.0548257
0.837385 0.0880293 0.0584726
0.863401 0.0918898 0.0622568
0.89041 0.0956741 0.0659495
0.0221714 0.092546 0.0552987
0.0347143 0.0952621 0.0586862
0.0480049 0.0978866 0.0616617
0.0617838 0.100511 0.0641947
0.0761883 0.103105 0.0662394
0.0915236 0.105592 0.0678721
0.108049 0.107881 0.0692149
0.126085 0.10988 0.0702983
0.145922 0.111513 0.0710765
0.168048 0.112688 0.0714733
0.192676 0.113329 0.0714427
0.220035 0.11342 0.0709392
0.250278 0.112902 0.0699016
0.28307 0.111879 0.0684062
0.3178 0.110536 0.0666361
0.353719 0.109071 0.0647898
0.390051 0.107698 0.0630655
0.426612 0.106447 0.0615091
0.464378 0.105089 0.0598611
0.502831 0.103731 0.0582589
0.541436 0.102556 0.0568399
0.579599 0.101717 0.055787
0.616632 0.101396 0.0552682
0.651926 0.101793 0.0554665
0.685267 0.102922 0.0564126
0.716731 0.104784 0.0581064
0.74638 0.107362 0.0605478
0.774441 0.110567 0.0635996
0.801465 0.11426 0.067155
0.827832 0.118273 0.071046
0.854002 0.122499 0.0751507
0.880446 0.126787 0.0793164
0.90782 0.130968 0.0833906
0.0252689 0.114458 0.0586862
0.0382696 0.117357 0.0621958
0.052079 0.12018 0.0652323
0.0664683 0.123018 0.0680858
0.0814679 0.125841 0.0705882
0.0972915 0.128603 0.0727092
0.11426 0.131228 0.0745098
0.132708 0.133623 0.0760204
0.153017 0.135698 0.0772259
0.175616 0.137346 0.0780499
0.200748 0.138506 0.0784314
0.228626 0.139101 0.0783398
0.259388 0.139116 0.0777295
0.292683 0.138643 0.0766918
0.327855 0.137881 0.0753948
0.364172 0.13698 0.0740215
0.4009 0.136202 0.0728161
0.437949 0.135546 0.0717479
0.476188 0.134768 0.0706188
0.515129 0.134035 0.0695506
0.554223 0.133471 0.0686809
0.592813 0.133272 0.0681926
0.630304 0.133608 0.0682689
0.66601 0.134615 0.0690318
0.699794 0.13637 0.0705425
0.731655 0.138811 0.0727703
0.761654 0.141924 0.0756847
0.790082 0.145602 0.0791791
0.817456 0.149722 0.0831159
0.844144 0.154147 0.0873579
0.870619 0.158724 0.091783
0.897337 0.163317 0.0962234
0.924956 0.167773 0.100511
0.0277409 0.137881 0.0614023
0.0412299 0.141085 0.0650797
0.0556039 0.144213 0.068513
0.0705882 0.147356 0.0717021
0.0862287 0.15053 0.0746471
0.102708 0.153689 0.0772869
0.120302 0.156756 0.0796368
0.139345 0.15964 0.0816968
0.160235 0.162219 0.0833906
0.183398 0.164385 0.0846723
0.209094 0.166064 0.0855116
0.237537 0.167193 0.0858625
0.268849 0.167758 0.0856947
0.302647 0.167865 0.0851301
0.338277 0.167697 0.0843214
0.375036 0.167422 0.0834669
0.412161 0.167285 0.0827955
0.449699 0.167239 0.0822461
0.488441 0.167086 0.0816663
0.527871 0.166995 0.0811475
0.567407 0.167056 0.080827
0.606424 0.167468 0.0808728
0.644251 0.168368 0.0814374
0.680262 0.169909 0.0826734
0.714305 0.172152 0.0846265
0.746426 0.175036 0.0872358
0.776654 0.178561 0.0905013
0.80531 0.182605 0.0943008
0.832868 0.18703 0.098497
0.859739 0.191714 0.102953
0.886381 0.196506 0.107546
0.913252 0.201297 0.112139
0.940963 0.205875 0.116533
0.0294499 0.163302 0.0633555
0.0434882 0.166918 0.0673838
0.0584726 0.170474 0.0712139
0.0741283 0.17406 0.0748913
0.0904555 0.177691 0.0783551
0.107637 0.181292 0.0815595
0.125917 0.184848 0.0844892
0.145617 0.18822 0.0870832
0.167178 0.191318 0.0892958
0.190982 0.194003 0.0910658
0.217304 0.196231 0.0923629
0.246387 0.19794 0.0931563
0.278309 0.1991 0.0934462
0.312642 0.199817 0.0933394
0.34876 0.200259 0.093019
0.385977 0.200641 0.0926986
0.423499 0.20116 0.092546
0.46154 0.201724 0.0925154
0.500725 0.202152 0.0924392
0.54052 0.202594 0.0923934
0.580346 0.203159 0.0925307
0.619638 0.204044 0.0930037
0.657649 0.205386 0.0939651
0.693812 0.20734 0.095552
0.727993 0.209918 0.0977951
0.76022 0.213138 0.100679
0.790539 0.216922 0.104143
0.819272 0.221195 0.108125
0.846891 0.225818 0.112444
0.873808 0.230625 0.116991
0.900496 0.235523 0.12163
0.927367 0.240345 0.126207
0.955047 0.244953 0.130571
0.0305333 0.191196 0.0646525
0.0451667 0.195285 0.0691081
0.0607919 0.199344 0.0733806
0.0771038 0.203418 0.0775311
0.0941329 0.207538 0.0815137
0.112032 0.211643 0.0852827
0.131044 0.215686 0.0887617
0.151461 0.219577 0.0919356
0.173739 0.223194 0.0946975
0.19826 0.226429 0.0969863
0.225299 0.229221 0.0987716
0.255085 0.231525 0.0999771
0.287663 0.23328 0.100679
0.32256 0.234623 0.100999
0.359167 0.235676 0.101091
0.39678 0.236652 0.101152
0.434592 0.23772 0.101411
0.472984 0.238773 0.101762
0.512444 0.239643 0.102129
0.552453 0.240482 0.10251
0.592447 0.241428 0.103044
0.63183 0.242649 0.103883
0.669902 0.244282 0.105165
0.706081 0.246509 0.107042
0.740246 0.249332 0.109514
0.772442 0.252735 0.112505
0.802701 0.256672 0.11606
0.831388 0.261036 0.120058
0.85893 0.265705 0.124376
0.885786 0.270542 0.128893
0.912337 0.275395 0.133425
0.939116 0.28014 0.137881
0.966613 0.284627 0.142077
0.0309758 0.221775 0.0653086
0.0462501 0.226398 0.0702068
0.062501 0.230976 0.0749676
0.0794842 0.235584 0.0796063
0.0972152 0.240223 0.0841077
0.115831 0.244862 0.088426
0.135592 0.249439 0.0924849
0.156771 0.253849 0.0962387
0.179828 0.258015 0.0995804
0.205112 0.261799 0.102464
0.232853 0.265141 0.104829
0.263279 0.267933 0.1066
0.296407 0.270191 0.107851
0.331746 0.272007 0.108659
0.368704 0.273518 0.109224
0.406546 0.274922 0.109712
0.444541 0.276417 0.110338
0.483162 0.277806 0.110933
0.52282 0.279011 0.111452
0.562966 0.28014 0.111955
0.603037 0.281361 0.112566
0.64239 0.282811 0.113466
0.6804 0.284657 0.114794
0.716457 0.287053 0.116686
0.750484 0.289967 0.119142
0.782513 0.293431 0.122118
0.812589 0.297398 0.125628
0.841062 0.301732 0.129534
0.868406 0.306325 0.133715
0.895033 0.31104 0.138033
0.92137 0.315724 0.142367
0.947906 0.320302 0.146578
0.975311 0.324727 0.150668
0.0309148 0.255161 0.0654154
0.0468147 0.260334 0.0708019
0.0637217 0.265461 0.0760662
0.0813916 0.270634 0.0812238
0.0998398 0.275837 0.0862593
0.119203 0.28101 0.0911269
0.139727 0.286137 0.0957504
0.161685 0.291081 0.100053
0.185489 0.29572 0.103929
0.211475 0.299947 0.107317
0.239841 0.303685 0.110155
0.270832 0.306859 0.112383
0.304433 0.309468 0.114015
0.340139 0.311604 0.115206
0.37731 0.313436 0.116106
0.415305 0.315145 0.116899
0.453361 0.316899 0.117769
0.492119 0.318517 0.118532
0.531853 0.319905 0.119127
0.571984 0.321202 0.119661
0.611963 0.322545 0.120287
0.651194 0.324086 0.121157
0.688991 0.325994 0.122423
0.724788 0.328389 0.124208
0.758556 0.331304 0.126558
0.79028 0.334707 0.129396
0.82002 0.338537 0.132723
0.848188 0.342733 0.136416
0.875288 0.347189 0.140429
0.901808 0.351904 0.144701
0.928176 0.356695 0.149065
0.954894 0.361471 0.153429
0.982406 0.366079 0.157656
0.0309606 0.291173 0.0656443
0.0475319 0.29691 0.0715953
0.0651102 0.302617 0.077409
0.0834669 0.308354 0.0831464
0.102617 0.314122 0.0883803
0.122683 0.319799 0.0937667
0.143862 0.325353 0.0988785
0.166461 0.330663 0.103639
0.190906 0.335637 0.107942
0.217472 0.340154 0.111742
0.246372 0.344152 0.114946
0.277852 0.347555 0.117494
0.311818 0.350362 0.119402
0.347784 0.352712 0.120851
0.385138 0.354726 0.121935
0.423178 0.356603 0.122881
0.461189 0.35848 0.123842
0.499977 0.360159 0.124636
0.539651 0.361593 0.125216
0.579644 0.362905 0.125719
0.61944 0.364248 0.126284
0.658381 0.365743 0.127047
0.695842 0.367575 0.128176
0.731273 0.369863 0.129809
0.764645 0.372625 0.131945
0.796094 0.375967 0.134691
0.825711 0.379873 0.138033
0.853895 0.384222 0.141848
0.881071 0.388891 0.146014
0.907668 0.393774 0.150393
0.934142 0.398718 0.154879
0.960922 0.403601 0.159319
0.988479 0.408301 0.163592
0.0318608 0.32958 0.0667124
0.049073 0.335866 0.0731365
0.0672465 0.342092 0.0793927
0.0861677 0.348272 0.0855268
0.105867 0.354391 0.0914778
0.126467 0.360433 0.0972152
0.14818 0.366278 0.102647
0.171298 0.371862 0.107683
0.196246 0.377035 0.112276
0.223301 0.381735 0.11632
0.252644 0.385855 0.119722
0.28452 0.389364 0.122423
0.318791 0.392248 0.124468
0.354925 0.394644 0.125994
0.39234 0.396704 0.127169
0.430335 0.398581 0.12813
0.468254 0.400458 0.129091
0.50695 0.402075 0.129793
0.546456 0.403418 0.130266
0.586206 0.404593 0.130617
0.625681 0.405783 0.130983
0.664286 0.407141 0.131579
0.701488 0.408972 0.132677
0.736782 0.411368 0.134386
0.770153 0.414359 0.136706
0.801587 0.417899 0.13962
0.83122 0.422004 0.143114
0.859403 0.426505 0.147036
0.886595 0.431296 0.151293
0.913207 0.436271 0.155734
0.939681 0.441276 0.16025
0.966491 0.446189 0.164675
0.994003 0.450889 0.168933
0.0341192 0.369879 0.0691234
0.0518044 0.376547 0.0759594
0.0704509 0.383108 0.0826276
0.0897993 0.389593 0.089128
0.109911 0.395987 0.0954452
0.130892 0.402243 0.101518
0.152987 0.40824 0.10724
0.176486 0.413962 0.112535
0.201831 0.419226 0.117281
0.229236 0.423957 0.121416
0.258915 0.428092 0.124849
0.291081 0.43154 0.127535
0.325551 0.434363 0.129519
0.361791 0.436683 0.130953
0.399191 0.438636 0.131975
0.437049 0.440391 0.132815
0.474754 0.4421 0.133593
0.513268 0.443503 0.134096
0.55259 0.444724 0.134417
0.592264 0.445914 0.134737
0.631724 0.447227 0.135286
0.670375 0.448798 0.136126
0.707546 0.450828 0.137438
0.742794 0.453407 0.13933
0.776104 0.456565 0.141833
0.807492 0.460243 0.144884
0.837018 0.464424 0.14847
0.865156 0.468986 0.152453
0.892287 0.473823 0.15671
0.918837 0.478798 0.161135
0.945251 0.483787 0.165606
0.972 0.48864 0.16997
0.999405 0.493278 0.174136
0.0379187 0.411261 0.0730755
0.0559854 0.418204 0.0802014
0.0749523 0.424994 0.0870985
0.0946059 0.431662 0.0938277
0.114992 0.438209 0.100328
0.136233 0.444541 0.106554
0.158587 0.450599 0.112398
0.182315 0.456306 0.117769
0.207889 0.461524 0.12256
0.235508 0.466163 0.126665
0.265385 0.470161 0.130037
0.297704 0.473442 0.132601
0.332235 0.476066 0.134386
0.368444 0.478141 0.135515
0.405722 0.479881 0.136263
0.443473 0.481514 0.136919
0.481209 0.483268 0.137636
0.51989 0.48481 0.13817
0.55935 0.486183 0.138613
0.599084 0.487541 0.139116
0.638544 0.488991 0.13991
0.67715 0.49073 0.140993
0.714229 0.492882 0.142535
0.749371 0.495598 0.14464
0.782544 0.498817 0.147295
0.813779 0.502571 0.150484
0.843168 0.506783 0.154116
0.871138 0.511345 0.158053
0.898146 0.516152 0.162264
0.924559 0.52105 0.166598
0.95082 0.525933 0.170932
0.977417 0.530663 0.175143
1 0.535164 0.179141
0.0422065 0.453635 0.0775006
0.0604868 0.460731 0.0847486
0.0796216 0.467613 0.0917525
0.0994278 0.474357 0.0985275
0.119921 0.480888 0.105043
0.141268 0.487205 0.111238
0.163714 0.493217 0.117037
0.187533 0.498787 0.122332
0.213169 0.503822 0.12697
0.240848 0.508247 0.130907
0.270756 0.511986 0.134066
0.303136 0.515038 0.136492
0.337789 0.51754 0.138277
0.374197 0.519661 0.13959
0.411704 0.521553 0.140627
0.449622 0.523369 0.141573
0.487495 0.525246 0.142565
0.526314 0.526894 0.143313
0.565866 0.528374 0.143908
0.605615 0.529809 0.144488
0.645045 0.53135 0.145251
0.683528 0.53315 0.146288
0.720424 0.535363 0.147753
0.755337 0.538079 0.149767
0.788296 0.541299 0.1523
0.819303 0.545007 0.155352
0.848447 0.549187 0.158877
0.876204 0.553658 0.162707
0.902983 0.558343 0.166766
0.929168 0.563104 0.170916
0.955215 0.567803 0.175051
0.981598 0.572335 0.179019
1 0.576608 0.182757
0.0463111 0.49659 0.0817578
0.0646677 0.5037 0.0890059
0.0838636 0.510567 0.095964
0.10367 0.51722 0.102663
0.124178 0.523659 0.109041
0.145495 0.529809 0.115068
0.16788 0.535607 0.120638
0.191669 0.540932 0.125673
0.217365 0.5458 0.130144
0.245243 0.550134 0.13402
0.275486 0.553918 0.137285
0.308263 0.557092 0.139925
0.343267 0.559701 0.141924
0.379934 0.561913 0.143481
0.417639 0.563867 0.144747
0.45565 0.565759 0.145892
0.493614 0.567697 0.147066
0.532525 0.569375 0.147951
0.572091 0.570886 0.148623
0.611811 0.57232 0.149233
0.651102 0.573846 0.14995
0.689403 0.575616 0.150912
0.72607 0.577783 0.1523
0.760739 0.580453 0.154192
0.793393 0.583581 0.156603
0.824094 0.587182 0.159487
0.852934 0.591211 0.162814
0.8804 0.595514 0.166445
0.906874 0.6 0.170291
0.932769 0.604547 0.174197
0.958526 0.608988 0.178058
0.984604 0.61323 0.18172
1 0.617197 0.185138
0.0502785 0.539513 0.0858625
0.0685893 0.546502 0.0929885
0.0876936 0.553201 0.0998093
0.107393 0.55967 0.106325
0.127779 0.565896 0.112551
0.149126 0.571923 0.118532
0.17171 0.577691 0.123415
0.195804 0.583124 0.128588
0.221851 0.588083 0.133242
0.25008 0.592523 0.137301
0.280674 0.596368 0.140749
0.313756 0.599573 0.143572
0.34902 0.602197 0.145754
0.38587 0.60441 0.147478
0.423697 0.606394 0.148898
0.461769 0.608301 0.150179
0.499763 0.610193 0.151415
0.538705 0.611826 0.152316
0.578225 0.61323 0.152941
0.617823 0.614588 0.153506
0.656962 0.616022 0.154147
0.695018 0.617685 0.155032
0.73138 0.61973 0.156313
0.765698 0.622248 0.158068
0.798001 0.625223 0.160296
0.828336 0.628626 0.162997
0.856825 0.632441 0.16611
0.883909 0.6365 0.169497
0.910033 0.640711 0.173053
0.935546 0.644907 0.176638
0.960952 0.649027 0.180133
0.986664 0.652888 0.183429
1 0.656474 0.18645
0.0541543 0.581765 0.0898604
0.0723735 0.588571 0.0968185
0.0914931 0.595224 0.103578
0.11133 0.60174 0.110109
0.131975 0.608103 0.116381
0.153582 0.614267 0.122393
0.176394 0.620157 0.128069
0.200748 0.62565 0.133272
0.22707 0.63064 0.137896
0.255573 0.635081 0.141939
0.286412 0.638895 0.145418
0.319753 0.642054 0.148241
0.355215 0.644633 0.150439
0.392218 0.646784 0.152163
0.430106 0.648676 0.153567
0.468132 0.650477 0.154849
0.506127 0.652262 0.156039
0.545022 0.653742 0.156847
0.584451 0.655009 0.157382
0.623896 0.656199 0.157824
0.662776 0.657435 0.158328
0.700526 0.6589 0.15906
0.736522 0.660746 0.160159
0.770459 0.663035 0.161715
0.80235 0.665751 0.163729
0.832258 0.668894 0.166155
0.860304 0.672389 0.168978
0.886961 0.676127 0.172045
0.912627 0.679942 0.175235
0.937728 0.683772 0.178439
0.962676 0.687449 0.181506
0.987976 0.690883 0.184344
1 0.694011 0.186908
0.0588998 0.623606 0.094728
0.077348 0.630564 0.101854
0.0966812 0.637354 0.108766
0.116716 0.643977 0.115496
0.137545 0.650431 0.121981
0.159319 0.656657 0.128191
0.1823 0.662577 0.134035
0.206836 0.668086 0.139406
0.233326 0.67306 0.144198
0.261982 0.67744 0.148302
0.293019 0.681163 0.15172
0.326528 0.684184 0.154406
0.362112 0.686595 0.15642
0.399176 0.688579 0.157946
0.437049 0.690288 0.159152
0.475013 0.691905 0.160189
0.512932 0.693462 0.161135
0.551736 0.694697 0.161715
0.590982 0.695705 0.162036
0.630167 0.69662 0.162264
0.668757 0.697612 0.162524
0.706157 0.698802 0.163012
0.741711 0.700359 0.163897
0.775189 0.702327 0.165225
0.806622 0.704723 0.166964
0.836027 0.7075 0.1691
0.863569 0.710613 0.171588
0.889738 0.713924 0.174273
0.914916 0.717311 0.177066
0.939529 0.720668 0.179828
0.964019 0.723903 0.182467
0.988876 0.726848 0.184848
1 0.729534 0.186984
0.0655375 0.665354 0.101488
0.0841535 0.672404 0.108721
0.103609 0.67924 0.115709
0.123781 0.685893 0.122499
0.144701 0.692348 0.129046
0.166583 0.698543 0.135286
0.18967 0.704417 0.141161
0.214282 0.70985 0.146532
0.240864 0.714702 0.151278
0.269627 0.718929 0.155337
0.300755 0.722484 0.158663
0.33434 0.725292 0.161212
0.369955 0.727504 0.163073
0.407004 0.729244 0.164401
0.4448 0.730678 0.165347
0.482597 0.732021 0.166079
0.520363 0.733242 0.166659
0.558984 0.734142 0.166873
0.598001 0.734813 0.166842
0.636881 0.735378 0.16669
0.67509 0.735988 0.166598
0.712032 0.736812 0.166812
0.747127 0.738003 0.167498
0.780102 0.739605 0.168597
0.811002 0.741604 0.170077
0.839872 0.743954 0.171939
0.866896 0.746639 0.174136
0.892561 0.749523 0.176532
0.917266 0.752483 0.178958
0.941421 0.755398 0.181308
0.965499 0.758175 0.18352
0.989944 0.760693 0.185489
1 0.762936 0.187198
0.0742809 0.70663 0.110338
0.092958 0.713664 0.117586
0.11249 0.720485 0.12459
0.132692 0.727108 0.131365
0.153643 0.733486 0.137865
0.17554 0.73959 0.144045
0.198611 0.745312 0.149798
0.223255 0.750576 0.155047
0.249851 0.75523 0.159655
0.27863 0.759243 0.163546
0.309758 0.762539 0.166674
0.343328 0.765087 0.169009
0.378912 0.766979 0.170657
0.415839 0.768414 0.171786
0.453452 0.769528 0.172564
0.49102 0.77055 0.173144
0.528603 0.771435 0.173571
0.566979 0.771954 0.173587
0.605707 0.772229 0.173327
0.644221 0.772381 0.17293
0.682002 0.772564 0.172534
0.718471 0.772946 0.172351
0.753002 0.773678 0.172564
0.785428 0.774823 0.173175
0.815763 0.776364 0.174182
0.844083 0.778271 0.17557
0.870588 0.780514 0.177279
0.89575 0.78294 0.179202
0.919997 0.785458 0.181201
0.943709 0.787945 0.183139
0.967361 0.79028 0.184955
0.991424 0.79234 0.186496
1 0.794186 0.187839
0.0848554 0.747158 0.121035
0.103532 0.754116 0.128222
0.123018 0.76083 0.135134
0.143175 0.767315 0.141787
0.164065 0.773541 0.148165
0.185885 0.779461 0.154162
0.208896 0.78497 0.159701
0.233463 0.789975 0.164675
0.259983 0.794369 0.168978
0.28867 0.798047 0.172549
0.319722 0.801007 0.175341
0.35317 0.803174 0.17731
0.388602 0.8047 0.178653
0.425345 0.805768 0.179553
0.462715 0.8065 0.180102
0.499962 0.807126 0.180484
0.53724 0.807568 0.180636
0.575311 0.80763 0.180392
0.613657 0.807446 0.179843
0.651774 0.807141 0.179141
0.689113 0.806867 0.178408
0.725078 0.806806 0.177859
0.759075 0.807095 0.177646
0.790967 0.807797 0.177844
0.820783 0.808911 0.178439
0.848569 0.810391 0.1794
0.874571 0.812192 0.180697
0.89926 0.814191 0.182177
0.923064 0.816281 0.183764
0.946365 0.818341 0.185321
0.969619 0.820264 0.18674
0.993317 0.821912 0.1879
1 0.823331 0.188861
0.09691 0.786664 0.133196
0.115496 0.793484 0.140246
0.134874 0.800015 0.14699
0.15491 0.806302 0.15349
0.175662 0.812299 0.15967
0.197314 0.81796 0.165469
0.220172 0.823194 0.170825
0.244572 0.827909 0.175616
0.270878 0.831708 0.178134
0.299397 0.835019 0.181399
0.330266 0.837568 0.183886
0.363516 0.839323 0.18558
0.398703 0.840436 0.186664
0.435172 0.841062 0.187366
0.472206 0.841352 0.187686
0.509071 0.84152 0.187839
0.546029 0.841474 0.187732
0.583749 0.841077 0.187198
0.621729 0.840421 0.186343
0.659449 0.839673 0.185275
0.69633 0.838956 0.184161
0.731823 0.838453 0.18323
0.765332 0.838315 0.182666
0.796704 0.838605 0.182513
0.826017 0.839292 0.182742
0.853315 0.840375 0.183368
0.878843 0.841779 0.184298
0.90309 0.843366 0.185428
0.926452 0.84506 0.186633
0.94934 0.846708 0.187823
0.972229 0.848219 0.188876
0.995575 0.849454 0.189654
1 0.850492 0.190265
0.110109 0.824964 0.146502
0.128542 0.83154 0.153338
0.147723 0.837812 0.159854
0.167529 0.843824 0.166079
0.188052 0.849515 0.171923
0.209461 0.854826 0.177279
0.232044 0.859648 0.18204
0.256184 0.86392 0.186221
0.282277 0.867491 0.189654
0.310536 0.870344 0.192325
0.341115 0.872374 0.194141
0.37409 0.87361 0.195209
0.408972 0.874189 0.195804
0.445075 0.874311 0.196033
0.481773 0.874113 0.195911
0.518257 0.873793 0.195651
0.55491 0.873289 0.195132
0.592279 0.872419 0.194232
0.629892 0.871305 0.193011
0.667216 0.870085 0.191546
0.70367 0.86894 0.190066
0.738689 0.868009 0.188785
0.771725 0.867475 0.187869
0.802625 0.867369 0.187366
0.831449 0.867658 0.187259
0.858259 0.868345 0.187533
0.88333 0.869352 0.188113
0.907149 0.870558 0.188891
0.930098 0.871839 0.189761
0.952621 0.873121 0.1906
0.975158 0.87425 0.191302
0.998199 0.87512 0.19176
1 0.875853 0.192081
0.123903 0.86186 0.160403
0.142077 0.868132 0.166934
0.160983 0.874083 0.173129
0.180499 0.879728 0.179004
0.200702 0.885023 0.184527
0.221805 0.889952 0.189624
0.244068 0.894377 0.194186
0.267872 0.898207 0.198123
0.293629 0.901335 0.201312
0.321553 0.903716 0.203738
0.351843 0.905287 0.20531
0.384512 0.906035 0.206027
0.419074 0.906126 0.206088
0.454871 0.90573 0.205661
0.491203 0.905013 0.204913
0.527291 0.904219 0.204013
0.563592 0.903197 0.202869
0.60061 0.901823 0.201312
0.637858 0.900236 0.199512
0.674769 0.898589 0.197589
0.710811 0.897002 0.195712
0.745373 0.895674 0.194034
0.77792 0.894743 0.192752
0.808347 0.89424 0.191897
0.836713 0.894163 0.191485
0.863066 0.894484 0.191455
0.887709 0.895125 0.191745
0.911131 0.895979 0.192233
