public/filters/konnect/Presets A Lighter Skin Tone/Contrast v1_19.2021-06-18 12-03-14.cube
TITLE "Generated by Resolve"
LUT_3D_SIZE 5
0 0 0.0244907
0.114565 0.00920119 0.0403449
0.34786 0 0.0247501
0.628092 0 0.000579843
0.830854 0 0.00645457
0.0294499 0.163302 0.0633555
0.167178 0.191318 0.0892958
0.423499 0.20116 0.092546
0.727993 0.209918 0.0977951
0.955047 0.244953 0.130571
0.0422065 0.453635 0.0775006
0.213169 0.503822 0.12697
0.487495 0.525246 0.142565
0.788296 0.541299 0.1523
1 0.576608 0.182757
0.09691 0.786664 0.133196
0.270878 0.831708 0.178134
0.546029 0.841474 0.187732
0.826017 0.839292 0.182742
1 0.850492 0.190265
0.188388 1 0.225467
0.3402 1 0.245548
0.596994 1 0.229068
0.857038 1 0.206836
1 1 0.204318
0 0 0.166583
0.118166 0.0117952 0.18439
0.35198 0 0.179644
0.632013 0 0.161532
0.837949 0 0.172976
0.034226 0.170352 0.216159
0.176883 0.201236 0.247639
0.430472 0.216953 0.262852
0.737972 0.226154 0.273167
0.966751 0.260456 0.307591
0.0573129 0.468498 0.252659
0.232898 0.515831 0.307591
0.501579 0.53843 0.32781
0.796475 0.554665 0.333791
1 0.590112 0.364645
0.111528 0.800153 0.314717
0.286229 0.841443 0.362387
0.557595 0.845701 0.370321
0.829328 0.842206 0.364233
1 0.853758 0.371023
0.191562 1 0.402014
0.345083 1 0.4224
0.599527 1 0.404334
0.85713 1 0.387472
1 1 0.388708
0 0 0.411994
0.118044 0.00640879 0.423713
0.351415 0 0.417777
0.63357 0 0.408026
0.842603 0 0.426078
0.0306706 0.172946 0.458671
0.18172 0.206394 0.484276
0.438483 0.224704 0.503822
0.74464 0.236667 0.5243
0.972946 0.269001 0.563333
0.0610056 0.478843 0.504402
0.241398 0.525383 0.550942
0.511376 0.548623 0.573022
0.79646 0.563546 0.585824
1 0.594736 0.617273
0.107942 0.80592 0.569192
0.294194 0.846601 0.616205
0.568399 0.846006 0.625177
0.827314 0.839948 0.620203
1 0.845716 0.617716
0.168887 1 0.647395
0.344991 1 0.674281
0.602686 1 0.658366
0.853376 1 0.640177
1 1 0.636851
0 0 0.65066
0.116747 0.00177005 0.662745
0.353613 0 0.651682
0.634974 0 0.640406
0.846281 0 0.662211
0.0317235 0.175265 0.697765
0.187533 0.212329 0.729595
0.455222 0.231205 0.745174
0.757641 0.245533 0.761975
0.982208 0.279179 0.80032
0.0695048 0.489662 0.74168
0.245136 0.537835 0.784573
0.522866 0.560632 0.797925
0.808408 0.576989 0.811246
1 0.604944 0.844755
0.120287 0.816236 0.802594
0.29807 0.853407 0.839551
0.575067 0.852232 0.838117
0.83209 0.844968 0.830335
1 0.849638 0.834867
0.178241 1 0.872541
0.343938 1 0.889632
0.606775 1 0.870756
0.860639 1 0.854765
1 1 0.854871
0 0 0.807065
0.120943 0.00399786 0.81944
0.363088 0 0.807858
0.646967 0 0.797223
0.859525 0.00199893 0.820325
0.0407568 0.184726 0.857496
0.20058 0.225483 0.894423
0.475349 0.245212 0.910765
0.778286 0.259754 0.924041
1 0.294759 0.960189
0.0834974 0.505776 0.901884
0.257343 0.5552 0.946365
0.53846 0.576242 0.960937
0.83032 0.59028 0.969284
1 0.618158 0.996506
0.137514 0.8318 0.958572
0.305318 0.866514 0.991119
0.575891 0.862989 0.983993
0.839261 0.852018 0.966766
1 0.857862 0.970916
0.195987 1 1
0.345678 1 1
0.607996 1 1
0.86659 1 0.986465
1 1 0.989563
