public/filters/konnect/Presets A Lighter Skin Tone/Cool v1_23.2021-06-18 12-03-14.cube
TITLE "Generated by Resolve"
LUT_3D_SIZE 9
0.0349126 0.0431373 0.0784619
0.0860151 0.0459297 0.0814679
0.152682 0.0376287 0.0670481
0.24625 0.0202792 0.0386206
0.35993 0.0133516 0.0288853
0.463127 0.0172885 0.0437171
0.56907 0.0135348 0.0427863
0.670146 0.0103914 0.0385748
0.774029 0.00823987 0.0354314
0.0330053 0.108034 0.0806287
0.0870069 0.113695 0.0869612
0.156329 0.116869 0.0857404
0.254032 0.116869 0.052079
0.389548 0.116152 0.0114137
0.498283 0.108309 0.0307622
0.592767 0.102296 0.0702678
0.698253 0.104707 0.0742809
0.808469 0.108721 0.078294
0.0332189 0.189776 0.0838331
0.0905318 0.199741 0.0941482
0.164401 0.207691 0.0979934
0.264714 0.214008 0.080415
0.391058 0.219593 0.0512093
0.519524 0.21973 0.0526589
0.627115 0.217395 0.103136
0.737804 0.225971 0.122057
0.855039 0.236378 0.133608
0.0328374 0.293919 0.0840772
0.0947127 0.310567 0.0997482
0.175143 0.325444 0.110216
0.281788 0.338201 0.103441
0.4121 0.350301 0.0773175
0.547845 0.357336 0.0744488
0.664454 0.360632 0.134813
0.778485 0.372702 0.169207
0.899397 0.385718 0.184222
0.0414282 0.425513 0.0947585
0.108492 0.449912 0.115801
0.195758 0.470375 0.133684
0.306859 0.485771 0.141299
0.437278 0.498894 0.126482
0.579461 0.511711 0.0872053
0.703365 0.519677 0.134829
0.8159 0.533608 0.208713
0.939574 0.54934 0.228382
0.0651102 0.577737 0.123384
0.134798 0.605356 0.147509
0.224445 0.629206 0.162478
0.339483 0.646555 0.172045
0.470893 0.659403 0.182406
0.609583 0.671244 0.179553
0.739315 0.684596 0.195789
0.856443 0.701854 0.247807
0.979553 0.717433 0.272541
0.102052 0.737377 0.168353
0.175113 0.767163 0.195697
0.266072 0.792828 0.20827
0.382757 0.810681 0.211887
0.515221 0.823301 0.221271
0.652369 0.834073 0.235096
0.780224 0.846036 0.243915
0.897292 0.862257 0.288823
1 0.875425 0.31284
0.154742 0.900053 0.232639
0.228779 0.929305 0.259174
0.317601 0.952499 0.26479
0.432105 0.966781 0.260319
0.562936 0.976257 0.266133
0.699413 0.985443 0.295033
0.822858 0.994324 0.298375
0.938827 1 0.327382
1 1 0.354238
0.206195 1 0.293111
0.280003 1 0.317861
0.36701 1 0.323629
0.472969 1 0.295598
0.598306 1 0.278447
0.738735 1 0.32604
0.862455 1 0.353109
0.977996 1 0.370001
1 1 0.395422
0.0285801 0.0368811 0.194629
0.0839399 0.0433356 0.19884
0.147982 0.0396277 0.197345
0.240375 0.0215915 0.193042
0.360235 0.00889601 0.186343
0.478309 0.0062562 0.176989
0.576791 0.00805676 0.166155
0.68011 0.0061799 0.162753
0.778576 0.00634775 0.159365
0.0273289 0.105531 0.196857
0.0849012 0.111391 0.203418
0.154223 0.114961 0.207156
0.249622 0.11487 0.205829
0.37847 0.112749 0.201038
0.50808 0.108949 0.196506
0.603738 0.104067 0.1935
0.704051 0.106264 0.196063
0.814145 0.110857 0.200534
0.0303349 0.189075 0.201816
0.090135 0.198978 0.212345
0.164263 0.207111 0.220661
0.262928 0.213001 0.224475
0.392889 0.221469 0.222736
0.537118 0.228687 0.220584
0.647089 0.225788 0.228611
0.743358 0.230182 0.243473
0.860777 0.24094 0.254917
0.0332494 0.295003 0.205447
0.0965744 0.312184 0.222095
0.1776 0.327764 0.236973
0.283436 0.33994 0.247532
0.415564 0.354253 0.250095
0.561318 0.366751 0.249012
0.68809 0.371633 0.260319
0.787167 0.378195 0.28867
0.905196 0.390997 0.305608
0.0455024 0.428489 0.219669
0.113588 0.452857 0.242985
0.199954 0.474556 0.26302
0.310887 0.490639 0.277287
0.44155 0.503883 0.283696
0.585657 0.516823 0.280232
0.721843 0.526711 0.285832
0.828489 0.539147 0.324193
0.945708 0.555535 0.351034
0.070222 0.582208 0.24947
0.140749 0.609506 0.27541
0.229206 0.634134 0.295979
0.343923 0.651804 0.311116
0.475639 0.665034 0.322515
0.615564 0.676326 0.324239
0.752041 0.686519 0.322026
0.870283 0.703319 0.355612
0.985824 0.722972 0.393301
0.105714 0.743297 0.294469
0.181964 0.772747 0.323507
0.272099 0.79826 0.344701
0.386175 0.816083 0.353185
0.518212 0.827848 0.3608
0.655802 0.837293 0.369421
0.785611 0.845563 0.369818
0.906996 0.858869 0.388586
1 0.87863 0.428794
0.149401 0.906645 0.356329
0.235676 0.934905 0.386175
0.325811 0.957778 0.405585
0.434546 0.971069 0.404791
0.560952 0.977722 0.399344
0.697993 0.985183 0.411078
0.824521 0.993912 0.42211
0.943358 1 0.425803
1 1 0.463493
0.186938 1 0.413687
0.284825 1 0.442679
0.373877 1 0.459159
0.474601 1 0.445457
0.594568 1 0.427695
0.731609 1 0.437888
0.862699 1 0.470863
0.979767 1 0.477882
1 1 0.501564
0.0184787 0.0271305 0.300465
0.0804913 0.0399939 0.302312
0.145495 0.0390326 0.300938
0.234745 0.027863 0.29929
0.357992 0.00895705 0.300069
0.486732 0.00318914 0.295583
0.586145 0.00495918 0.279835
0.685389 0.00508125 0.273884
0.791455 0.00471504 0.271214
0.0196231 0.104585 0.304341
0.0813306 0.110277 0.309712
0.153353 0.114092 0.313527
0.245914 0.11397 0.314183
0.372122 0.111971 0.31693
0.512505 0.110033 0.3187
0.621454 0.107164 0.311452
0.711406 0.108858 0.307759
0.825299 0.114076 0.312108
0.027039 0.189853 0.310735
0.0890669 0.199847 0.321447
0.165057 0.208133 0.330068
0.26302 0.213474 0.335348
0.390707 0.221271 0.340642
0.542214 0.232258 0.346853
0.667277 0.234012 0.34931
0.755947 0.236179 0.355673
0.869169 0.246448 0.366171
0.0326085 0.297887 0.3178
0.0981613 0.315358 0.335119
0.180636 0.330831 0.350607
0.286259 0.342916 0.362448
0.414633 0.354482 0.371084
0.565042 0.370657 0.376013
0.707561 0.380453 0.380728
0.805173 0.385153 0.398611
0.91281 0.397238 0.417243
0.0475166 0.433433 0.335592
0.117388 0.457954 0.359365
0.204578 0.479423 0.380011
0.315373 0.495644 0.395163
0.444404 0.507424 0.405676
0.588525 0.520867 0.408469
0.733227 0.531914 0.408652
0.850416 0.543145 0.42887
0.954696 0.561791 0.462516
0.0673381 0.589334 0.367956
0.146075 0.615091 0.393851
0.235691 0.639002 0.416571
0.349477 0.65745 0.432959
0.480903 0.671061 0.445624
0.620325 0.682185 0.450675
0.759258 0.689647 0.444541
0.887953 0.700221 0.455314
0.996872 0.725338 0.499214
0.0868544 0.752758 0.413931
0.187976 0.779293 0.443473
0.279835 0.80441 0.467292
0.393271 0.822293 0.480598
0.523903 0.834043 0.488807
0.660685 0.843153 0.496345
0.78996 0.84799 0.491203
0.917632 0.850629 0.484657
1 0.87454 0.525887
0.0977951 0.916396 0.471397
0.240757 0.941039 0.50576
0.333043 0.963623 0.527626
0.442649 0.977127 0.534569
0.565881 0.982727 0.52958
0.701091 0.988785 0.5355
0.82707 0.99559 0.540597
0.947372 0.994766 0.52575
1 1 0.548516
0.1178 1 0.523308
0.285832 1 0.560265
0.379919 1 0.580285
0.488045 1 0.584695
0.602518 1 0.567468
0.732479 1 0.562203
0.863111 1 0.582757
0.981949 1 0.588006
1 1 0.58526
0.0162814 0.0245518 0.410788
0.0766461 0.0359808 0.411139
0.143206 0.0365911 0.410101
0.230274 0.0319677 0.40705
0.345022 0.0169528 0.405295
0.473976 0.00628672 0.404089
0.584939 0.00476081 0.394018
0.68574 0.00491341 0.388266
0.797879 0.00415045 0.387961
0.0189822 0.102754 0.41529
0.0787366 0.109056 0.421469
0.152514 0.113054 0.424659
0.244343 0.113176 0.424933
0.362173 0.110628 0.425772
0.502708 0.109499 0.432242
0.625956 0.108904 0.430793
0.7196 0.111345 0.425544
0.832868 0.117037 0.429404
0.0258335 0.189883 0.423545
0.0873426 0.201099 0.435203
0.165911 0.209339 0.443442
0.264363 0.214939 0.449058
0.385519 0.219425 0.453635
0.531167 0.22945 0.463645
0.670909 0.237476 0.471107
0.769146 0.24181 0.474403
0.876905 0.251575 0.482979
0.0318456 0.300893 0.433463
0.0983749 0.3196 0.451545
0.183597 0.334752 0.466667
0.289738 0.346777 0.478737
0.415518 0.356451 0.488228
0.560006 0.370291 0.497765
0.708843 0.383734 0.505226
0.822553 0.391073 0.515663
0.922637 0.403021 0.533013
0.0438239 0.44036 0.454627
0.119417 0.464118 0.477607
0.20911 0.484581 0.497704
0.319921 0.500221 0.513161
0.448295 0.511971 0.524773
0.588159 0.524132 0.533455
0.734691 0.536339 0.535531
0.866285 0.546197 0.544152
0.96762 0.566033 0.575235
0.0518349 0.599374 0.48893
0.149981 0.621454 0.512505
0.241169 0.645197 0.535286
0.35552 0.663432 0.552895
0.48661 0.677455 0.566232
0.624735 0.689174 0.57644
0.762051 0.696086 0.573037
0.899596 0.698878 0.567971
1 0.720195 0.599176
0.0509651 0.765042 0.534524
0.192462 0.786221 0.562356
0.286198 0.811032 0.586389
0.401312 0.829023 0.603204
0.5308 0.841047 0.61297
0.666682 0.850584 0.621836
0.794049 0.854719 0.61799
0.924437 0.847059 0.595697
1 0.861646 0.61651
0.0363317 0.927825 0.584421
0.239246 0.947356 0.621836
0.338903 0.969451 0.645487
0.452125 0.98378 0.658503
0.57557 0.990433 0.659602
0.707286 0.995193 0.661646
0.831235 1 0.664179
0.950668 0.992935 0.638239
1 0.989944 0.628138
0.0562295 1 0.630823
0.275822 1 0.671473
0.38439 1 0.696361
0.496574 1 0.706737
0.615351 1 0.702113
0.740093 1 0.692424
0.866773 1 0.703258
0.984787 1 0.702129
1 1 0.667933
0.0171969 0.0249943 0.512581
0.0741588 0.0321813 0.512596
0.141711 0.0346685 0.512673
0.228946 0.0314641 0.509682
0.338186 0.0222782 0.50425
0.462043 0.0108949 0.501823
0.577905 0.00656138 0.496483
0.680491 0.00648508 0.492531
0.796826 0.00529488 0.495277
0.0188296 0.101625 0.518883
0.0781262 0.108476 0.525628
0.152422 0.112779 0.528603
0.244724 0.113298 0.529076
0.358206 0.110597 0.527367
0.490013 0.109102 0.531518
0.618311 0.110216 0.535546
0.720821 0.114275 0.533959
0.836164 0.120775 0.538918
0.0261845 0.190433 0.528374
0.0881361 0.202487 0.540642
0.167559 0.211398 0.549096
0.26688 0.217563 0.555154
0.386603 0.221561 0.559335
0.523003 0.228626 0.567803
0.662654 0.238712 0.579278
0.772625 0.246723 0.584863
0.883467 0.257237 0.59295
0.0324407 0.30454 0.540887
0.100877 0.323812 0.559258
0.187289 0.339452 0.574365
0.294179 0.351843 0.586603
0.419776 0.361486 0.596368
0.557183 0.372061 0.606561
0.701854 0.386069 0.618418
0.824704 0.39646 0.628443
0.930098 0.409537 0.64268
0.0424964 0.447425 0.565042
0.123995 0.470008 0.586694
0.21416 0.49073 0.606607
0.325307 0.506188 0.621881
0.453834 0.518288 0.634089
0.590936 0.529793 0.645274
0.732464 0.542428 0.653437
0.868544 0.552407 0.660502
0.97731 0.571527 0.683833
0.0511025 0.606622 0.600092
0.15494 0.628489 0.622309
0.247135 0.652338 0.645014
0.362188 0.670527 0.662928
0.493187 0.684794 0.677012
0.630686 0.697047 0.689189
0.76405 0.70602 0.694072
0.902388 0.705226 0.686213
1 0.724132 0.709407
0.0482948 0.772702 0.646906
0.196994 0.793896 0.672404
0.292546 0.818402 0.696117
0.408591 0.836271 0.713603
0.538247 0.848615 0.725368
0.673182 0.858183 0.7346
0.799023 0.864942 0.738018
0.927687 0.85275 0.713497
1 0.864118 0.72755
0.0328374 0.934218 0.696788
0.241581 0.953994 0.730449
0.344747 0.975799 0.753933
0.459068 0.990051 0.768063
0.58468 0.998047 0.774624
0.714443 1 0.776638
0.8374 1 0.782574
0.954314 0.99823 0.754482
1 0.989609 0.73695
0.0523537 1 0.741466
0.277806 1 0.778943
0.389242 1 0.803342
0.502541 1 0.814832
0.625986 1 0.818814
0.750332 1 0.813458
0.873518 1 0.820539
0.990219 1 0.819379
1 1 0.774884
0.0209506 0.0278782 0.603647
0.0733959 0.0310216 0.60618
0.141009 0.0335851 0.607019
0.228855 0.0308843 0.60444
0.336919 0.0237125 0.59823
0.457527 0.0137789 0.594476
0.572839 0.00895705 0.590311
0.674937 0.00935378 0.587213
0.79176 0.00816358 0.591913
0.0223545 0.100725 0.611734
0.0793317 0.108537 0.620264
0.153109 0.113359 0.623713
0.246174 0.114336 0.624689
0.359243 0.112078 0.622919
0.484565 0.110323 0.623606
0.610971 0.112337 0.629374
0.717891 0.117937 0.631296
0.835615 0.125444 0.638468
0.0290837 0.191226 0.623255
0.0901808 0.204654 0.636713
0.170062 0.214359 0.645441
0.270375 0.22121 0.652094
0.390448 0.225727 0.656825
0.521675 0.231235 0.663264
0.65597 0.241367 0.675807
0.772351 0.25211 0.684993
0.887388 0.263615 0.694041
0.0366064 0.308064 0.63769
0.104448 0.328954 0.657176
0.191806 0.345129 0.672175
0.299535 0.358007 0.684672
0.425574 0.368032 0.694926
0.560113 0.377371 0.704768
0.70132 0.391073 0.719951
0.822919 0.402945 0.731258
0.93492 0.417182 0.744152
0.047776 0.453376 0.663767
0.129061 0.476967 0.685344
0.219852 0.497841 0.704921
0.331563 0.513375 0.720119
0.460472 0.525811 0.732815
0.596887 0.537408 0.744823
0.731701 0.550652 0.758068
0.866758 0.561471 0.768414
0.981445 0.580194 0.786999
0.058381 0.613062 0.699336
0.160449 0.636591 0.721096
0.253712 0.660533 0.743572
0.369467 0.678767 0.76141
0.500603 0.69308 0.775921
0.637766 0.705547 0.788876
0.767788 0.717357 0.800565
0.902281 0.716655 0.798459
1 0.732448 0.814847
0.0603647 0.779004 0.747311
0.203937 0.802243 0.77084
0.299565 0.826627 0.793973
0.416068 0.844236 0.811322
0.545937 0.856611 0.823972
0.680247 0.866117 0.83389
0.805112 0.876036 0.84361
0.933364 0.8542 0.814542
1 0.872023 0.835019
0.0421759 0.940093 0.799222
0.247715 0.961395 0.827665
0.351278 0.982956 0.849912
0.465751 0.996811 0.863905
0.592462 1 0.872694
0.722225 1 0.877409
0.844114 1 0.885451
0.959014 1 0.870298
1 0.995285 0.844739
0.0614176 1 0.842863
0.284382 1 0.875059
0.394812 1 0.897368
0.508339 1 0.908843
0.633951 1 0.916136
0.760647 1 0.917632
0.881239 1 0.923842
0.997574 1 0.929274
1 1 0.882414
0.0229343 0.0290684 0.681147
0.0738842 0.0316014 0.685573
0.141421 0.033875 0.687343
0.229969 0.0314641 0.685222
0.338231 0.0249485 0.679438
0.45568 0.0172885 0.673457
0.570871 0.0122225 0.670909
0.67393 0.0129397 0.669642
0.787503 0.0128939 0.674205
0.0273289 0.100969 0.689601
0.0819715 0.109712 0.699825
0.154925 0.115221 0.704402
0.248875 0.116701 0.706035
0.362493 0.115068 0.705013
0.485878 0.113649 0.704723
0.608499 0.116167 0.709865
0.718303 0.123079 0.715007
0.834943 0.131533 0.723156
0.032517 0.193637 0.703853
0.0938125 0.207904 0.717754
0.173739 0.218677 0.727138
0.275135 0.226291 0.734508
0.396048 0.231556 0.740169
0.526177 0.237049 0.746349
0.654948 0.246647 0.757931
0.773251 0.258946 0.770001
0.89041 0.271305 0.78027
0.0436866 0.312535 0.718868
0.109941 0.334951 0.739696
0.197421 0.352178 0.755108
0.30602 0.365545 0.767849
0.432532 0.375875 0.778607
0.566537 0.385092 0.78851
0.697063 0.397131 0.802411
0.821973 0.411292 0.818051
0.938994 0.42652 0.830976
0.0585489 0.459541 0.746029
0.135546 0.485008 0.768688
0.226444 0.506203 0.788098
0.338918 0.52195 0.80325
0.468284 0.534707 0.816434
0.604776 0.546548 0.828946
0.735546 0.560601 0.844251
0.864866 0.57348 0.859998
0.985214 0.590997 0.875624
0.0753643 0.619455 0.781689
0.168276 0.645609 0.804303
0.261402 0.669947 0.826871
0.377707 0.688258 0.844526
0.508995 0.702541 0.85922
0.64596 0.714946 0.872419
0.774304 0.728267 0.886732
0.901274 0.733364 0.896025
1 0.745495 0.908232
0.0835126 0.785885 0.831449
0.21236 0.811749 0.853864
0.307347 0.835966 0.876478
0.424247 0.853223 0.893385
0.554101 0.865324 0.906111
0.688121 0.874815 0.916609
0.812146 0.885756 0.928191
0.931212 0.886275 0.931075
1 0.886259 0.932784
0.076936 0.946136 0.886778
0.258442 0.96994 0.910063
0.358618 0.991165 0.930495
0.473121 1 0.944137
0.600259 1 0.953597
0.730556 1 0.960555
0.851331 1 0.969451
0.965484 1 0.973373
1 1 0.956756
0.0972305 1 0.931701
0.29604 1 0.956863
0.401511 1 0.976257
0.515099 1 0.987594
0.641352 1 0.995758
0.76994 1 1
0.889708 1 1
1 1 1
1 1 0.992737
0.0225834 0.0285496 0.747539
0.0750591 0.0331273 0.752499
0.142824 0.0353704 0.755108
0.232166 0.0331731 0.75346
0.340917 0.0270695 0.748257
0.458183 0.0202487 0.742397
0.572076 0.0162356 0.73962
0.676265 0.0173495 0.740093
0.786679 0.0190127 0.743694
0.0290837 0.103044 0.757671
0.0849622 0.112093 0.767163
0.157717 0.118257 0.7729
0.252674 0.120256 0.775219
0.367086 0.11931 0.775006
0.490471 0.118517 0.774975
0.610758 0.121645 0.779232
0.722087 0.12961 0.786572
0.837827 0.138872 0.795148
0.0381018 0.196948 0.771481
0.0987564 0.212131 0.786099
0.178424 0.22417 0.796902
0.28098 0.232609 0.805127
0.402731 0.238575 0.811582
0.533043 0.244541 0.818112
0.659144 0.254139 0.828717
0.776852 0.267201 0.841886
0.895598 0.280156 0.853361
0.0507973 0.318761 0.788586
0.117128 0.341619 0.809567
0.203937 0.36025 0.826337
0.313405 0.374136 0.83949
0.440375 0.384741 0.850568
0.574456 0.394064 0.860716
0.702495 0.406119 0.874022
0.824094 0.421256 0.890501
0.94551 0.436881 0.904723
0.0704051 0.467109 0.816449
0.144106 0.493431 0.839628
0.233936 0.515312 0.859754
0.347127 0.531548 0.875242
0.476967 0.54461 0.888777
0.613642 0.55668 0.90164
0.742931 0.571313 0.917113
0.866712 0.586694 0.935088
0.990402 0.602914 0.950545
0.0944839 0.627405 0.852186
0.177539 0.655512 0.876234
0.270069 0.680217 0.899199
0.386648 0.698619 0.916838
0.518059 0.71281 0.931548
0.654826 0.725078 0.944732
0.782238 0.739025 0.959396
0.903304 0.750607 0.974472
1 0.761364 0.987106
0.12047 0.793667 0.902312
0.222446 0.822019 0.926192
0.316594 0.846113 0.948562
0.43299 0.862852 0.965072
0.562676 0.874571 0.977539
0.696376 0.883848 0.987976
0.819684 0.894682 0.999619
0.935851 0.903197 1
1 0.907591 1
0.135882 0.953643 0.960082
0.270558 0.979324 0.981979
0.366461 1 1
0.481025 1 1
0.608103 1 1
0.738643 1 1
0.858824 1 1
0.972992 1 1
1 1 1
0.187625 1 1
0.30985 1 1
0.408576 1 1
0.522454 1 1
0.64889 1 1
0.778714 1 1
0.898573 1 1
1 1 1
1 1 1
0.0233768 0.0294957 0.80911
0.0763561 0.0347448 0.814679
0.144762 0.0373846 0.817609
0.234943 0.0354467 0.816342
0.344259 0.0297551 0.811627
0.461921 0.0235142 0.806241
0.57554 0.0204166 0.803677
0.680522 0.0221714 0.805188
0.790097 0.0251316 0.808454
0.0311742 0.10573 0.820768
0.0878614 0.115175 0.830152
0.161059 0.121889 0.836698
0.257084 0.124453 0.839658
0.37232 0.124193 0.840146
0.496315 0.124132 0.840711
0.616083 0.128069 0.844846
0.727947 0.136904 0.853071
0.84419 0.146868 0.862272
0.0422217 0.201556 0.835889
0.103716 0.217227 0.850492
0.183627 0.23032 0.862638
0.287388 0.239536 0.871717
0.409979 0.246174 0.878828
0.540825 0.252735 0.885878
0.666148 0.26273 0.895827
0.783108 0.276219 0.908873
0.903105 0.289448 0.921233
0.0569619 0.326116 0.854978
0.124224 0.349233 0.875746
0.210895 0.36875 0.893538
0.321157 0.383169 0.907347
0.448554 0.393988 0.918654
0.582742 0.403433 0.928923
0.710124 0.41593 0.941939
0.830213 0.431769 0.958099
0.953735 0.447532 0.973281
0.0805524 0.475822 0.883665
0.152193 0.502617 0.90724
0.241856 0.524834 0.927733
0.355688 0.541573 0.943908
0.485969 0.554879 0.957671
0.622797 0.567163 0.970718
0.751659 0.582071 0.98613
0.873228 0.598703 1
0.997269 0.614649 1
0.10988 0.63679 0.919814
0.185946 0.666072 0.945449
0.27892 0.690822 0.968383
0.395804 0.709194 0.986084
0.527306 0.723278 1
0.663844 0.735363 1
0.790631 0.749096 1
0.909667 0.763104 1
1 0.775143 1
0.151522 0.803082 0.969635
0.231556 0.832563 0.995727
0.325444 0.856321 1
0.441855 0.872557 1
0.571359 0.883864 1
0.704631 0.892836 1
0.827283 0.903426 1
0.942489 0.914626 1
1 0.9234 1
0.185183 0.962646 1
0.281147 0.9888 1
0.37435 1 1
0.489006 1 1
0.615961 1 1
0.746349 1 1
0.866209 1 1
0.980301 1 1
1 1 1
0.240558 1 1
0.322713 1 1
0.415763 1 1
0.529992 1 1
0.656596 1 1
0.786801 1 1
0.907469 1 1
1 1 1
1 1 1
