public/filters/konnect/Presets A Lighter Skin Tone/Cool v1_23.2021-06-18 12-03-14.cube
TITLE "Generated by Resolve"
LUT_3D_SIZE 33
0.0349126 0.0431373 0.0784619
0.0478676 0.0440528 0.0796063
0.060914 0.0448768 0.0806134
0.0725872 0.0458228 0.0816358
0.0860151 0.0459297 0.0814679
0.101396 0.045243 0.0800946
0.117266 0.0436561 0.0772717
0.134279 0.0411078 0.0728923
0.152682 0.0376287 0.0670481
0.172412 0.0329137 0.0595102
0.194766 0.0284123 0.0520638
0.219471 0.0241398 0.0449683
0.24625 0.0202792 0.0386206
0.274617 0.0169833 0.0332494
0.303716 0.0146029 0.0295415
0.332403 0.0134127 0.0281071
0.35993 0.0133516 0.0288853
0.386465 0.0140841 0.0315251
0.412055 0.0154421 0.0358129
0.437324 0.0167544 0.0404364
0.463127 0.0172885 0.0437171
0.489479 0.016968 0.0452583
0.516014 0.016083 0.0453651
0.542641 0.0148318 0.0443427
0.56907 0.0135348 0.0427863
0.594888 0.0124514 0.0413825
0.620157 0.0116121 0.0402686
0.645136 0.010956 0.0393683
0.670146 0.0103914 0.0385748
0.695476 0.00985733 0.0378119
0.721553 0.00923171 0.0369116
0.747646 0.0087129 0.0361486
0.774029 0.00823987 0.0354314
0.0342107 0.0598611 0.0790265
0.0472267 0.0607614 0.0801862
0.0602731 0.0616007 0.0811933
0.0719158 0.0626078 0.0820935
0.0855879 0.0628824 0.0816663
0.100496 0.0625315 0.0798505
0.115694 0.0611582 0.0759899
0.132708 0.0601205 0.0715496
0.1514 0.0588693 0.0661936
0.172045 0.0573129 0.0601053
0.194781 0.0554665 0.0536812
0.219577 0.0533913 0.0474403
0.246326 0.0511788 0.0416876
0.274678 0.0488746 0.0364385
0.304051 0.0466468 0.0321508
0.333715 0.0446632 0.02916
0.362509 0.0431525 0.0284123
0.390478 0.0419471 0.029633
0.417273 0.0409705 0.0329595
0.443137 0.0400549 0.0376593
0.468482 0.0390478 0.0427863
0.494347 0.0377966 0.0461585
0.520439 0.0365301 0.0479591
0.546654 0.0353399 0.0483253
0.572854 0.0343175 0.047715
0.598871 0.0335241 0.0466163
0.624353 0.03299 0.0458076
0.649592 0.0326238 0.0452277
0.674876 0.0323644 0.0447547
0.700511 0.0321508 0.0443275
0.726894 0.0318456 0.0437781
0.753307 0.0316777 0.0433967
0.780026 0.0315557 0.043061
0.0350042 0.0757458 0.0814527
0.0478828 0.0764172 0.0823682
0.0605936 0.0767834 0.0828717
0.0719463 0.0770733 0.0831617
0.0859083 0.0775464 0.0833448
0.101091 0.0779126 0.0828412
0.11725 0.0781262 0.0813916
0.134585 0.0781109 0.0787213
0.153368 0.0778363 0.0747234
0.173953 0.0772259 0.0695506
0.196567 0.0762646 0.0634775
0.221302 0.0749523 0.0567941
0.248173 0.0733349 0.0496834
0.276982 0.0714733 0.042298
0.307347 0.0695201 0.0352483
0.338796 0.0675975 0.0289464
0.369604 0.065919 0.0256046
0.399329 0.0643778 0.0251469
0.427146 0.0629282 0.027924
0.453071 0.0614786 0.0335546
0.477256 0.060029 0.0417792
0.502144 0.0585489 0.0483101
0.527459 0.0572366 0.0527962
0.55317 0.0561532 0.0551308
0.579126 0.0553902 0.0557412
0.605341 0.0549325 0.0549477
0.631006 0.0547646 0.0543832
0.656245 0.0548562 0.0538033
0.681758 0.0549935 0.0536049
0.707698 0.0551614 0.0534676
0.734386 0.0552682 0.0532692
0.76112 0.0555276 0.053254
0.78819 0.0558328 0.053315
0.0335241 0.0906539 0.0803693
0.0465095 0.0915541 0.0814374
0.0596475 0.092607 0.0826581
0.0719921 0.0940108 0.0842756
0.0864271 0.0949721 0.0852216
0.101946 0.0957351 0.0856184
0.118395 0.0963607 0.0853132
0.135927 0.0968032 0.0840009
0.154803 0.0970016 0.0813611
0.175418 0.09691 0.0771649
0.198062 0.0964675 0.0712596
0.222965 0.0957198 0.0635691
0.25034 0.0946517 0.0542306
0.28014 0.0934157 0.0437018
0.312093 0.092134 0.0332647
0.345724 0.0909285 0.0240024
0.378958 0.0897688 0.0185855
0.410498 0.0884565 0.0170901
0.439139 0.0868849 0.019501
0.464729 0.0850385 0.025864
0.487526 0.0829938 0.0367132
0.510826 0.0811017 0.0472725
0.535073 0.0796063 0.0553902
0.560143 0.0785534 0.0606088
0.585794 0.0779431 0.0632486
0.612085 0.0778058 0.063508
0.638193 0.0779583 0.0635233
0.664118 0.0783246 0.0637827
0.69015 0.0788128 0.0641947
0.716579 0.0793469 0.064622
0.74377 0.0798199 0.0650034
0.770993 0.0804608 0.0655375
0.798535 0.0811627 0.0661631
0.0330053 0.108034 0.0806287
0.0462654 0.109361 0.0821088
0.059617 0.11078 0.0836957
0.0722362 0.112474 0.0856336
0.0870069 0.113695 0.0869612
0.1028 0.114733 0.0879225
0.119509 0.115618 0.0883345
0.137255 0.116335 0.0878157
0.156329 0.116869 0.0857404
0.177157 0.117174 0.0814069
0.200137 0.11725 0.0743572
0.22565 0.117128 0.0644083
0.254032 0.116869 0.052079
0.285237 0.116609 0.0388037
0.318898 0.116442 0.0266423
0.35436 0.116381 0.0169375
0.389548 0.116152 0.0114137
0.422263 0.115251 0.0101167
0.45127 0.113558 0.0124208
0.476448 0.111162 0.0188602
0.498283 0.108309 0.0307622
0.51986 0.105714 0.0450141
0.543038 0.103853 0.0568246
0.567468 0.102739 0.0652018
0.592767 0.102296 0.0702678
0.618952 0.10248 0.0721141
0.645457 0.103044 0.0726329
0.671794 0.103807 0.0733806
0.698253 0.104707 0.0742809
0.725139 0.105638 0.075227
0.752773 0.106538 0.076112
0.780453 0.107591 0.0771649
0.808469 0.108721 0.078294
0.032929 0.126787 0.0814221
0.0463722 0.128405 0.0831617
0.0598459 0.130098 0.0850233
0.0727245 0.132036 0.0871748
0.0877546 0.133486 0.0887312
0.103761 0.134768 0.0898451
0.120684 0.135927 0.090135
0.138705 0.13698 0.0890211
0.158145 0.137942 0.0857099
0.179507 0.138796 0.079469
0.203265 0.139574 0.0699779
0.229816 0.140337 0.0576791
0.259449 0.141146 0.0438239
0.291951 0.142077 0.0304112
0.326711 0.143069 0.01944
0.362799 0.14403 0.0117342
0.398322 0.144503 0.00770581
0.431022 0.143771 0.00720226
0.460014 0.141802 0.00972
0.485115 0.138827 0.0163272
0.506981 0.135256 0.0286564
0.527886 0.13193 0.0454108
0.550744 0.129763 0.059968
0.575051 0.128618 0.0708171
0.600366 0.128344 0.0779431
0.626551 0.128817 0.0814527
0.653437 0.129809 0.0825055
0.680186 0.130999 0.0837568
0.707088 0.132326 0.0851606
0.734447 0.133684 0.0865949
0.762539 0.135012 0.0879988
0.790692 0.136507 0.0895705
0.819165 0.138079 0.0912337
0.0330205 0.146639 0.0823529
0.0466316 0.148501 0.0843366
0.0602274 0.150469 0.0864424
0.0733654 0.152651 0.0888075
0.0886091 0.154345 0.0905165
0.104845 0.155901 0.0916609
0.122042 0.157351 0.0920424
0.140368 0.158709 0.091249
0.160098 0.159976 0.0888685
0.181643 0.161105 0.0846265
0.205249 0.162051 0.078645
0.231067 0.162844 0.0711986
0.259098 0.163485 0.0628824
0.28893 0.163973 0.0546578
0.320043 0.164324 0.0472877
0.351858 0.164584 0.0412451
0.383581 0.164569 0.0375372
0.414755 0.163882 0.0370794
0.444846 0.162585 0.0399023
0.47364 0.16083 0.0459144
0.500999 0.158816 0.0551919
0.527626 0.157046 0.0659342
0.554284 0.155962 0.0754101
0.581094 0.155612 0.0827649
0.607965 0.155962 0.0880598
0.634989 0.156924 0.0912642
0.662181 0.158312 0.0931868
0.689372 0.159945 0.0949721
0.716731 0.161715 0.0968795
0.744579 0.163516 0.0988327
0.773129 0.165301 0.100755
0.80174 0.167224 0.102831
0.830686 0.169223 0.104982
0.0331731 0.16759 0.0832227
0.0469368 0.169726 0.0854353
0.0606241 0.171984 0.0878157
0.074052 0.174411 0.0904097
0.0895857 0.176364 0.0923934
0.106081 0.17821 0.0938277
0.123552 0.17998 0.0944381
0.142168 0.181689 0.0938735
0.162219 0.183337 0.0917067
0.184115 0.184878 0.0877241
0.208042 0.186267 0.0822003
0.234119 0.187472 0.0755016
0.262272 0.18851 0.0681926
0.292088 0.18938 0.0609903
0.323125 0.190127 0.0544289
0.354925 0.190814 0.0486305
0.386954 0.191302 0.0444038
0.419104 0.191333 0.0423438
0.450507 0.190723 0.043473
0.48072 0.189548 0.0478523
0.509377 0.187961 0.0559701
0.536858 0.186419 0.0666514
0.563546 0.185351 0.0783856
0.590372 0.185122 0.0881514
0.617258 0.185672 0.0957961
0.644297 0.186923 0.101091
0.671595 0.188678 0.104585
0.699245 0.190753 0.106889
0.727077 0.19295 0.1093
0.755383 0.195178 0.111742
0.784375 0.19736 0.114137
0.813413 0.199664 0.11667
0.842771 0.202029 0.119249
0.0332189 0.189776 0.0838331
0.0471504 0.192218 0.0862898
0.0609445 0.194797 0.0889601
0.0747082 0.197498 0.0917983
0.0905318 0.199741 0.0941482
0.107362 0.201862 0.0961929
0.125154 0.203891 0.097734
0.144076 0.205829 0.0984665
0.164401 0.207691 0.0979934
0.18645 0.209461 0.0959335
0.210468 0.211109 0.0921798
0.236576 0.212619 0.0868849
0.264714 0.214008 0.080415
0.294591 0.215335 0.073228
0.325841 0.216678 0.0656901
0.358099 0.218128 0.0580606
0.391058 0.219593 0.0512093
0.424796 0.220798 0.0455787
0.457923 0.221241 0.0436408
0.489708 0.220859 0.0457618
0.519524 0.21973 0.0526589
0.547509 0.218311 0.0638437
0.573861 0.217029 0.0788891
0.600412 0.216754 0.0922255
0.627115 0.217395 0.103136
0.654093 0.21886 0.111101
0.681498 0.22092 0.116411
0.70956 0.223407 0.119188
0.737804 0.225971 0.122057
0.766537 0.22855 0.124926
0.795911 0.231067 0.127718
0.82533 0.233707 0.130648
0.855039 0.236378 0.133608
0.0331121 0.213352 0.0840772
0.0472114 0.216129 0.0868238
0.0611124 0.219074 0.0898299
0.0752575 0.22208 0.092958
0.0914015 0.224674 0.0956436
0.108568 0.227131 0.0981765
0.126741 0.229496 0.10045
0.146044 0.231769 0.102159
0.166705 0.233921 0.103029
0.189075 0.235935 0.102632
0.213291 0.237842 0.100633
0.239551 0.239643 0.0968338
0.267842 0.241398 0.0912032
0.297948 0.243259 0.0836957
0.329656 0.24535 0.0745403
0.362676 0.247791 0.0641947
0.396826 0.250416 0.0539101
0.432212 0.252979 0.0445716
0.467155 0.254658 0.0394903
0.500435 0.255116 0.0395666
0.531182 0.254337 0.0454566
0.559487 0.252888 0.0571145
0.585428 0.25127 0.0751202
0.611337 0.250675 0.0930648
0.637613 0.25124 0.108232
0.664347 0.252766 0.119677
0.691691 0.255024 0.127489
0.719921 0.257786 0.131441
0.748531 0.26067 0.134691
0.777646 0.263539 0.137911
0.80734 0.266346 0.14107
0.837079 0.26923 0.14432
0.867094 0.272129 0.14757
0.0328985 0.238453 0.084062
0.0472114 0.241627 0.087129
0.0611124 0.245029 0.0905928
0.0758373 0.248371 0.0940108
0.0923476 0.251377 0.0970932
0.10988 0.254261 0.100023
0.128435 0.257023 0.10277
0.14815 0.259693 0.105089
0.169223 0.262226 0.106737
0.191989 0.264591 0.107301
0.216587 0.26685 0.106264
0.243229 0.269093 0.102998
0.271946 0.271397 0.0971695
0.302586 0.27396 0.0885328
0.335012 0.276967 0.0772259
0.368963 0.280446 0.064332
0.404227 0.284184 0.051667
0.440803 0.287816 0.0405127
0.477104 0.290471 0.0337835
0.51133 0.291463 0.033051
0.542687 0.290867 0.0384985
0.571206 0.289326 0.0504311
0.59704 0.287419 0.0700847
0.622278 0.286427 0.0924849
0.648157 0.286839 0.111894
0.674662 0.288396 0.12697
0.701885 0.290761 0.137591
0.730114 0.293706 0.143343
0.75903 0.296849 0.146914
0.788449 0.299947 0.150423
0.818418 0.302953 0.153857
0.848402 0.306035 0.157351
0.87866 0.309102 0.16083
0.0327306 0.265278 0.0839399
0.0472877 0.268894 0.0874189
0.0612192 0.272816 0.0913558
0.0765393 0.276524 0.095079
0.0934157 0.279973 0.098497
0.111315 0.283314 0.101717
0.130282 0.286564 0.104677
0.150408 0.289723 0.107118
0.171969 0.29279 0.108598
0.195254 0.29575 0.108766
0.220462 0.29865 0.106981
0.247776 0.301595 0.102556
0.277241 0.304707 0.0951858
0.308675 0.308095 0.0851453
0.341909 0.31191 0.0726635
0.376562 0.316121 0.0592966
0.412375 0.320363 0.0469825
0.44921 0.324239 0.0368658
0.485786 0.327138 0.0307012
0.520134 0.328161 0.0306554
0.55169 0.327565 0.0366369
0.580514 0.32607 0.049134
0.606775 0.324285 0.0694285
0.631952 0.323217 0.0946975
0.657862 0.323705 0.116869
0.684413 0.325383 0.134447
0.711666 0.327901 0.147158
0.73991 0.330968 0.15462
0.76907 0.334279 0.158465
0.798718 0.33753 0.162188
0.828885 0.340688 0.16582
0.859052 0.343877 0.169482
0.889464 0.347036 0.173129
0.0328374 0.293919 0.0840772
0.0476844 0.297978 0.0879835
0.0618601 0.302388 0.0923934
0.0776532 0.306508 0.0965591
0.0947127 0.310567 0.0997482
0.113069 0.314397 0.103227
0.132464 0.318151 0.10631
0.153063 0.321843 0.108721
0.175143 0.325444 0.110216
0.198962 0.328847 0.110689
0.224643 0.332113 0.109819
0.252293 0.335225 0.107378
0.281788 0.338201 0.103441
0.31284 0.341146 0.0982071
0.345144 0.344182 0.0915541
0.378256 0.347295 0.0843214
0.4121 0.350301 0.0773175
0.446754 0.353048 0.0711223
0.481468 0.355245 0.0675517
0.515297 0.356603 0.0685893
0.547845 0.357336 0.0744488
0.57882 0.357717 0.0850996
0.608118 0.358083 0.100832
0.636439 0.358938 0.118685
0.664454 0.360632 0.134813
0.692424 0.363058 0.148043
0.720577 0.366003 0.158129
0.749249 0.369284 0.164767
0.778485 0.372702 0.169207
0.80853 0.375967 0.172992
0.83856 0.379248 0.176791
0.868833 0.382483 0.180529
0.899397 0.385718 0.184222
0.0334783 0.324331 0.0847791
0.0484627 0.328923 0.0889906
0.0626535 0.333883 0.0936446
0.0785534 0.338552 0.0978256
0.0966506 0.343023 0.10164
0.11545 0.347387 0.105196
0.135317 0.351659 0.108446
0.15642 0.355825 0.111147
0.178988 0.359838 0.113024
0.203296 0.363668 0.113863
0.229419 0.367285 0.113497
0.257465 0.370687 0.111696
0.287266 0.373892 0.10869
0.318502 0.376974 0.104707
0.35079 0.380026 0.0998398
0.383764 0.383078 0.0943923
0.417441 0.386053 0.0888228
0.451987 0.388846 0.0833143
0.486778 0.391272 0.079469
0.521202 0.39321 0.0786145
0.554559 0.394598 0.0821851
0.586465 0.395636 0.0904707
0.616632 0.396551 0.104097
0.645563 0.397772 0.120836
0.673671 0.399558 0.138369
0.70161 0.402045 0.153323
0.729671 0.405005 0.165225
0.75819 0.408301 0.173541
0.787335 0.411719 0.179217
0.817533 0.415091 0.183124
0.847761 0.41854 0.187121
0.878309 0.422004 0.191043
0.909178 0.425467 0.194781
0.0348669 0.356512 0.0864271
0.049958 0.361654 0.090959
0.0641489 0.367178 0.0958419
0.080293 0.372366 0.100221
0.0994125 0.37734 0.104189
0.118715 0.382177 0.108003
0.139086 0.386847 0.111666
0.160662 0.391318 0.115129
0.183673 0.39556 0.118105
0.208347 0.399527 0.120348
0.234745 0.40322 0.121782
0.262959 0.406653 0.122026
0.292836 0.409903 0.120928
0.324071 0.413016 0.118624
0.356283 0.416083 0.115236
0.389166 0.419242 0.110536
0.422858 0.4224 0.104723
0.457527 0.425467 0.0980087
0.492683 0.428336 0.0918135
0.527871 0.430945 0.0871138
0.562097 0.43299 0.0869764
0.594842 0.434577 0.0921492
0.625711 0.435874 0.103487
0.654994 0.437278 0.119585
0.682918 0.439017 0.139422
0.710658 0.441474 0.15697
0.738567 0.444511 0.171374
0.76704 0.447959 0.181933
0.796246 0.451591 0.189212
0.826688 0.455192 0.193378
0.85716 0.458854 0.19762
0.887922 0.462516 0.201801
0.91902 0.466178 0.205631
0.0375219 0.390265 0.0898146
0.0527657 0.395941 0.0948653
0.0670481 0.401999 0.100252
0.0834058 0.407675 0.105013
0.103365 0.413077 0.109056
0.123125 0.418296 0.112764
0.143923 0.423301 0.116762
0.165911 0.428031 0.120775
0.189303 0.432456 0.12459
0.214298 0.436606 0.127779
0.240986 0.440421 0.130358
0.269398 0.443915 0.132021
0.299397 0.447196 0.132448
0.330663 0.450355 0.131518
0.36286 0.453468 0.129305
0.395697 0.456718 0.125017
0.429465 0.460044 0.118395
0.464317 0.463371 0.109697
0.499825 0.46659 0.100496
0.535576 0.469657 0.0918135
0.57055 0.472175 0.0877394
0.603937 0.474098 0.0899214
0.63534 0.475639 0.0993515
0.664942 0.477211 0.115099
0.692866 0.479088 0.137057
0.720424 0.481666 0.158267
0.748211 0.484886 0.176089
0.776562 0.488502 0.189548
0.805753 0.492317 0.198962
0.836286 0.496086 0.204074
0.866926 0.499931 0.208499
0.897856 0.503761 0.212833
0.929107 0.507561 0.216724
0.0414282 0.425513 0.0947585
0.0568399 0.431632 0.100206
0.0712749 0.438102 0.105928
0.0879683 0.44416 0.11104
0.108492 0.449912 0.115801
0.128588 0.455451 0.120485
0.149722 0.460716 0.125078
0.172045 0.465705 0.129534
0.195758 0.470375 0.133684
0.221057 0.474723 0.137102
0.24802 0.478737 0.138781
0.276677 0.482383 0.140505
0.306859 0.485771 0.141299
0.338262 0.488991 0.140703
0.370535 0.49218 0.138582
0.403403 0.495491 0.134157
0.437278 0.498894 0.126482
0.472251 0.502312 0.116121
0.507942 0.505653 0.104814
0.543984 0.508888 0.0938888
0.579461 0.511711 0.0872053
0.613367 0.513924 0.0877699
0.645258 0.51574 0.0961471
0.675242 0.517571 0.111711
0.703365 0.519677 0.134829
0.730785 0.522438 0.159564
0.758495 0.525826 0.180652
0.786786 0.529641 0.196994
0.8159 0.533608 0.208713
0.846418 0.53753 0.21532
0.877195 0.541497 0.219867
0.908232 0.545434 0.224308
0.939574 0.54934 0.228382
0.0462501 0.462119 0.100679
0.0619821 0.468559 0.106523
0.0767987 0.475334 0.112673
0.0939956 0.481636 0.118181
0.114458 0.487663 0.123339
0.134737 0.493462 0.128313
0.156054 0.499016 0.133059
0.178576 0.504311 0.137499
0.202518 0.509255 0.141497
0.228061 0.513878 0.144778
0.255283 0.518151 0.147036
0.28423 0.522026 0.148577
0.314656 0.525567 0.149111
0.346273 0.528923 0.148333
0.378714 0.532174 0.145953
0.411704 0.53547 0.141344
0.445731 0.538888 0.12958
0.480797 0.54229 0.118807
0.516533 0.545602 0.107698
0.552514 0.548745 0.0973678
0.588067 0.551568 0.0903792
0.62208 0.553872 0.0909743
0.654246 0.555917 0.0992599
0.684596 0.558053 0.114763
0.713146 0.56054 0.137789
0.740734 0.563622 0.164385
0.768566 0.567285 0.187213
0.796948 0.571298 0.205295
0.826108 0.575448 0.21857
0.856611 0.579461 0.226535
0.887465 0.583505 0.231205
0.918593 0.587488 0.235737
0.949966 0.591424 0.239994
0.0518654 0.49987 0.107439
0.0679179 0.506569 0.113664
0.0831769 0.513542 0.120195
0.100938 0.519982 0.126085
0.121172 0.526131 0.131731
0.141619 0.532036 0.13724
0.16257 0.538415 0.140078
0.185321 0.543801 0.14461
0.209476 0.548898 0.148348
0.235218 0.553689 0.15111
0.262654 0.558083 0.152834
0.291783 0.56199 0.154086
0.322393 0.56553 0.155001
0.354131 0.568811 0.155642
0.386603 0.571923 0.156115
0.41944 0.57499 0.156527
0.453101 0.578042 0.155291
0.487572 0.581048 0.152407
0.522545 0.583978 0.14847
0.557702 0.586862 0.143542
0.592493 0.589654 0.13344
0.626261 0.592325 0.133288
0.658732 0.595071 0.139757
0.68986 0.598016 0.151705
0.719631 0.601328 0.168902
0.748577 0.605066 0.188037
0.777386 0.609125 0.205142
0.806439 0.613367 0.219196
0.836057 0.617624 0.23003
0.866743 0.621698 0.237217
0.897581 0.625772 0.242298
0.928725 0.629755 0.246876
0.960067 0.633661 0.251286
0.0581979 0.538521 0.115038
0.0744945 0.545403 0.121523
0.0899519 0.552544 0.128237
0.108141 0.559182 0.134142
0.127825 0.565621 0.139498
0.148196 0.571847 0.144305
0.16965 0.577844 0.148516
0.19237 0.583505 0.152117
0.216632 0.5888 0.155123
0.242588 0.593713 0.157488
0.270283 0.59823 0.159167
0.299733 0.602304 0.160449
0.330617 0.605982 0.161669
0.36257 0.609354 0.16286
0.395193 0.612543 0.164263
0.428138 0.615641 0.165927
0.461784 0.618631 0.166903
0.496162 0.621561 0.166674
0.530983 0.624445 0.165438
0.565957 0.627329 0.163378
0.600671 0.630198 0.1617
0.634607 0.633112 0.162081
0.66743 0.636133 0.165713
0.699016 0.639399 0.172442
0.729259 0.642985 0.179568
0.758618 0.646952 0.19559
0.787579 0.651179 0.212436
0.816663 0.655543 0.227131
0.84625 0.659861 0.238972
0.876829 0.663951 0.247272
0.907576 0.668009 0.253193
0.938659 0.671931 0.25771
0.96994 0.675776 0.262119
0.0651102 0.577737 0.123384
0.0813611 0.584787 0.129976
0.0967269 0.59205 0.13666
0.11516 0.59881 0.142443
0.134798 0.605356 0.147509
0.155245 0.611719 0.151995
0.176867 0.617884 0.155947
0.199847 0.623743 0.159411
0.224445 0.629206 0.162478
0.250721 0.634211 0.165225
0.278737 0.638773 0.167605
0.308415 0.642878 0.169711
0.339483 0.646555 0.172045
0.371557 0.649943 0.174517
0.404242 0.653178 0.177111
0.437232 0.656352 0.179904
0.470893 0.659403 0.182406
0.505226 0.662379 0.183413
0.539986 0.665324 0.183032
0.574899 0.668269 0.181445
0.609583 0.671244 0.179553
0.643671 0.674281 0.178302
0.676768 0.677455 0.18024
0.70869 0.680858 0.185916
0.739315 0.684596 0.195789
0.768933 0.68867 0.208621
0.797909 0.693034 0.22327
0.826947 0.69749 0.235203
0.856443 0.701854 0.247807
0.886854 0.705928 0.257176
0.917433 0.709926 0.263905
0.948409 0.713741 0.268284
0.979553 0.717433 0.272541
0.0727398 0.617136 0.132555
0.0889601 0.624262 0.139193
0.10428 0.631632 0.145892
0.122957 0.638575 0.151675
0.142702 0.645365 0.15671
0.163302 0.652033 0.161028
0.185138 0.658396 0.164889
0.208392 0.664408 0.168383
0.233265 0.669978 0.171633
0.259846 0.675029 0.174762
0.288106 0.679606 0.177798
0.317983 0.683757 0.180468
0.349218 0.687495 0.183337
0.381415 0.690959 0.186465
0.414191 0.69427 0.189731
0.447242 0.697536 0.193194
0.480949 0.700618 0.196628
0.515267 0.703639 0.198474
0.549966 0.706615 0.198428
0.584787 0.70956 0.196582
0.61941 0.712505 0.19379
0.653498 0.715511 0.190707
0.686717 0.718639 0.190509
0.718822 0.722011 0.194522
0.749645 0.72578 0.203342
0.779431 0.7299 0.215763
0.808423 0.734371 0.231205
0.837354 0.738888 0.245548
0.866697 0.743267 0.257649
0.896895 0.747311 0.26688
0.927214 0.751217 0.274006
0.957961 0.754864 0.278599
0.988922 0.758358 0.282628
0.0812238 0.656733 0.142824
0.0975509 0.664118 0.149737
0.113024 0.671717 0.156603
0.132052 0.678859 0.162509
0.151949 0.685847 0.167636
0.172702 0.692653 0.171984
0.194736 0.699123 0.175921
0.218204 0.705211 0.179599
0.24329 0.710842 0.183047
0.270054 0.715969 0.186313
0.298482 0.720623 0.18938
0.328496 0.724849 0.191882
0.359838 0.728695 0.194232
0.392142 0.732235 0.196948
0.42501 0.735607 0.200031
0.458137 0.738888 0.203494
0.49192 0.742 0.207218
0.526238 0.744976 0.209842
0.560861 0.747875 0.210147
0.59556 0.750729 0.208362
0.629999 0.753536 0.205264
0.663905 0.756374 0.20148
0.697032 0.75935 0.199878
0.729137 0.762615 0.202869
0.760052 0.766308 0.210834
0.789929 0.770413 0.222751
0.818967 0.774899 0.238239
0.847791 0.779446 0.25359
0.876951 0.783795 0.266407
0.90692 0.787778 0.276341
0.93698 0.791592 0.283925
0.967468 0.795087 0.288823
0.99823 0.798398 0.292622
0.0910201 0.696864 0.154803
0.107576 0.704448 0.162005
0.123568 0.712154 0.169146
0.14287 0.719387 0.175372
0.162905 0.726421 0.180865
0.183825 0.733257 0.185657
0.205966 0.739788 0.189883
0.229465 0.745968 0.193606
0.254551 0.751675 0.196796
0.281315 0.756924 0.199481
0.309743 0.761669 0.201572
0.339773 0.765972 0.202853
0.371115 0.769879 0.203525
0.403449 0.773419 0.204807
0.436362 0.776761 0.206851
0.469581 0.77998 0.209751
0.503456 0.783001 0.213336
0.537789 0.785885 0.217136
0.572351 0.788663 0.218509
0.606867 0.791348 0.217762
0.641062 0.793988 0.215641
0.674662 0.796658 0.21268
0.707561 0.79942 0.210819
0.739498 0.802548 0.213596
0.770352 0.806134 0.221103
0.800244 0.810162 0.232471
0.829358 0.814588 0.247379
0.858137 0.81912 0.262989
0.887205 0.823392 0.27599
0.917006 0.827283 0.286183
0.946838 0.830961 0.293965
0.977081 0.834333 0.299123
1 0.83743 0.302678
0.102052 0.737377 0.168353
0.118868 0.745098 0.175799
0.135439 0.752865 0.183169
0.154894 0.760128 0.189715
0.175113 0.767163 0.195697
0.196292 0.773953 0.201114
0.218677 0.780423 0.206302
0.24242 0.786496 0.211292
0.266072 0.792828 0.20827
0.29305 0.797955 0.2112
0.321538 0.80264 0.212711
0.351507 0.806882 0.212726
0.382757 0.810681 0.211887
0.415045 0.814115 0.211872
0.447974 0.817319 0.213336
0.481254 0.820386 0.21648
0.515221 0.823301 0.221271
0.549645 0.826108 0.227359
0.584146 0.828824 0.231708
0.618479 0.831464 0.234165
0.652369 0.834073 0.235096
0.685557 0.836713 0.234791
0.718013 0.83946 0.234607
0.749584 0.842542 0.237583
0.780224 0.846036 0.243915
0.81004 0.849867 0.253208
0.839231 0.854032 0.265263
0.868147 0.858259 0.277882
0.897292 0.862257 0.288823
0.927047 0.865904 0.297627
0.956786 0.869352 0.304555
0.986816 0.872511 0.309346
1 0.875425 0.31284
0.114229 0.778088 0.183261
0.131258 0.785916 0.190936
0.148394 0.793683 0.198474
0.167865 0.800961 0.205234
0.188083 0.808011 0.211276
0.20914 0.814847 0.216434
0.231159 0.821408 0.220478
0.254429 0.827604 0.223239
0.279194 0.833341 0.224704
0.305638 0.838544 0.224964
0.333791 0.843168 0.224231
0.363577 0.847242 0.222782
0.394705 0.850828 0.221073
0.426902 0.854047 0.220325
0.459785 0.857069 0.22153
0.493095 0.859983 0.224872
0.527123 0.86276 0.230213
0.561593 0.865461 0.23711
0.596109 0.868101 0.243503
0.63035 0.870665 0.247898
0.664042 0.873198 0.250446
0.696956 0.875746 0.251347
0.729076 0.878386 0.251743
0.760372 0.881254 0.253666
0.790829 0.884504 0.258442
0.820569 0.88809 0.266087
0.849744 0.892012 0.276555
0.87866 0.895994 0.287984
0.907744 0.89984 0.298695
0.937331 0.903334 0.30753
0.966873 0.90663 0.314549
0.996674 0.909606 0.319493
1 0.912352 0.323095
0.127275 0.818845 0.199237
0.144259 0.82678 0.20705
0.161746 0.834501 0.214527
0.181186 0.841764 0.221164
0.201343 0.848798 0.226993
0.222278 0.855604 0.231693
0.244114 0.862089 0.234958
0.267185 0.868177 0.23682
0.291798 0.873732 0.237308
0.318105 0.878721 0.236683
0.346181 0.883101 0.235355
0.375937 0.886885 0.233875
0.407034 0.890211 0.232578
0.43917 0.893202 0.232181
0.472023 0.89604 0.234089
0.505348 0.898817 0.238224
0.539391 0.901473 0.24416
