public/filters/konnect/Presets A Lighter Skin Tone/Cool v1_23.2021-06-18 12-03-14.cube
TITLE "Generated by Resolve"
LUT_3D_SIZE 5
0.0349126 0.0431373 0.0784619
0.152682 0.0376287 0.0670481
0.35993 0.0133516 0.0288853
0.56907 0.0135348 0.0427863
0.774029 0.00823987 0.0354314
0.0332189 0.189776 0.0838331
0.164401 0.207691 0.0979934
0.391058 0.219593 0.0512093
0.627115 0.217395 0.103136
0.855039 0.236378 0.133608
0.0414282 0.425513 0.0947585
0.195758 0.470375 0.133684
0.437278 0.498894 0.126482
0.703365 0.519677 0.134829
0.939574 0.54934 0.228382
0.102052 0.737377 0.168353
0.266072 0.792828 0.20827
0.515221 0.823301 0.221271
0.780224 0.846036 0.243915
1 0.875425 0.31284
0.206195 1 0.293111
0.36701 1 0.323629
0.598306 1 0.278447
0.862455 1 0.353109
1 1 0.395422
0.0184787 0.0271305 0.300465
0.145495 0.0390326 0.300938
0.357992 0.00895705 0.300069
0.586145 0.00495918 0.279835
0.791455 0.00471504 0.271214
0.027039 0.189853 0.310735
0.165057 0.208133 0.330068
0.390707 0.221271 0.340642
0.667277 0.234012 0.34931
0.869169 0.246448 0.366171
0.0475166 0.433433 0.335592
0.204578 0.479423 0.380011
0.444404 0.507424 0.405676
0.733227 0.531914 0.408652
0.954696 0.561791 0.462516
0.0868544 0.752758 0.413931
0.279835 0.80441 0.467292
0.523903 0.834043 0.488807
0.78996 0.84799 0.491203
1 0.87454 0.525887
0.1178 1 0.523308
0.379919 1 0.580285
0.602518 1 0.567468
0.863111 1 0.582757
1 1 0.58526
0.0171969 0.0249943 0.512581
0.141711 0.0346685 0.512673
0.338186 0.0222782 0.50425
0.577905 0.00656138 0.496483
0.796826 0.00529488 0.495277
0.0261845 0.190433 0.528374
0.167559 0.211398 0.549096
0.386603 0.221561 0.559335
0.662654 0.238712 0.579278
0.883467 0.257237 0.59295
0.0424964 0.447425 0.565042
0.21416 0.49073 0.606607
0.453834 0.518288 0.634089
0.732464 0.542428 0.653437
0.97731 0.571527 0.683833
0.0482948 0.772702 0.646906
0.292546 0.818402 0.696117
0.538247 0.848615 0.725368
0.799023 0.864942 0.738018
1 0.864118 0.72755
0.0523537 1 0.741466
0.389242 1 0.803342
0.625986 1 0.818814
0.873518 1 0.820539
1 1 0.774884
0.0229343 0.0290684 0.681147
0.141421 0.033875 0.687343
0.338231 0.0249485 0.679438
0.570871 0.0122225 0.670909
0.787503 0.0128939 0.674205
0.032517 0.193637 0.703853
0.173739 0.218677 0.727138
0.396048 0.231556 0.740169
0.654948 0.246647 0.757931
0.89041 0.271305 0.78027
0.0585489 0.459541 0.746029
0.226444 0.506203 0.788098
0.468284 0.534707 0.816434
0.735546 0.560601 0.844251
0.985214 0.590997 0.875624
0.0835126 0.785885 0.831449
0.307347 0.835966 0.876478
0.554101 0.865324 0.906111
0.812146 0.885756 0.928191
1 0.886259 0.932784
0.0972305 1 0.931701
0.401511 1 0.976257
0.641352 1 0.995758
0.889708 1 1
1 1 0.992737
0.0233768 0.0294957 0.80911
0.144762 0.0373846 0.817609
0.344259 0.0297551 0.811627
0.57554 0.0204166 0.803677
0.790097 0.0251316 0.808454
0.0422217 0.201556 0.835889
0.183627 0.23032 0.862638
0.409979 0.246174 0.878828
0.666148 0.26273 0.895827
0.903105 0.289448 0.921233
0.0805524 0.475822 0.883665
0.241856 0.524834 0.927733
0.485969 0.554879 0.957671
0.751659 0.582071 0.98613
0.997269 0.614649 1
0.151522 0.803082 0.969635
0.325444 0.856321 1
0.571359 0.883864 1
0.827283 0.903426 1
1 0.9234 1
0.240558 1 1
0.415763 1 1
0.656596 1 1
0.907469 1 1
1 1 1
