public/filters/konnect/Presets A Lighter Skin Tone/Highlight v1.2_27.2021-06-18 12-03-14.cube
TITLE "Generated by Resolve"
LUT_3D_SIZE 33
0.0226139 0.0226139 0.0226139
0.0530556 0.0232395 0.02327
0.0837415 0.0243229 0.0243839
0.114321 0.025391 0.0254978
0.144839 0.0264591 0.0265965
0.175326 0.0275273 0.0276951
0.205783 0.0285954 0.0287938
0.236194 0.0296635 0.0298924
0.26659 0.0307317 0.0309911
0.296971 0.0317845 0.032105
0.327337 0.0328527 0.0332036
0.357671 0.0339208 0.034287
0.387991 0.0349889 0.0353857
0.418296 0.0360418 0.0364843
0.448585 0.0371099 0.037583
0.478874 0.0381628 0.0386816
0.509148 0.0392309 0.0397803
0.539406 0.0402838 0.0408637
0.569665 0.0413519 0.0419623
0.599908 0.0424048 0.043061
0.630137 0.043473 0.0441444
0.660365 0.0445258 0.045243
0.690578 0.045594 0.0463417
0.72079 0.0466468 0.047425
0.750988 0.047715 0.0485237
0.781186 0.0487678 0.0496071
0.811368 0.0498207 0.0507057
0.84155 0.0508888 0.0518044
0.872114 0.0518349 0.052781
0.902403 0.0528572 0.0538491
0.932677 0.0538949 0.054902
0.962951 0.0549172 0.0559548
0.99321 0.0559396 0.057023
0.0256199 0.0554818 0.0257267
0.0562295 0.0565042 0.026978
0.0867475 0.0575723 0.027924
0.117189 0.0586404 0.0289769
0.147601 0.0597238 0.0300145
0.177966 0.0607919 0.0310521
0.208316 0.0618753 0.032105
0.238636 0.0629435 0.0331426
0.268956 0.0640116 0.0341955
0.299245 0.065095 0.0352483
0.329519 0.0661631 0.0363012
0.359792 0.0672465 0.0373541
0.390036 0.0683146 0.038407
0.420294 0.0693828 0.0394598
0.450523 0.0704509 0.0405127
0.480751 0.0715343 0.0415656
0.510964 0.0726024 0.0426184
0.541161 0.0736706 0.0436866
0.571374 0.0747387 0.0447395
0.601556 0.0758068 0.0458076
0.631739 0.0768749 0.0468605
0.661921 0.0779431 0.0479286
0.692088 0.0790112 0.0489815
0.722255 0.0800793 0.0500496
0.752422 0.0811475 0.0511025
0.782574 0.0822156 0.0521706
0.812711 0.0832837 0.0532387
0.842863 0.0843519 0.0543069
0.873365 0.0853132 0.0552529
0.903609 0.0863355 0.0562905
0.933852 0.0873732 0.0573281
0.964096 0.0884108 0.0583658
0.994324 0.0894484 0.0594034
0.028748 0.0886549 0.0293584
0.0595865 0.0895857 0.0304417
0.090074 0.0906233 0.0315251
0.120485 0.0916762 0.0325933
0.150851 0.0927291 0.0336461
0.181186 0.0937972 0.0346838
0.211505 0.0948653 0.0357366
0.241794 0.0959335 0.0367742
0.272068 0.0970016 0.0378119
0.302327 0.0980697 0.0388495
0.33257 0.0991531 0.0398871
0.362814 0.100221 0.04094
0.393042 0.101289 0.0419776
0.423255 0.102358 0.0430152
0.453452 0.103426 0.0440528
0.48365 0.104509 0.0451057
0.513832 0.105577 0.0461433
0.544015 0.106645 0.0471962
0.574182 0.107713 0.0482338
0.604349 0.108782 0.0492866
0.634516 0.10985 0.0503243
0.664668 0.110918 0.0513771
0.694804 0.111986 0.05243
0.724956 0.113054 0.0534829
0.755077 0.114122 0.0545205
0.785214 0.11519 0.0555734
0.815335 0.116258 0.0566262
0.845457 0.117342 0.0576791
0.875944 0.118303 0.0586252
0.906157 0.119341 0.0596475
0.936385 0.120378 0.0606699
0.966598 0.121416 0.0616922
0.996796 0.122438 0.0627146
0.0319982 0.121691 0.032929
0.0629282 0.12256 0.0340124
0.0934157 0.123583 0.035111
0.123812 0.12462 0.0361791
0.154162 0.125673 0.0372473
0.184482 0.126726 0.0383001
0.214771 0.127779 0.0393378
0.245045 0.128847 0.0403906
0.275303 0.129915 0.0414282
0.305531 0.130968 0.0424659
0.33576 0.132036 0.0435035
0.365972 0.133104 0.0445411
0.396185 0.134173 0.0455787
0.426383 0.135241 0.0466163
0.45655 0.136309 0.0476692
0.486732 0.137377 0.0487068
0.516899 0.138445 0.0497444
0.547066 0.139528 0.050782
0.577218 0.140597 0.0518196
0.60737 0.141665 0.0528572
0.637507 0.142733 0.0538949
0.667643 0.143801 0.0549325
0.697765 0.144869 0.0559854
0.727886 0.145937 0.057023
0.758007 0.147005 0.0580606
0.788113 0.148074 0.0590982
0.818219 0.149142 0.0601511
0.848325 0.15021 0.0611887
0.878782 0.151171 0.0621347
0.908995 0.152209 0.0631571
0.939193 0.153246 0.0641642
0.96939 0.154284 0.0651713
0.999588 0.155322 0.0661936
0.0352636 0.15465 0.0364996
0.0662547 0.155489 0.0375677
0.0967575 0.156497 0.0386816
0.127138 0.157519 0.0397498
0.157488 0.158556 0.0408331
0.187793 0.159609 0.041886
0.218067 0.160647 0.0429389
0.248325 0.161715 0.0439918
0.278569 0.162768 0.0450446
0.308797 0.163836 0.0460822
0.33901 0.164889 0.0471199
0.369207 0.165957 0.0481575
0.39939 0.167025 0.0491951
0.429572 0.168078 0.0502327
0.459739 0.169146 0.0512703
0.489906 0.170214 0.0523079
0.520058 0.171283 0.0533455
0.550195 0.172351 0.0543832
0.580346 0.173419 0.0554208
0.610468 0.174487 0.0564584
0.640604 0.175555 0.057496
0.67071 0.176623 0.0585336
0.700832 0.177691 0.0595712
0.730938 0.178759 0.0606088
0.761044 0.179828 0.0616464
0.79115 0.180896 0.0626841
0.821241 0.181949 0.0637217
0.851331 0.183017 0.0647593
0.881773 0.183993 0.0656901
0.911955 0.185031 0.0667124
0.942153 0.186069 0.0677195
0.972335 0.187106 0.0687266
1 0.188144 0.0697337
0.0385138 0.187564 0.0400549
0.0695964 0.188388 0.0411231
0.100084 0.189364 0.0422217
0.13048 0.190387 0.0433204
0.160815 0.191409 0.0444038
0.191104 0.192447 0.0454719
0.221378 0.1935 0.0465248
0.251621 0.194537 0.0475776
0.281849 0.19559 0.0486305
0.312062 0.196643 0.0496834
0.342275 0.197711 0.050721
0.372457 0.198764 0.0517586
0.40264 0.199832 0.0527962
0.432807 0.200885 0.0538491
0.462959 0.201953 0.0548867
0.493111 0.203006 0.0559091
0.523262 0.204074 0.0569619
0.553384 0.205142 0.0579843
0.58352 0.20621 0.0590219
0.613642 0.207263 0.0600595
0.643748 0.208331 0.0610971
0.673854 0.2094 0.0621347
0.70396 0.210468 0.0631723
0.734066 0.211536 0.0641947
0.764157 0.212604 0.0652323
0.794247 0.213657 0.0662699
0.824323 0.214725 0.0673075
0.854398 0.215793 0.0683452
0.88484 0.21677 0.0692912
0.915007 0.217792 0.0702831
0.94519 0.21883 0.0712902
0.975372 0.219867 0.0722972
1 0.220905 0.0733043
0.0417639 0.220447 0.0436103
0.0729076 0.221241 0.0446784
0.10341 0.222217 0.0457771
0.133806 0.223209 0.0468757
0.164126 0.224231 0.0479591
0.19443 0.225269 0.0490425
0.224689 0.226307 0.0500954
0.254932 0.227344 0.0511635
0.285161 0.228397 0.0522164
0.315373 0.229435 0.0532692
0.345556 0.230488 0.0543221
0.375738 0.23154 0.0553597
0.405905 0.232609 0.0563973
0.436057 0.233661 0.0574502
0.466209 0.234714 0.0584878
0.496345 0.235782 0.0595254
0.526482 0.236835 0.0605631
0.556603 0.237903 0.0616007
0.586725 0.238972 0.0626383
0.616846 0.240024 0.0636606
0.646952 0.241093 0.0646982
0.677043 0.242161 0.0657359
0.707134 0.243214 0.0667735
0.737224 0.244282 0.0677958
0.767315 0.24535 0.0688334
0.797391 0.246403 0.0698711
0.827466 0.247471 0.0709087
0.857527 0.248539 0.0719463
0.887953 0.2495 0.0728771
0.91812 0.250538 0.0738842
0.948287 0.251575 0.0748913
0.978454 0.252613 0.0758831
1 0.253651 0.0768902
0.0450141 0.2533 0.0471656
0.0762188 0.254063 0.0482185
0.106722 0.255024 0.0493324
0.137118 0.256016 0.0504311
0.167452 0.257023 0.0515145
0.197757 0.258045 0.0525978
0.228016 0.259083 0.053666
0.258244 0.260121 0.0547341
0.288472 0.261158 0.055787
0.318669 0.262211 0.0568399
0.348852 0.263249 0.0578927
0.379019 0.264302 0.0589456
0.409186 0.265354 0.0599985
0.439338 0.266407 0.0610361
0.469474 0.26746 0.0620737
0.499611 0.268528 0.0631113
0.529732 0.269581 0.0641642
0.559853 0.270634 0.0651865
0.58996 0.271702 0.0662242
0.620066 0.272755 0.0672618
0.650172 0.273823 0.0682994
0.680247 0.274876 0.069337
0.710338 0.275944 0.0703746
0.740429 0.277012 0.071397
0.770504 0.278065 0.0724346
0.800565 0.279133 0.0734722
0.830625 0.280186 0.0745098
0.8607 0.281254 0.0755322
0.891096 0.282231 0.0764782
0.921263 0.283253 0.0774701
0.951431 0.284291 0.0784772
0.981582 0.285328 0.0794842
1 0.286351 0.0804913
0.048249 0.286122 0.050721
0.07953 0.28687 0.0517586
0.110048 0.287816 0.0528725
0.140444 0.288808 0.0539712
0.170779 0.289799 0.0550698
0.201068 0.290822 0.0561532
0.231327 0.291844 0.0572213
0.261555 0.292882 0.0582895
0.291768 0.293919 0.0593576
0.321965 0.294957 0.0604105
0.352148 0.295995 0.0614786
0.382315 0.297047 0.0625315
0.412467 0.298085 0.0635691
0.442618 0.299138 0.064622
0.472755 0.300191 0.0656596
0.502876 0.301244 0.0667124
0.532998 0.302296 0.0677501
0.563104 0.303365 0.0687877
0.59321 0.304417 0.0698253
0.623316 0.30547 0.0708629
0.653391 0.306538 0.0719005
0.683482 0.307591 0.0729381
0.713558 0.308644 0.0739605
0.743633 0.309712 0.0749981
0.773709 0.310765 0.0760357
0.803769 0.311833 0.0770733
0.833829 0.312886 0.0780957
0.86389 0.313954 0.0791333
0.894286 0.314931 0.0800793
0.924437 0.315953 0.0810712
0.954589 0.316991 0.0820783
0.984741 0.318013 0.0830854
1 0.319051 0.0840772
0.0514992 0.318929 0.0542763
0.082826 0.319646 0.0552987
0.113359 0.320577 0.0564126
0.143771 0.321569 0.0575113
0.174105 0.32256 0.0586099
0.204395 0.323568 0.0596933
0.234653 0.32459 0.0607767
0.264881 0.325612 0.0618448
0.295079 0.32665 0.0629129
0.325277 0.327688 0.0639811
0.355459 0.328725 0.0650339
0.385611 0.329763 0.0661021
0.415763 0.330816 0.067155
0.445899 0.331853 0.0681926
0.476036 0.332906 0.0692454
0.506157 0.333959 0.0702983
0.536263 0.335012 0.0713359
0.566369 0.336065 0.0723735
0.596475 0.337118 0.0734112
0.626566 0.33817 0.0744488
0.656657 0.339223 0.0754864
0.686732 0.340276 0.076524
0.716808 0.341344 0.0775616
0.746868 0.342397 0.0785992
0.776928 0.34345 0.0796368
0.806989 0.344518 0.0806592
0.837049 0.345571 0.0816968
0.867094 0.346639 0.0827344
0.897475 0.347601 0.0836652
0.927626 0.348623 0.0846723
0.957778 0.34966 0.0856641
0.98793 0.350698 0.0866712
1 0.35172 0.0876783
0.0547341 0.351705 0.0578164
0.0861219 0.352407 0.0588388
0.11667 0.353338 0.0599527
0.147082 0.354299 0.0610513
0.177417 0.355291 0.06215
0.207706 0.356298 0.0632486
0.237964 0.357321 0.064332
0.268193 0.358328 0.0654002
0.298405 0.359365 0.0664683
0.328588 0.360403 0.0675364
0.358755 0.361425 0.0686046
0.388922 0.362463 0.0696574
0.419059 0.363516 0.0707103
0.449195 0.364553 0.0717632
0.479332 0.365606 0.0728161
0.509438 0.366644 0.0738537
0.539544 0.367697 0.0749065
0.56965 0.36875 0.0759442
0.599741 0.369802 0.076997
0.629831 0.370855 0.0780346
0.659907 0.371908 0.0790723
0.689982 0.372961 0.0801099
0.720043 0.374014 0.0811475
0.750118 0.375067 0.0821851
0.780179 0.37612 0.0832227
0.810224 0.377188 0.0842451
0.840269 0.378241 0.0852827
0.870314 0.379294 0.0863203
0.900694 0.38027 0.0872663
0.930846 0.381292 0.0882582
0.960983 0.38233 0.0892653
0.991119 0.383352 0.0902571
1 0.384375 0.0912642
0.0579843 0.384466 0.0613718
0.0894026 0.385138 0.0623636
0.119966 0.386069 0.0634928
0.150393 0.38703 0.0645914
0.180728 0.388022 0.0656901
0.211017 0.389013 0.0667735
0.241276 0.390021 0.0678721
0.271504 0.391043 0.0689403
0.301717 0.392065 0.0700236
0.331899 0.393088 0.0710918
0.362066 0.394125 0.0721599
0.392218 0.395163 0.0732128
0.42237 0.396201 0.0742809
0.452491 0.397238 0.0753338
0.482612 0.398276 0.0763867
0.512734 0.399329 0.0774395
0.54284 0.400366 0.0784772
0.572931 0.401419 0.07953
0.603021 0.402472 0.0805676
0.633097 0.403525 0.0816052
0.663172 0.404578 0.0826581
0.693248 0.405631 0.0836957
0.723308 0.406668 0.0847334
0.753368 0.407721 0.085771
0.783429 0.408789 0.0868086
0.813474 0.409842 0.0878309
0.843519 0.410895 0.0888685
0.873549 0.411948 0.0899062
0.903929 0.412924 0.0908522
0.934066 0.413947 0.0918593
0.964202 0.414969 0.0928511
0.994339 0.415991 0.0938582
1 0.417029 0.0948653
0.0612192 0.417212 0.0649119
0.0926986 0.417868 0.0659037
0.123278 0.418784 0.0670176
0.153704 0.419745 0.0681315
0.184039 0.420722 0.0692302
0.214343 0.421714 0.0703136
0.244587 0.422721 0.0714122
0.274815 0.423728 0.0724956
0.305028 0.42475 0.0735637
0.33521 0.425772 0.0746319
0.365377 0.42681 0.0757153
0.395529 0.427832 0.0767681
0.425666 0.42887 0.0778363
0.455802 0.429908 0.0788891
0.485924 0.430945 0.079942
0.51603 0.431983 0.0809949
0.54612 0.433036 0.0820478
0.576211 0.434073 0.0831006
0.606302 0.435126 0.0841382
0.636378 0.436179 0.0851911
0.666453 0.437217 0.0862287
0.696513 0.43827 0.0872663
0.726574 0.439323 0.088304
0.756634 0.440375 0.0893568
0.786679 0.441428 0.0903944
0.816724 0.442481 0.0914168
0.846754 0.443534 0.0924544
0.876799 0.444587 0.093492
0.907164 0.445548 0.0944381
0.937301 0.446571 0.0954452
0.967437 0.447608 0.096437
0.997559 0.448631 0.0974441
1 0.449653 0.0984512
0.0644541 0.449943 0.068452
0.0959945 0.450584 0.0694438
0.126574 0.451484 0.0705425
0.157 0.452445 0.0716564
0.18735 0.453407 0.072755
0.217655 0.454398 0.0738537
0.247898 0.455406 0.0749371
0.278126 0.456413 0.0760357
0.308339 0.457435 0.0771038
0.338521 0.458442 0.0781872
0.368688 0.45948 0.0792554
0.39884 0.460502 0.0803235
0.428977 0.461524 0.0813916
0.459098 0.462562 0.0824445
0.489219 0.4636 0.0834974
0.519326 0.464637 0.0845655
0.549416 0.46569 0.0856031
0.579507 0.466728 0.086656
0.609583 0.467765 0.0877089
0.639658 0.468818 0.0887465
0.669734 0.469856 0.0897993
0.699794 0.470909 0.090837
0.729854 0.471962 0.0918898
0.759899 0.473014 0.0929274
0.789944 0.474052 0.0939651
0.819974 0.475105 0.0950027
0.850019 0.476158 0.0960403
0.880049 0.477211 0.0970779
0.910414 0.478172 0.098024
0.940551 0.47921 0.0990311
0.970672 0.480232 0.100023
1 0.481254 0.10103
1 0.482277 0.102037
0.067689 0.482673 0.0719921
0.0992752 0.483284 0.0729686
0.12987 0.484184 0.0740826
0.160311 0.48513 0.0751812
0.190661 0.486091 0.0762951
0.220966 0.487083 0.0773938
0.251209 0.488075 0.0784772
0.281437 0.489082 0.0795605
0.31165 0.490089 0.0806439
0.341833 0.491112 0.0817273
0.372 0.492134 0.0827955
0.402136 0.493156 0.0838636
0.432273 0.494179 0.0849317
0.462409 0.495216 0.0859998
0.492515 0.496254 0.0870527
0.522622 0.497276 0.0881056
0.552712 0.498329 0.0891737
0.582803 0.499367 0.0902266
0.612879 0.500404 0.0912642
0.642954 0.501442 0.0923171
0.673014 0.502495 0.09337
0.703075 0.503532 0.0944076
0.73312 0.504585 0.0954452
0.763165 0.505638 0.0964981
0.79321 0.506676 0.0975357
0.823255 0.507729 0.0985733
0.853284 0.508782 0.0996109
0.883314 0.509834 0.100649
0.913664 0.510796 0.101595
0.943786 0.511818 0.102602
0.973922 0.51284 0.103609
1 0.513863 0.104616
1 0.514885 0.105623
0.0709239 0.515373 0.0755322
0.102556 0.515969 0.0765087
0.133165 0.516854 0.0776074
0.163607 0.5178 0.0787213
0.193973 0.518761 0.0798199
0.224262 0.519738 0.0809186
0.25452 0.520729 0.0820172
0.284749 0.521737 0.0831006
0.314961 0.522744 0.084184
0.345129 0.523751 0.0852674
0.375296 0.524773 0.0863355
0.405447 0.525795 0.0874037
0.435584 0.526818 0.0884718
0.465705 0.527855 0.0895399
0.495811 0.528878 0.0906081
0.525917 0.529915 0.0916609
0.556008 0.530953 0.0927291
0.586099 0.531991 0.0937819
0.616175 0.533028 0.0948348
0.646235 0.534066 0.0958877
0.676295 0.535119 0.0969253
0.706355 0.536156 0.0979782
0.7364 0.537209 0.0990158
0.766445 0.538247 0.100069
0.79649 0.5393 0.101106
0.82652 0.540337 0.102144
0.85655 0.54139 0.103182
0.886564 0.542443 0.104219
0.916915 0.543404 0.10518
0.947051 0.544427 0.106188
0.977172 0.545434 0.107179
1 0.546456 0.108186
1 0.547478 0.109194
0.0741588 0.548058 0.0790723
0.105837 0.548638 0.0800336
0.136461 0.549523 0.0811322
0.166903 0.550454 0.0822461
0.197269 0.551415 0.0833448
0.227573 0.552392 0.0844434
0.257832 0.553384 0.0855421
0.28806 0.554376 0.0866255
0.318257 0.555383 0.0877241
0.34844 0.55639 0.0887922
0.378607 0.557412 0.0898756
0.408759 0.558434 0.0909438
0.438895 0.559457 0.0920272
0.469001 0.560479 0.0930953
0.499123 0.561502 0.0941482
0.529213 0.562539 0.0952163
0.559304 0.563577 0.0962692
0.589395 0.564599 0.0973373
0.619471 0.565637 0.0983902
0.649531 0.566674 0.0994278
0.679591 0.567727 0.100496
0.709636 0.568765 0.101534
0.739681 0.569802 0.102586
0.769726 0.570855 0.103624
0.799771 0.571893 0.104677
0.829801 0.572946 0.105714
0.859815 0.573983 0.106752
0.889845 0.575036 0.107805
0.92018 0.575998 0.108751
0.950317 0.57702 0.109758
0.980423 0.578027 0.110765
1 0.579049 0.111772
1 0.580072 0.112779
0.0773938 0.580743 0.0825971
0.109102 0.581308 0.0835584
0.139742 0.582177 0.0846571
0.170199 0.583108 0.085771
0.200565 0.58407 0.0868696
0.230869 0.585031 0.0879683
0.261143 0.586023 0.0890669
0.291371 0.587015 0.0901656
0.321569 0.588006 0.091249
0.351751 0.589029 0.0923323
0.381918 0.590036 0.0934157
0.412055 0.591058 0.0944839
0.442191 0.592065 0.0955673
0.472313 0.593088 0.0966354
0.502419 0.594125 0.0977035
0.532525 0.595148 0.0987564
0.5626 0.596185 0.0998245
0.592691 0.597208 0.100877
0.622766 0.598245 0.10193
0.652827 0.599283 0.102983
0.682872 0.60032 0.104036
0.712932 0.601358 0.105089
0.742977 0.602411 0.106142
0.773007 0.603449 0.107179
0.803052 0.604486 0.108232
0.833066 0.605539 0.10927
0.863096 0.606577 0.110323
0.893111 0.60763 0.11136
0.923461 0.608576 0.112306
0.953582 0.609598 0.113329
0.983688 0.61062 0.114321
1 0.611643 0.115343
1 0.61265 0.11635
0.0806134 0.613413 0.0861372
0.112383 0.613962 0.0870832
0.143038 0.614832 0.0881819
0.173495 0.615747 0.0892958
0.203876 0.616709 0.0904097
0.23418 0.61767 0.0914931
0.264439 0.618647 0.092607
0.294667 0.619638 0.0936904
0.32488 0.620645 0.094789
0.355062 0.621637 0.0958724
0.385214 0.622644 0.0969406
0.415366 0.623667 0.098024
0.445502 0.624674 0.0990921
0.475608 0.625711 0.100175
0.505714 0.626734 0.101244
0.535821 0.627756 0.102296
0.565896 0.628779 0.103365
0.595987 0.629816 0.104433
0.626062 0.630854 0.105486
0.656107 0.631876 0.106538
0.686168 0.632914 0.107591
0.716213 0.633951 0.108644
0.746258 0.634989 0.109697
0.776303 0.636027 0.110735
0.806317 0.637079 0.111788
0.836347 0.638117 0.11284
0.866377 0.63917 0.113878
0.896391 0.640208 0.114931
0.926726 0.641154 0.115877
0.956847 0.642176 0.116884
0.986954 0.643198 0.117891
1 0.644205 0.118914
1 0.645228 0.119905
0.0838483 0.646067 0.0896773
0.115648 0.646601 0.0906081
0.146319 0.647471 0.0917067
0.176791 0.648386 0.0928206
0.207156 0.649332 0.0939193
0.237476 0.650294 0.0950332
0.26775 0.65127 0.0961318
0.297978 0.652262 0.0972152
0.328176 0.653254 0.0983139
0.358358 0.654246 0.0993973
0.388525 0.655253 0.100481
0.418677 0.656275 0.101564
0.448798 0.657282 0.102632
0.47892 0.658305 0.1037
0.509026 0.659327 0.104768
0.539117 0.660349 0.105837
0.569207 0.661372 0.106905
0.599283 0.662409 0.107973
0.629343 0.663432 0.109026
0.659403 0.664469 0.110079
0.689464 0.665507 0.111131
0.719509 0.666529 0.1122
0.749554 0.667567 0.113252
0.779583 0.66862 0.11429
0.809613 0.669657 0.115343
0.839628 0.670695 0.116396
0.869657 0.671733 0.117433
0.899672 0.672786 0.118486
0.930007 0.673732 0.119432
0.960113 0.674739 0.120439
0.990234 0.675761 0.121462
1 0.676783 0.122469
1 0.677791 0.123476
0.0870832 0.678721 0.0932021
0.118914 0.67924 0.0941329
0.149599 0.680095 0.0952316
0.180087 0.68101 0.0963455
0.210452 0.681941 0.0974441
0.240772 0.682902 0.098558
0.271046 0.683879 0.0996567
0.301274 0.684871 0.10074
0.331487 0.685847 0.101839
0.361669 0.686854 0.102922
0.391836 0.687861 0.104005
0.421973 0.688869 0.105089
0.45211 0.689876 0.106157
0.482216 0.690898 0.10724
0.512322 0.691905 0.108309
0.542428 0.692943 0.109377
0.572503 0.693965 0.110445
0.602579 0.694987 0.111513
0.632639 0.69601 0.112566
0.662699 0.697047 0.113634
0.69276 0.698085 0.114687
0.722805 0.699107 0.11574
0.752834 0.700145 0.116793
0.782864 0.701183 0.117845
0.812894 0.70222 0.118898
0.842924 0.703258 0.119936
0.872938 0.704295 0.120989
0.902953 0.705348 0.122042
0.933272 0.706294 0.122988
0.963394 0.707317 0.12401
0.9935 0.708324 0.125017
1 0.709331 0.126024
1 0.710353 0.127047
0.0903029 0.711345 0.0967422
0.122194 0.711864 0.0976577
0.15288 0.712718 0.0987564
0.183368 0.713619 0.099855
0.213748 0.714565 0.100969
0.244068 0.715511 0.102068
0.274342 0.716487 0.103182
0.304585 0.717464 0.104265
0.334783 0.718456 0.105364
0.364965 0.719448 0.106447
0.395132 0.720455 0.10753
0.425284 0.721462 0.108614
0.455406 0.722469 0.109697
0.485527 0.723476 0.11078
0.515633 0.724498 0.111849
0.545724 0.725521 0.112917
0.575799 0.726543 0.113985
0.605875 0.727565 0.115053
0.63595 0.728588 0.116106
0.665995 0.729625 0.117174
0.696056 0.730648 0.118227
0.726085 0.731685 0.11928
0.75613 0.732708 0.120348
0.78616 0.733745 0.121401
0.81619 0.734783 0.122438
0.846204 0.735821 0.123491
0.876219 0.736858 0.124544
0.906233 0.737896 0.125597
0.936553 0.738857 0.126543
0.966674 0.739864 0.127565
0.99678 0.740871 0.128573
1 0.741894 0.129595
1 0.742901 0.130602
0.0935378 0.743984 0.100267
0.125444 0.744472 0.101183
0.156161 0.745327 0.102281
0.186648 0.746227 0.10338
0.217044 0.747158 0.104494
0.247364 0.748119 0.105592
0.277638 0.749081 0.106691
0.307881 0.750057 0.10779
0.338094 0.751049 0.108888
0.368277 0.752041 0.109972
0.398428 0.753033 0.11107
0.42858 0.75404 0.112139
0.458701 0.755047 0.113222
0.488823 0.756054 0.114305
0.518929 0.757061 0.115373
0.54902 0.758083 0.116442
0.57911 0.759106 0.117525
0.609171 0.760128 0.118578
0.639246 0.761151 0.119646
0.669291 0.762188 0.120714
0.699351 0.76321 0.121767
0.729381 0.764248 0.122835
0.759426 0.76527 0.123888
0.789456 0.766308 0.124941
0.819471 0.767346 0.125994
0.849485 0.768383 0.127047
0.879499 0.769421 0.128099
0.909514 0.770459 0.129137
0.939849 0.771405 0.130098
0.969955 0.772412 0.131121
1 0.773419 0.132128
1 0.774441 0.13315
1 0.775448 0.134157
0.0967575 0.776608 0.103807
0.12871 0.777081 0.104707
0.159442 0.77792 0.105791
0.189944 0.77882 0.106905
0.22034 0.779751 0.108019
0.25066 0.780697 0.109117
0.280934 0.781659 0.110216
0.311177 0.782635 0.111315
0.34139 0.783627 0.112413
0.371572 0.784619 0.113497
0.40174 0.785611 0.11458
0.431876 0.786603 0.115663
0.462013 0.78761 0.116747
0.492134 0.788632 0.11783
0.52224 0.789639 0.118914
0.552331 0.790661 0.119982
0.582406 0.791669 0.12105
0.612482 0.792691 0.122118
0.642542 0.793713 0.123186
0.672587 0.794736 0.124239
0.702632 0.795773 0.125307
0.732677 0.796796 0.126375
0.762722 0.797833 0.127428
0.792737 0.798856 0.128481
0.822766 0.799893 0.129534
0.852781 0.800931 0.130587
0.882795 0.801968 0.13164
0.912795 0.802991 0.132692
0.94313 0.803952 0.133654
0.973236 0.804959 0.134676
1 0.805966 0.135683
1 0.806973 0.13669
1 0.80798 0.137713
0.0999771 0.809216 0.107332
0.131975 0.809689 0.108232
0.162707 0.810513 0.109316
0.193225 0.811414 0.110414
0.223621 0.812345 0.111528
0.253956 0.813291 0.112627
0.28423 0.814252 0.113725
0.314473 0.815213 0.114839
0.344686 0.81619 0.115923
0.374868 0.817182 0.117021
0.405035 0.818173 0.118105
0.435187 0.819181 0.119203
0.465309 0.820172 0.120272
0.49543 0.821195 0.121355
0.525536 0.822202 0.122438
0.555627 0.823209 0.123507
0.585702 0.824231 0.124575
0.615778 0.825254 0.125658
0.645838 0.826276 0.126711
0.675883 0.827298 0.127779
0.705943 0.828321 0.128847
0.735973 0.829343 0.1299
0.766003 0.830381 0.130968
0.796033 0.831403 0.132021
0.826062 0.832441 0.133074
0.856062 0.833463 0.134127
0.886076 0.834501 0.13518
0.916075 0.835538 0.136233
0.94641 0.836484 0.137194
0.976516 0.837491 0.138216
1 0.838499 0.139239
1 0.839506 0.140246
1 0.840513 0.141268
0.103212 0.841825 0.110857
0.135241 0.842283 0.111742
0.165988 0.843107 0.11284
0.196506 0.843992 0.113939
0.226917 0.844923 0.115053
0.257237 0.845869 0.116152
0.287526 0.846815 0.11725
0.317769 0.847791 0.118349
0.347982 0.848768 0.119448
0.378164 0.849744 0.120546
0.408331 0.850736 0.12163
0.438483 0.851743 0.122713
0.46862 0.852735 0.123796
0.498726 0.853742 0.12488
0.528832 0.854749 0.125963
0.558923 0.855772 0.127031
0.588998 0.856779 0.128099
0.619074 0.857801 0.129183
0.649134 0.858824 0.130251
0.679194 0.859831 0.131319
0.709224 0.860853 0.132372
0.739269 0.861891 0.13344
0.769299 0.862913 0.134508
0.799329 0.863935 0.135561
0.829343 0.864973 0.136614
0.859358 0.866011 0.137682
0.889357 0.867033 0.13872
0.919371 0.86807 0.139773
0.949691 0.869017 0.140749
0.979797 0.870024 0.141772
1 0.871031 0.142779
1 0.872038 0.143801
1 0.873045 0.144808
0.106432 0.874434 0.114382
0.138506 0.874876 0.115267
0.169253 0.875685 0.11635
0.199786 0.87657 0.117464
0.230198 0.877485 0.118563
0.260533 0.878431 0.119677
0.290822 0.879393 0.120775
0.321065 0.880354 0.121874
0.351278 0.881331 0.122972
0.38146 0.882307 0.124056
0.411627 0.883299 0.125154
0.441779 0.884291 0.126238
0.471916 0.885298 0.127321
0.502022 0.88629 0.128405
0.532128 0.887297 0.129488
0.562219 0.888304 0.130556
0.592294 0.889326 0.13164
0.62237 0.890333 0.132708
0.65243 0.891356 0.133776
0.682475 0.892378 0.134844
0.71252 0.8934 0.135912
0.742565 0.894423 0.13698
0.772595 0.895445 0.138033
