public/filters/konnect/Presets A Lighter Skin Tone/Highlight v1.2_27.2021-06-18 12-03-14.cube
TITLE "Generated by Resolve"
LUT_3D_SIZE 9
0.0226139 0.0226139 0.0226139
0.144839 0.0264591 0.0265965
0.26659 0.0307317 0.0309911
0.387991 0.0349889 0.0353857
0.509148 0.0392309 0.0397803
0.630137 0.043473 0.0441444
0.750988 0.047715 0.0485237
0.872114 0.0518349 0.052781
0.99321 0.0559396 0.057023
0.0352636 0.15465 0.0364996
0.157488 0.158556 0.0408331
0.278569 0.162768 0.0450446
0.39939 0.167025 0.0491951
0.520058 0.171283 0.0533455
0.640604 0.175555 0.057496
0.761044 0.179828 0.0616464
0.881773 0.183993 0.0656901
1 0.188144 0.0697337
0.048249 0.286122 0.050721
0.170779 0.289799 0.0550698
0.291768 0.293919 0.0593576
0.412467 0.298085 0.0635691
0.532998 0.302296 0.0677501
0.653391 0.306538 0.0719005
0.773709 0.310765 0.0760357
0.894286 0.314931 0.0800793
1 0.319051 0.0840772
0.0612192 0.417212 0.0649119
0.184039 0.420722 0.0692302
0.305028 0.42475 0.0735637
0.425666 0.42887 0.0778363
0.54612 0.433036 0.0820478
0.666453 0.437217 0.0862287
0.786679 0.441428 0.0903944
0.907164 0.445548 0.0944381
1 0.449653 0.0984512
0.0741588 0.548058 0.0790723
0.197269 0.551415 0.0833448
0.318257 0.555383 0.0877241
0.438895 0.559457 0.0920272
0.559304 0.563577 0.0962692
0.679591 0.567727 0.100496
0.799771 0.571893 0.104677
0.92018 0.575998 0.108751
1 0.580072 0.112779
0.0870832 0.678721 0.0932021
0.210452 0.681941 0.0974441
0.331487 0.685847 0.101839
0.45211 0.689876 0.106157
0.572503 0.693965 0.110445
0.69276 0.698085 0.114687
0.812894 0.70222 0.118898
0.933272 0.706294 0.122988
1 0.710353 0.127047
0.0999771 0.809216 0.107332
0.223621 0.812345 0.111528
0.344686 0.81619 0.115923
0.465309 0.820172 0.120272
0.585702 0.824231 0.124575
0.705943 0.828321 0.128847
0.826062 0.832441 0.133074
0.94641 0.836484 0.137194
1 0.840513 0.141268
0.11252 0.939742 0.12108
0.236423 0.942748 0.125261
0.357534 0.946563 0.129671
0.478172 0.9505 0.134035
0.598566 0.954528 0.138369
0.718791 0.958587 0.142641
0.838895 0.962676 0.146899
0.959228 0.966705 0.151049
1 0.970718 0.155123
0.124987 1 0.134768
0.249134 1 0.138903
0.370291 1 0.143328
0.490944 1 0.147692
0.611337 1 0.152041
0.731563 1 0.156344
0.852155 1 0.161105
0.97261 1 0.165408
1 1 0.16965
0.0238804 0.0240024 0.148486
0.146517 0.0281376 0.152987
0.268147 0.0323644 0.157702
0.389471 0.0365759 0.162402
0.510567 0.0408026 0.167056
0.631495 0.0450141 0.171695
0.7523 0.0492256 0.176287
0.873381 0.0533303 0.180774
0.994446 0.0574197 0.185229
0.0369879 0.156252 0.162493
0.15903 0.16022 0.166567
0.280079 0.164431 0.170871
0.40087 0.168658 0.175219
0.521492 0.1729 0.179568
0.641993 0.177142 0.183932
0.762417 0.181399 0.188296
0.883101 0.18555 0.192569
1 0.18967 0.196811
0.049897 0.287678 0.176974
0.17232 0.291417 0.180911
0.293278 0.295537 0.185153
0.413947 0.299702 0.189425
0.534447 0.303914 0.193713
0.654826 0.308125 0.198001
0.775097 0.312352 0.202304
0.895644 0.316487 0.206516
1 0.320607 0.210681
0.0628519 0.418723 0.191379
0.185565 0.422293 0.195239
0.306523 0.426337 0.199451
0.427146 0.430472 0.203693
0.547585 0.434623 0.20795
0.667887 0.438804 0.212207
0.788098 0.443 0.21648
0.908553 0.44712 0.220645
1 0.451209 0.224796
0.0757916 0.549523 0.205722
0.198779 0.552956 0.209537
0.319753 0.556939 0.213718
0.44036 0.561013 0.217945
0.560769 0.565133 0.222187
0.681025 0.569284 0.226429
0.80119 0.573465 0.230671
0.921584 0.577554 0.234836
1 0.581628 0.238956
0.088716 0.68014 0.220035
0.211963 0.683452 0.223804
0.332967 0.687388 0.22797
0.453574 0.691432 0.232197
0.573953 0.695506 0.236423
0.694194 0.699626 0.24065
0.814328 0.703777 0.244892
0.934676 0.707851 0.249042
1 0.711894 0.253147
0.10161 0.81062 0.234318
0.225132 0.813825 0.238041
0.346166 0.817716 0.242206
0.466773 0.821698 0.246418
0.587152 0.825757 0.250629
0.707378 0.829862 0.254856
0.827482 0.833982 0.259098
0.947814 0.838026 0.263233
1 0.842054 0.267353
0.114153 0.941115 0.248234
0.237919 0.944213 0.251926
0.359014 0.948043 0.256092
0.479637 0.95201 0.260288
0.600031 0.956039 0.264515
0.720241 0.960098 0.268742
0.84033 0.964202 0.272969
0.960632 0.968231 0.277104
1 0.972244 0.281209
0.126604 1 0.262043
0.250629 1 0.265705
0.371756 1 0.269871
0.492409 1 0.274083
0.612787 1 0.278294
0.732998 1 0.282521
0.853635 1 0.287282
0.974075 1 0.291569
1 1 0.295811
0.0255741 0.0258488 0.273838
0.148348 0.0298772 0.278096
0.269917 0.0340734 0.282811
0.39118 0.0382849 0.287526
0.512245 0.0424811 0.292226
0.633143 0.0466926 0.296895
0.753933 0.0508888 0.301564
0.874998 0.0549935 0.306111
0.996033 0.0590677 0.310613
0.038529 0.158038 0.287358
0.160662 0.161959 0.291325
0.281697 0.166155 0.295628
0.402472 0.170367 0.299992
0.523079 0.174609 0.304387
0.64358 0.178836 0.308797
0.763973 0.183078 0.313207
0.884642 0.187228 0.31751
1 0.191348 0.321813
0.0514839 0.289387 0.301823
0.173907 0.293126 0.305653
0.294865 0.29723 0.309865
0.415518 0.301396 0.314153
0.536019 0.305592 0.318456
0.656382 0.309804 0.322774
0.776638 0.314031 0.327108
0.897169 0.318166 0.33135
1 0.322271 0.335561
0.0644694 0.420401 0.316243
0.187152 0.423987 0.319997
0.308095 0.428016 0.324163
0.428702 0.432135 0.328389
0.549126 0.436301 0.332662
0.669429 0.440482 0.336934
0.789624 0.444663 0.341222
0.910063 0.448783 0.345434
1 0.452873 0.349599
0.077409 0.551171 0.330617
0.200351 0.55462 0.334325
0.321324 0.558602 0.33846
0.441917 0.562676 0.342657
0.56231 0.566796 0.346899
0.682567 0.570947 0.351156
0.802716 0.575113 0.355413
0.923095 0.579202 0.359594
1 0.583276 0.363745
0.0903334 0.681758 0.344976
0.213535 0.6851 0.348623
0.334524 0.689036 0.352743
0.455116 0.693065 0.356924
0.575494 0.697154 0.361135
0.69572 0.701274 0.365377
0.815839 0.705425 0.369619
0.936187 0.709484 0.37377
1 0.713542 0.377905
0.103243 0.812222 0.359304
0.226688 0.815442 0.36289
0.347723 0.819348 0.36701
0.468315 0.823331 0.371176
0.588693 0.82739 0.375372
0.708904 0.831495 0.379599
0.828992 0.835615 0.383825
0.949325 0.839658 0.387976
1 0.843687 0.392096
0.115785 0.942702 0.373266
0.23949 0.945815 0.376822
0.360571 0.94966 0.380926
0.481193 0.953628 0.385092
0.601556 0.957656 0.389288
0.721767 0.96173 0.3935
0.841856 0.96582 0.397726
0.962142 0.969848 0.401862
1 0.973861 0.405966
0.128252 1 0.387121
0.252201 1 0.390646
0.373312 1 0.394751
0.49395 1 0.398901
0.614328 1 0.403098
0.734524 1 0.407294
0.855192 1 0.4121
0.975631 1 0.416373
1 1 0.420615
0.0272831 0.0276799 0.398825
0.150195 0.0316167 0.402884
0.271733 0.0357977 0.407538
0.392966 0.0399939 0.412238
0.513985 0.0441901 0.416953
0.634867 0.0483864 0.421653
0.755627 0.0525826 0.426337
0.876661 0.056672 0.4309
0.997681 0.0607309 0.435447
0.0399634 0.159854 0.411917
0.162295 0.163714 0.415778
0.28333 0.167895 0.420066
0.404105 0.172107 0.424445
0.524697 0.176318 0.42884
0.645197 0.18056 0.433265
0.765576 0.184787 0.43769
0.886229 0.188937 0.442039
1 0.193042 0.446357
0.0530404 0.291142 0.426291
0.175509 0.294865 0.43006
0.296468 0.298955 0.434256
0.417136 0.30312 0.438529
0.537606 0.307301 0.442832
0.657969 0.311513 0.447166
0.778225 0.315724 0.451514
0.898741 0.31986 0.455787
1 0.323949 0.460014
0.066041 0.42211 0.440711
0.188739 0.425696 0.444389
0.309682 0.429725 0.448524
0.430304 0.433845 0.45275
0.550713 0.437995 0.457008
0.671 0.442176 0.461295
0.791196 0.446357 0.465599
0.91162 0.450462 0.46981
1 0.454551 0.474006
0.0790112 0.55285 0.4551
0.201938 0.556313 0.458717
0.322896 0.560296 0.462821
0.443488 0.56437 0.467018
0.563882 0.56849 0.471244
0.684123 0.572641 0.475486
0.804273 0.576791 0.479759
0.924651 0.58088 0.48394
1 0.584955 0.488106
0.0919509 0.683436 0.469459
0.215106 0.686778 0.47303
0.33611 0.690715 0.477119
0.456687 0.694743 0.481285
0.577066 0.698833 0.485481
0.697292 0.702953 0.489708
0.817395 0.707088 0.493965
0.937743 0.711162 0.498131
1 0.715206 0.502266
0.10486 0.81387 0.483803
0.228275 0.817105 0.487312
0.349294 0.820996 0.491386
0.469886 0.82501 0.495537
0.590249 0.829053 0.499718
0.71046 0.833158 0.503944
0.830549 0.837278 0.508171
0.950866 0.841321 0.512322
1 0.84535 0.516442
0.117403 0.944335 0.497795
0.241062 0.947463 0.501274
0.362142 0.951324 0.505333
0.48275 0.955291 0.509468
0.603113 0.959319 0.513649
0.723308 0.963378 0.517845
0.843397 0.967483 0.522072
0.963378 0.971588 0.526284
1 0.975509 0.530312
0.129885 1 0.511681
0.253773 1 0.515114
0.374884 1 0.519173
0.495506 1 0.523293
0.615869 1 0.527459
0.736584 1 0.532158
0.856794 1 0.536507
0.976898 1 0.540871
1 1 0.545022
0.0289769 0.0295109 0.523568
0.152056 0.0333715 0.527459
0.273564 0.0375372 0.532067
0.394751 0.0417182 0.536736
0.51577 0.0458991 0.541436
0.636622 0.0500954 0.546136
0.757351 0.0542763 0.550835
0.878386 0.0583505 0.555413
0.99939 0.0624247 0.559976
0.041474 0.161669 0.536263
0.163943 0.165484 0.540017
0.284993 0.16965 0.544305
0.405768 0.173846 0.548669
0.52636 0.178058 0.553079
0.64683 0.182284 0.557504
0.767208 0.186511 0.561944
0.887861 0.190646 0.566293
1 0.194751 0.570642
0.0545815 0.292912 0.550561
0.177127 0.296605 0.554238
0.2981 0.300694 0.558419
0.418753 0.304845 0.562692
0.539223 0.309041 0.566995
0.659586 0.313237 0.571344
0.779828 0.317449 0.575692
0.900343 0.321569 0.579965
1 0.325658 0.584222
0.0676127 0.42385 0.56495
0.190341 0.42742 0.568551
0.311284 0.431449 0.572686
0.431907 0.435569 0.576883
0.552316 0.439704 0.58114
0.672602 0.443885 0.585428
0.792782 0.448066 0.589731
0.913207 0.452171 0.593957
1 0.456245 0.598169
0.0805829 0.554574 0.579324
0.203525 0.558022 0.582879
0.324498 0.562005 0.586969
0.445075 0.566079 0.591134
0.565469 0.570199 0.595361
0.68571 0.574334 0.599619
0.805844 0.5785 0.603876
0.926223 0.582574 0.608072
1 0.586648 0.612253
0.0935378 0.68513 0.593698
0.216693 0.688472 0.597192
0.337682 0.692409 0.601251
0.458274 0.696437 0.605402
0.578637 0.700526 0.609598
0.698863 0.704646 0.613825
0.818967 0.708782 0.618067
0.9393 0.71284 0.622232
1 0.716899 0.626383
0.106447 0.815549 0.608042
0.229847 0.818799 0.61149
0.350866 0.82269 0.615534
0.471458 0.826688 0.619669
0.591821 0.830747 0.623835
0.712032 0.834836 0.628046
0.832105 0.838956 0.632273
0.952102 0.843076 0.636515
1 0.847028 0.640558
0.119005 0.945998 0.622034
0.242649 0.949142 0.625452
0.363714 0.952987 0.62948
0.484321 0.956954 0.6336
0.604685 0.960983 0.637766
0.72488 0.965057 0.641962
0.844953 0.969146 0.646174
0.964935 0.973266 0.650401
1 0.977691 0.654917
0.131487 1 0.63595
0.255344 1 0.639323
0.376455 1 0.643336
0.497078 1 0.64744
0.617441 1 0.651591
0.738186 1 0.656336
0.858396 1 0.66067
0.9785 1 0.665019
1 1 0.669184
0.0306706 0.0313268 0.648127
0.153903 0.0351263 0.651881
0.275395 0.0392767 0.656428
0.396582 0.0434424 0.661082
0.517555 0.0476234 0.665751
0.638392 0.0518044 0.670451
0.759106 0.0559854 0.675151
0.880125 0.0600595 0.679728
1 0.0641184 0.684291
0.0429999 0.163485 0.660456
0.165606 0.167254 0.664134
0.286671 0.171405 0.668391
0.407431 0.175601 0.67274
0.528023 0.179797 0.67715
0.648493 0.184024 0.68159
0.768856 0.188235 0.68603
0.889509 0.19237 0.690394
1 0.196475 0.694743
0.0561074 0.294697 0.674678
0.178744 0.29836 0.678279
0.299733 0.302449 0.682445
0.420386 0.3066 0.686702
0.540856 0.310765 0.691005
0.661204 0.314961 0.695354
0.78146 0.319158 0.699718
0.901961 0.323278 0.70399
1 0.327382 0.708263
0.0691539 0.425605 0.689021
0.191943 0.42916 0.692561
0.312901 0.433188 0.696666
0.433509 0.437293 0.700862
0.553933 0.441428 0.705119
0.674205 0.445594 0.709407
0.794385 0.449775 0.71371
0.914809 0.45388 0.717952
1 0.457954 0.722164
0.0821393 0.556298 0.70338
0.205112 0.559747 0.706874
0.326085 0.563729 0.710933
0.446677 0.567788 0.715099
0.567071 0.571908 0.719326
0.687312 0.576043 0.723568
0.807446 0.580194 0.72784
0.92781 0.584283 0.732036
1 0.588342 0.736217
0.0951095 0.686839 0.717739
0.21828 0.690181 0.721187
0.339269 0.694118 0.725216
0.459861 0.698146 0.729351
0.580224 0.702235 0.733547
0.70045 0.70634 0.737774
0.820554 0.710475 0.742016
0.940887 0.714549 0.746181
1 0.718578 0.750332
0.108034 0.817243 0.732097
0.231434 0.820493 0.735485
0.352453 0.824384 0.739498
0.473045 0.828382 0.743618
0.593408 0.832441 0.747784
0.713603 0.83653 0.75198
0.833692 0.840635 0.756207
0.953674 0.84477 0.760449
1 0.848722 0.764492
0.120607 0.947677 0.74609
0.244221 0.950835 0.749462
0.365286 0.954681 0.75346
0.485908 0.958648 0.757565
0.606256 0.962676 0.761715
0.726452 0.966735 0.765896
0.846525 0.97084 0.770108
0.966506 0.974945 0.774334
1 0.979416 0.778912
0.133089 1 0.760006
0.256916 1 0.763333
0.378027 1 0.767315
0.49865 1 0.771405
0.619013 1 0.77554
0.739818 1 0.780316
0.860014 1 0.784649
0.980117 1 0.788998
1 1 0.793164
0.0323644 0.0331579 0.772564
0.155764 0.0368811 0.776165
0.277241 0.041001 0.780667
0.398398 0.0451667 0.785275
0.519371 0.0493477 0.789944
0.640192 0.0535134 0.794629
0.760891 0.0576944 0.799313
0.88188 0.0617685 0.803906
1 0.0658122 0.808469
0.0445106 0.165316 0.784527
0.167269 0.169039 0.788113
0.288334 0.173175 0.792355
0.40911 0.177356 0.796704
0.529702 0.181552 0.801099
0.650156 0.185763 0.805539
0.770535 0.189975 0.809995
0.891173 0.194095 0.814359
1 0.198199 0.818708
0.0576333 0.296498 0.798672
0.180377 0.30013 0.802197
0.301366 0.304204 0.806348
0.422019 0.308339 0.81059
0.542504 0.312505 0.814908
0.662852 0.316701 0.819242
0.783093 0.320897 0.823606
0.903593 0.325002 0.827893
1 0.329091 0.832151
0.0706798 0.427375 0.81297
0.193545 0.4309 0.816449
0.314519 0.434928 0.820539
0.435126 0.439033 0.824735
0.55555 0.443168 0.828977
0.675822 0.447318 0.833265
0.796002 0.451499 0.837568
0.916426 0.455604 0.84181
1 0.459678 0.846021
0.0836957 0.558053 0.827314
0.206714 0.561486 0.830747
0.327688 0.565454 0.834791
0.44828 0.569512 0.838941
0.568673 0.573632 0.843153
0.688914 0.577768 0.847395
0.809049 0.581918 0.851667
0.929412 0.585992 0.855863
1 0.590051 0.860044
0.0966659 0.688563 0.841657
0.219883 0.691905 0.845045
0.340871 0.695842 0.849073
0.461463 0.69987 0.853193
0.581827 0.703944 0.857374
0.702037 0.708049 0.861585
0.822141 0.712184 0.865827
0.942473 0.716243 0.869993
1 0.720287 0.874144
0.109606 0.818967 0.856016
0.233021 0.822202 0.859358
0.35404 0.826093 0.86334
0.474632 0.830091 0.867445
0.594995 0.83415 0.871595
0.71519 0.838224 0.875792
0.835279 0.842344 0.880018
0.955261 0.846479 0.884245
1 0.850416 0.888289
0.122179 0.949371 0.870008
0.245808 0.952529 0.87332
0.366873 0.956374 0.877302
0.48748 0.960342 0.881392
0.607843 0.96437 0.885527
0.728038 0.968429 0.889708
0.848112 0.972519 0.893904
0.968078 0.976638 0.898131
1 0.981155 0.902754
0.134661 1 0.883925
0.258503 1 0.88719
0.379599 1 0.891157
0.500237 1 0.895232
0.621103 1 0.89987
0.741436 1 0.904173
0.861646 1 0.908507
0.981735 1 0.91284
1 1 0.917006
0.0340124 0.0349279 0.897505
0.157565 0.0385901 0.900984
0.279042 0.0426947 0.905425
0.400198 0.0468452 0.910018
0.521141 0.0510109 0.914672
0.641947 0.0551766 0.919356
0.762631 0.0593576 0.924041
0.883619 0.0634165 0.928634
1 0.0674754 0.933196
0.0459907 0.167102 0.909117
0.168887 0.170779 0.912612
0.289982 0.174899 0.916823
0.410758 0.179065 0.921172
0.531334 0.183261 0.925566
0.651804 0.187457 0.930007
0.772152 0.191669 0.934462
0.89279 0.195789 0.938842
1 0.199878 0.943206
0.0590982 0.298253 0.923171
0.181964 0.301854 0.926635
0.302968 0.305913 0.930739
0.423621 0.310048 0.934981
0.544106 0.314214 0.939284
0.664454 0.318395 0.943633
0.784695 0.322591 0.947997
0.905196 0.326696 0.952285
1 0.330785 0.956573
0.0721599 0.429114 0.937438
0.195117 0.432609 0.940841
0.316091 0.436622 0.9449
0.436713 0.440726 0.949081
0.557122 0.444862 0.953323
0.677409 0.449012 0.957595
0.797589 0.453193 0.961913
0.917998 0.457282 0.966155
1 0.461341 0.970382
0.0851911 0.559762 0.951751
0.20827 0.56318 0.955123
0.329259 0.567147 0.959136
0.449851 0.571206 0.963272
0.570245 0.575311 0.967468
0.690486 0.579446 0.97171
0.81062 0.583597 0.975982
0.930983 0.587671 0.980194
1 0.59173 0.984375
0.0981613 0.690257 0.966094
0.221424 0.693584 0.969421
0.342428 0.69752 0.973404
0.46302 0.701549 0.977508
0.583383 0.705623 0.981674
0.703609 0.709728 0.985885
0.823697 0.713863 0.990127
0.943709 0.717998 0.994385
1 0.72195 0.998459
0.111116 0.820645 0.980453
0.234546 0.82388 0.983719
0.355581 0.827771 0.987686
0.476173 0.831769 0.99176
0.596536 0.835813 0.995911
0.716747 0.839902 1
0.83682 0.844007 1
0.956817 0.848142 1
1 0.852064 1
0.12369 0.951049 0.994446
0.247349 0.954192 0.997681
0.368414 0.958038 1
0.489036 0.962005 1
0.609384 0.966033 1
0.72958 0.970092 1
0.849653 0.974182 1
0.970123 0.978805 1
1 0.982864 1
0.136187 1 1
0.260029 1 1
0.38114 1 1
0.501778 1 1
0.62269 1 1
0.743023 1 1
0.863218 1 1
0.983322 1 1
1 1 1
0.0356603 0.0366979 1
0.159365 0.0402991 1
0.280858 0.0444038 1
0.401999 0.0485389 1
0.522927 0.0527047 1
0.643717 0.0568551 1
0.764385 0.0610361 1
0.885359 0.065095 1
1 0.0691386 1
0.0474556 0.168902 1
0.17052 0.172519 1
0.29163 0.176623 1
0.412406 0.180789 1
0.532998 0.18497 1
0.653452 0.189166 1
0.7738 0.193362 1
0.894438 0.197482 1
1 0.201572 1
0.0605631 0.300023 1
0.183551 0.303578 1
0.30457 0.307637 1
0.425238 0.311757 1
0.545724 0.315908 1
0.666056 0.320089 1
0.786313 0.324285 1
0.906798 0.328389 1
1 0.332464 1
0.07364 0.430854 1
0.196674 0.434333 1
0.317678 0.438346 1
0.4383 0.44242 1
0.558724 0.446555 1
0.678996 0.450706 1
0.799176 0.454871 1
0.9196 0.458976 1
1 0.463035 1
0.0866712 0.561486 1
0.209827 0.564889 1
0.330831 0.568841 1
0.451438 0.5729 1
0.571817 0.577005 1
0.692058 0.581125 1
0.812192 0.585275 1
0.932555 0.589349 1
1 0.593408 1
0.0996567 0.691966 1
0.222965 0.695293 1
0.343984 0.699214 1
0.464576 0.703227 1
0.584955 0.707301 1
0.705165 0.711406 1
0.825269 0.715541 1
0.945281 0.719676 1
1 0.723629 1
0.112627 0.822339 1
0.236103 0.825574 1
0.357137 0.82945 1
0.477729 0.833448 1
0.598093 0.837491 1
0.718303 0.841581 1
0.838376 0.845685 1
0.958373 0.849805 1
1 0.853742 1
0.125216 0.952728 1
0.24889 0.955871 1
0.36997 0.959716 1
0.490578 0.963684 1
0.610941 0.967697 1
0.731136 0.971756 1
0.851209 0.975845 1
0.971725 0.980514 1
1 0.984573 1
0.137713 1 1
0.26157 1 1
0.382681 1 1
0.503792 1 1
0.624292 1 1
0.744625 1 1
0.86482 1 1
0.984924 1 1
1 1 1
