public/filters/konnect/Presets A Lighter Skin Tone/Highlight v1.2_27.2021-06-18 12-03-14.cube
TITLE "Generated by Resolve"
LUT_3D_SIZE 5
0.0226139 0.0226139 0.0226139
0.26659 0.0307317 0.0309911
0.509148 0.0392309 0.0397803
0.750988 0.047715 0.0485237
0.99321 0.0559396 0.057023
0.048249 0.286122 0.050721
0.291768 0.293919 0.0593576
0.532998 0.302296 0.0677501
0.773709 0.310765 0.0760357
1 0.319051 0.0840772
0.0741588 0.548058 0.0790723
0.318257 0.555383 0.0877241
0.559304 0.563577 0.0962692
0.799771 0.571893 0.104677
1 0.580072 0.112779
0.0999771 0.809216 0.107332
0.344686 0.81619 0.115923
0.585702 0.824231 0.124575
0.826062 0.832441 0.133074
1 0.840513 0.141268
0.124987 1 0.134768
0.370291 1 0.143328
0.611337 1 0.152041
0.852155 1 0.161105
1 1 0.16965
0.0255741 0.0258488 0.273838
0.269917 0.0340734 0.282811
0.512245 0.0424811 0.292226
0.753933 0.0508888 0.301564
0.996033 0.0590677 0.310613
0.0514839 0.289387 0.301823
0.294865 0.29723 0.309865
0.536019 0.305592 0.318456
0.776638 0.314031 0.327108
1 0.322271 0.335561
0.077409 0.551171 0.330617
0.321324 0.558602 0.33846
0.56231 0.566796 0.346899
0.802716 0.575113 0.355413
1 0.583276 0.363745
0.103243 0.812222 0.359304
0.347723 0.819348 0.36701
0.588693 0.82739 0.375372
0.828992 0.835615 0.383825
1 0.843687 0.392096
0.128252 1 0.387121
0.373312 1 0.394751
0.614328 1 0.403098
0.855192 1 0.4121
1 1 0.420615
0.0289769 0.0295109 0.523568
0.273564 0.0375372 0.532067
0.51577 0.0458991 0.541436
0.757351 0.0542763 0.550835
0.99939 0.0624247 0.559976
0.0545815 0.292912 0.550561
0.2981 0.300694 0.558419
0.539223 0.309041 0.566995
0.779828 0.317449 0.575692
1 0.325658 0.584222
0.0805829 0.554574 0.579324
0.324498 0.562005 0.586969
0.565469 0.570199 0.595361
0.805844 0.5785 0.603876
1 0.586648 0.612253
0.106447 0.815549 0.608042
0.350866 0.82269 0.615534
0.591821 0.830747 0.623835
0.832105 0.838956 0.632273
1 0.847028 0.640558
0.131487 1 0.63595
0.376455 1 0.643336
0.617441 1 0.651591
0.858396 1 0.66067
1 1 0.669184
0.0323644 0.0331579 0.772564
0.277241 0.041001 0.780667
0.519371 0.0493477 0.789944
0.760891 0.0576944 0.799313
1 0.0658122 0.808469
0.0576333 0.296498 0.798672
0.301366 0.304204 0.806348
0.542504 0.312505 0.814908
0.783093 0.320897 0.823606
1 0.329091 0.832151
0.0836957 0.558053 0.827314
0.327688 0.565454 0.834791
0.568673 0.573632 0.843153
0.809049 0.581918 0.851667
1 0.590051 0.860044
0.109606 0.818967 0.856016
0.35404 0.826093 0.86334
0.594995 0.83415 0.871595
0.835279 0.842344 0.880018
1 0.850416 0.888289
0.134661 1 0.883925
0.379599 1 0.891157
0.621103 1 0.89987
0.861646 1 0.908507
1 1 0.917006
0.0356603 0.0366979 1
0.280858 0.0444038 1
0.522927 0.0527047 1
0.764385 0.0610361 1
1 0.0691386 1
0.0605631 0.300023 1
0.30457 0.307637 1
0.545724 0.315908 1
0.786313 0.324285 1
1 0.332464 1
0.0866712 0.561486 1
0.330831 0.568841 1
0.571817 0.577005 1
0.812192 0.585275 1
1 0.593408 1
0.112627 0.822339 1
0.357137 0.82945 1
0.598093 0.837491 1
0.838376 0.845685 1
1 0.853742 1
0.137713 1 1
0.382681 1 1
0.624292 1 1
0.86482 1 1
1 1 1
