public/filters/konnect/Presets A Lighter Skin Tone/Stylish 1.5.cube_31.2021-06-18 12-03-14.cube
TITLE "Generated by Resolve"
LUT_3D_SIZE 9
0 0.0596323 0.233387
0 0.0566873 0.230198
0.0590982 0.0501259 0.218662
0.157107 0.0356146 0.177462
0.303365 0.00572213 0.0974899
0.475792 0 0.0672465
0.656306 0 0.107424
0.816114 0 0.106325
0.958892 0 0.0920729
0 0.111437 0.232715
0 0.114855 0.237125
0.0669718 0.114 0.235752
0.171145 0.107134 0.208576
0.326421 0.0839246 0.118334
0.507424 0.0519112 0.036408
0.690501 0.0403601 0.0793317
0.85388 0.0362554 0.146349
1 0.03093 0.138735
0 0.191791 0.222309
0 0.200992 0.231373
0.0656596 0.205966 0.235416
0.178088 0.204105 0.209079
0.340963 0.189181 0.158206
0.531029 0.166766 0.0991379
0.724147 0.153597 0.0977188
0.895537 0.15819 0.179278
1 0.158572 0.189487
0 0.304753 0.199496
0 0.321767 0.214008
0.054612 0.334249 0.224125
0.172747 0.340749 0.222965
0.342626 0.33341 0.193927
0.541772 0.314122 0.126574
0.741756 0.302205 0.11606
0.916411 0.307927 0.19118
1 0.309117 0.216114
0 0.448875 0.179889
0 0.471992 0.194858
0.0467994 0.489082 0.204578
0.166339 0.499992 0.212192
0.336339 0.496239 0.197147
0.537499 0.481605 0.1505
0.739528 0.465644 0.105486
0.914672 0.471855 0.160433
1 0.478126 0.218112
0 0.611917 0.166598
0 0.637186 0.187976
0.0378576 0.655558 0.193896
0.157382 0.667201 0.186236
0.326802 0.665965 0.170504
0.528283 0.658 0.165072
0.733959 0.645502 0.136141
0.907195 0.64506 0.150515
1 0.648692 0.202075
0 0.776226 0.163226
0 0.80354 0.193668
0.0481422 0.821576 0.189624
0.164981 0.83505 0.194186
0.328832 0.833707 0.175448
0.526101 0.824643 0.176638
0.729091 0.81001 0.154299
0.897704 0.803204 0.146929
1 0.800702 0.177707
0 0.9355 0.180407
0 0.961105 0.214237
0.0704051 0.976684 0.217731
0.181415 0.98529 0.20647
0.335714 0.98024 0.181567
0.526482 0.965805 0.173999
0.72491 0.947692 0.172564
0.89189 0.934783 0.15169
1 0.927321 0.159197
0 1 0.192889
0 1 0.223636
0.0742046 1 0.233494
0.178531 1 0.216846
0.324193 1 0.174289
0.511437 1 0.148882
0.706264 1 0.163073
0.877348 1 0.149416
1 1 0.144137
0 0.0535134 0.282826
0 0.055375 0.292256
0.0586862 0.0491035 0.283421
0.157687 0.0336461 0.253666
0.303273 0.00759899 0.205921
0.477806 0 0.164797
0.659052 0 0.161395
0.818158 0 0.155688
0.960586 0 0.138582
0 0.110826 0.289433
0 0.115526 0.300328
0.0681315 0.115221 0.300099
0.174182 0.107683 0.277028
0.329366 0.0875715 0.231876
0.511421 0.0610361 0.177127
0.696025 0.0441901 0.174273
0.858259 0.0402686 0.203555
1 0.0361334 0.196368
0 0.193606 0.284993
0 0.203861 0.29662
0.0684062 0.209384 0.300542
0.183276 0.206897 0.281163
0.348089 0.193164 0.250736
0.539574 0.173007 0.208255
0.73196 0.15938 0.193652
0.901335 0.164462 0.242863
1 0.166155 0.253574
0 0.309773 0.267964
0 0.327642 0.28275
0.0588846 0.340719 0.293416
0.178958 0.347097 0.293965
0.351949 0.337987 0.265812
0.55172 0.320806 0.224811
0.749813 0.308064 0.20528
0.920897 0.313848 0.250095
1 0.317906 0.281285
0 0.456275 0.250645
0 0.479698 0.267689
0.0523232 0.497108 0.280781
0.173175 0.507622 0.288243
0.34612 0.501656 0.267475
0.547372 0.489326 0.243915
0.749035 0.474815 0.2094
0.920058 0.478676 0.232181
1 0.487083 0.280308
0 0.619532 0.234104
0 0.645289 0.257755
0.0446174 0.663447 0.266606
0.165789 0.675273 0.268818
0.337819 0.672984 0.254429
0.538949 0.664958 0.246128
0.742947 0.653407 0.225483
0.912856 0.65214 0.226474
1 0.656291 0.26157
0 0.783825 0.228473
0 0.811627 0.262135
0.0561379 0.830076 0.271992
0.174136 0.842527 0.276509
0.34049 0.839612 0.259205
0.537636 0.828305 0.243122
0.737591 0.815518 0.233356
0.903014 0.808301 0.219608
1 0.805875 0.234379
0 0.94226 0.243122
0 0.968414 0.283818
0.0777142 0.983108 0.29073
0.189685 0.990555 0.284718
0.345937 0.984665 0.267887
0.537942 0.967514 0.241703
0.733013 0.950729 0.2383
0.897002 0.938399 0.220188
1 0.930938 0.215488
0 1 0.251911
0 1 0.286809
0.0797436 1 0.295171
0.185641 1 0.280858
0.333623 1 0.254307
0.522835 1 0.221805
0.715099 1 0.221302
0.882734 1 0.214496
1 1 0.203876
0 0.0453651 0.363027
0 0.0512093 0.377691
0.0567941 0.045594 0.370413
0.157763 0.026978 0.335683
0.303181 0.00390631 0.297551
0.479088 0 0.249348
0.660105 0 0.228763
0.818586 0 0.238819
0.961456 0 0.223285
0 0.108186 0.373465
0 0.113863 0.385931
0.0674907 0.114748 0.389929
0.174929 0.106874 0.367147
0.332204 0.0856184 0.31899
0.514351 0.0597238 0.266636
0.69778 0.0415198 0.247929
0.859937 0.0413977 0.284321
1 0.0395972 0.284001
0 0.193835 0.375006
0 0.204837 0.386328
0.0691386 0.211841 0.395041
0.184665 0.210697 0.384436
0.353094 0.19382 0.340581
0.544686 0.17438 0.300801
0.734356 0.156008 0.25803
0.902831 0.165728 0.315358
1 0.171618 0.344671
0 0.312886 0.360281
0 0.33138 0.374411
0.0618296 0.345296 0.386587
0.183734 0.350988 0.384634
0.359731 0.338399 0.346075
0.558007 0.324041 0.318914
0.754192 0.309545 0.288655
0.921187 0.313832 0.314595
1 0.323873 0.369146
0 0.46067 0.34078
0 0.485649 0.363989
0.0561837 0.503075 0.376852
0.178027 0.513085 0.383185
0.352972 0.505806 0.360281
0.554665 0.491981 0.330358
0.75436 0.478447 0.299062
0.921675 0.480491 0.305959
1 0.4925 0.362509
0 0.622797 0.317235
0 0.651637 0.353841
0.0494698 0.669703 0.36318
0.171511 0.681849 0.368704
0.344533 0.679835 0.358282
0.547021 0.667903 0.331792
0.748623 0.657847 0.316808
0.913375 0.651362 0.287419
1 0.659175 0.332174
0 0.787182 0.310964
0 0.818341 0.361212
0.0616464 0.836713 0.373022
0.180911 0.847196 0.37116
0.348699 0.843137 0.353246
0.546319 0.829007 0.323659
0.743053 0.81796 0.320348
0.905547 0.810452 0.302235
1 0.807538 0.30692
0 0.943618 0.317479
0 0.973098 0.376318
0.0824598 0.987427 0.386084
0.195361 0.993347 0.377249
0.352865 0.986648 0.361318
0.546029 0.967239 0.324269
0.738598 0.950545 0.315663
0.899641 0.940017 0.306493
1 0.932036 0.292119
0 1 0.330266
0.000366217 1 0.37232
0.0826886 1 0.386114
0.189425 1 0.371221
0.340139 1 0.34284
0.529183 1 0.310704
0.722042 1 0.293843
0.885786 1 0.297261
1 1 0.276158
0 0.0374914 0.458076
0 0.0455024 0.47277
0.053254 0.0454414 0.474922
0.151873 0.0334783 0.458854
0.299168 0.00460822 0.415412
0.477348 0 0.36022
0.659297 0 0.322454
0.817685 0 0.338201
0.960769 0 0.325963
0 0.105455 0.47248
0 0.11133 0.482063
0.0662089 0.113802 0.489998
0.173129 0.108171 0.478981
0.331182 0.087068 0.4374
0.514397 0.0611887 0.390097
0.697932 0.0386206 0.34844
0.859251 0.0398413 0.376379
1 0.0418555 0.388281
0 0.193469 0.475196
0 0.204822 0.484916
0.0699016 0.213123 0.495567
0.185046 0.215137 0.497612
0.35378 0.200565 0.46833
0.547799 0.177462 0.419501
0.737362 0.158694 0.37792
0.902174 0.164553 0.404868
1 0.175357 0.447242
0 0.314092 0.45774
0 0.334493 0.476509
0.0642405 0.349599 0.490974
0.18587 0.358053 0.499336
0.360708 0.349874 0.482444
0.562036 0.32961 0.439551
0.757366 0.312108 0.402106
0.920913 0.313405 0.409354
1 0.327718 0.467323
0 0.462303 0.436088
0 0.491264 0.470817
0.0589151 0.509422 0.486137
0.181216 0.519417 0.493477
0.356741 0.513268 0.478386
0.559991 0.495842 0.440681
0.758618 0.483574 0.417578
0.921843 0.480522 0.402319
1 0.494499 0.452567
0 0.62324 0.409964
0 0.657389 0.460258
0.0529335 0.677211 0.476555
0.175326 0.689784 0.484962
0.349142 0.687648 0.476829
0.552117 0.674571 0.450797
0.752758 0.661189 0.42504
0.915541 0.654932 0.401389
1 0.659541 0.421393
0 0.785809 0.398383
0 0.823102 0.465171
0.0659037 0.843427 0.486763
0.18471 0.854231 0.490593
0.352255 0.850156 0.478187
0.550011 0.834974 0.450263
0.7467 0.819272 0.425162
0.906767 0.811749 0.408621
1 0.807187 0.400061
0 0.942794 0.411856
0 0.975357 0.476143
0.0850996 0.992462 0.500847
0.19617 0.999237 0.501656
0.355306 0.990005 0.479942
0.548684 0.96936 0.443473
0.741924 0.949386 0.415946
0.900587 0.940124 0.410544
1 0.930556 0.383398
0 1 0.435737
0.00779736 1 0.471992
0.0839857 1 0.493034
0.188418 1 0.489403
0.339055 1 0.465248
0.530251 1 0.42884
0.725399 1 0.397711
0.887175 1 0.396887
1 1 0.381323
0 0.0325322 0.567437
0 0.0404059 0.578531
0.0500343 0.0419776 0.581292
0.147967 0.0343328 0.572457
0.292943 0.0121767 0.546014
0.470954 0 0.506615
0.656733 0 0.467292
0.81677 0 0.452155
0.960052 0 0.438788
0 0.102419 0.580484
0 0.109026 0.589761
0.0646372 0.112352 0.597147
0.171298 0.109133 0.593851
0.327932 0.0930495 0.57258
0.513375 0.0684977 0.534447
0.700343 0.0453651 0.495033
0.860227 0.0408789 0.491783
1 0.0438544 0.500313
0 0.192126 0.58175
0 0.205035 0.593927
0.0702373 0.214313 0.604807
0.186328 0.217441 0.608682
0.354437 0.207431 0.596063
0.549859 0.187762 0.564416
0.743282 0.170794 0.534966
0.905867 0.169253 0.531167
1 0.178653 0.558297
0 0.314931 0.565682
0 0.33753 0.587442
0.0664225 0.353384 0.602167
0.188815 0.362509 0.611566
0.36289 0.357977 0.607095
0.564279 0.342138 0.584024
0.761807 0.323186 0.549798
0.924819 0.319768 0.541665
1 0.331365 0.577264
0 0.4654 0.549111
0 0.495598 0.582238
0.0617838 0.513893 0.597543
0.18436 0.524865 0.607752
0.359319 0.522255 0.604547
0.562676 0.509804 0.586831
0.763302 0.493187 0.555535
0.926467 0.488121 0.538354
1 0.49926 0.569787
0 0.625971 0.524315
0 0.661997 0.572229
0.0564736 0.683085 0.591562
0.17911 0.696422 0.602823
0.353063 0.695262 0.599283
0.555764 0.683757 0.582086
0.756436 0.666835 0.549935
0.919005 0.66154 0.535241
1 0.662486 0.539605
0 0.789929 0.51957
0 0.827497 0.578943
0.0699168 0.848249 0.60148
0.188235 0.859846 0.610376
0.355383 0.856107 0.602579
0.552453 0.841825 0.582223
0.749477 0.824094 0.553613
0.907744 0.813367 0.527306
1 0.806653 0.510262
0 0.946838 0.537255
0.00323491 0.977966 0.589761
0.0877089 0.995239 0.613901
0.197971 1 0.618784
0.356191 0.993683 0.60351
0.548196 0.974227 0.576562
0.742733 0.953002 0.547539
0.900877 0.939941 0.523613
1 0.930129 0.499641
0 1 0.548867
0.0119783 1 0.581994
0.0850233 1 0.603235
0.188006 1 0.605478
0.336782 1 0.589914
0.527962 1 0.558068
0.725002 1 0.526055
0.887877 1 0.509667
1 1 0.494987
0 0.0341192 0.682292
0 0.0391089 0.687083
0.0469825 0.0391699 0.687037
0.14519 0.0321202 0.679606
0.289723 0.0135042 0.6598
0.467826 0 0.629618
0.655299 0 0.599145
0.816541 0 0.5785
0.961013 0 0.563012
0 0.100999 0.690379
0 0.107607 0.696864
0.0634165 0.111345 0.702312
0.170779 0.108949 0.700359
0.327596 0.0950942 0.685832
0.51371 0.0745556 0.662287
0.703899 0.0541085 0.635904
0.865339 0.0478065 0.626307
1 0.0471504 0.621744
0 0.192233 0.69012
0 0.20589 0.700938
0.0710765 0.216114 0.711299
0.188235 0.219959 0.715892
0.356802 0.211978 0.708904
0.552773 0.197269 0.69398
0.749081 0.182101 0.675929
0.913314 0.179171 0.671321
1 0.182834 0.677623
0 0.317876 0.677317
0 0.340551 0.694881
0.0691844 0.357366 0.709834
0.192279 0.36701 0.719676
0.366857 0.362844 0.716808
0.56759 0.350622 0.706035
0.765835 0.332311 0.683482
0.931914 0.331456 0.685237
1 0.336904 0.698512
0 0.471611 0.667689
0 0.499916 0.690898
0.0648814 0.518654 0.706325
0.188281 0.5299 0.716548
0.364019 0.527611 0.71458
0.566964 0.518349 0.706645
0.768658 0.505577 0.692454
0.933471 0.499931 0.682582
1 0.506188 0.696986
0 0.633509 0.650813
0 0.667323 0.684138
0.0605173 0.688594 0.702327
0.18378 0.701808 0.713466
0.358114 0.700816 0.711452
0.559991 0.69131 0.701595
0.760632 0.677729 0.685328
0.921996 0.667628 0.666728
1 0.666316 0.666438
0 0.79823 0.6533
0 0.832349 0.694011
0.0740063 0.852796 0.714
0.192309 0.864103 0.723247
0.359472 0.860212 0.717159
0.555825 0.846128 0.700282
0.752056 0.828809 0.67805
0.906691 0.811749 0.641947
1 0.808392 0.639277
0 0.95024 0.66453
0.00444038 0.981323 0.708232
0.0901198 0.997681 0.726757
0.200275 1 0.731441
0.358007 0.995972 0.719951
0.549493 0.976532 0.696223
0.743755 0.955489 0.670649
0.901564 0.941543 0.648142
1 0.930526 0.625895
0 1 0.670756
0.0106966 1 0.701076
0.0856336 1 0.716533
0.188724 1 0.718257
0.337514 1 0.705592
0.527825 1 0.678828
0.724926 1 0.651118
0.88864 1 0.634241
1 1 0.611109
0 0.0383764 0.781353
0 0.0400854 0.782986
0.0449073 0.0377966 0.78146
0.14345 0.0307927 0.77528
0.288228 0.0131075 0.758144
0.466621 0 0.733501
0.6551 0 0.707851
0.817319 0 0.691524
0.96286 0 0.67921
0 0.102296 0.78819
0 0.108934 0.793149
0.0631266 0.1122 0.796521
0.171374 0.109941 0.794903
0.328969 0.0967269 0.782513
0.51574 0.078233 0.764599
0.707698 0.0605478 0.746792
0.870588 0.0547341 0.740429
1 0.0529641 0.736767
0 0.194797 0.787243
0 0.208911 0.796536
0.0730755 0.219425 0.805829
0.191318 0.223713 0.810925
0.360754 0.216281 0.805661
0.557137 0.203494 0.795804
0.754711 0.190906 0.786191
0.920363 0.18854 0.786603
1 0.189654 0.790219
0 0.32462 0.778439
0 0.345327 0.791196
0.0730449 0.362676 0.805508
0.196811 0.372595 0.81532
0.371862 0.368414 0.813291
0.572259 0.357275 0.805997
0.771923 0.345312 0.799039
0.939651 0.34374 0.803265
1 0.346365 0.812741
0 0.480262 0.771954
0 0.50576 0.788159
0.0690623 0.524529 0.80264
0.193317 0.536034 0.812863
0.369802 0.533806 0.811658
0.572686 0.52491 0.80557
0.774304 0.515236 0.800031
0.940627 0.511574 0.800885
1 0.515435 0.811368
0 0.645029 0.763302
0 0.67393 0.783841
0.0657511 0.69456 0.800061
0.189425 0.708095 0.811505
0.364233 0.706676 0.809644
0.565606 0.696941 0.800793
0.765255 0.685649 0.791531
0.927932 0.678614 0.786831
1 0.67483 0.786648
0 0.809415 0.771939
0 0.839216 0.798291
0.0788891 0.858122 0.814237
0.197314 0.868711 0.82266
0.364813 0.863996 0.816251
0.560418 0.849622 0.800549
0.755398 0.833234 0.783062
0.912535 0.821958 0.769726
1 0.813703 0.760235
0 0.957732 0.786313
0.00457771 0.986526 0.81593
0.0932021 1 0.828168
0.203403 1 0.831891
0.361456 0.997925 0.820829
0.552209 0.97879 0.799435
0.745846 0.957839 0.776089
0.903212 0.944244 0.759228
1 0.930465 0.7402
0 1 0.793332
0.0059205 1 0.811917
0.0867628 1 0.820264
0.190265 1 0.820829
0.340078 1 0.808408
0.529549 1 0.78497
0.726543 1 0.759777
0.89041 1 0.744961
1 1 0.730068
0 0.0369421 0.861555
0 0.0393378 0.863386
0.0440833 0.0372931 0.862486
0.142885 0.0307164 0.857542
0.288014 0.0135195 0.842161
0.466926 0 0.819898
0.655955 0 0.797284
0.818631 0 0.784222
0.96553 0 0.777157
0 0.102998 0.868833
0 0.110613 0.874006
0.0641947 0.11397 0.877363
0.173159 0.1122 0.876722
0.331548 0.0996262 0.865934
0.519036 0.0819257 0.850294
0.711833 0.0656291 0.836042
0.874922 0.0599069 0.83209
1 0.0588846 0.832334
0 0.198428 0.869657
0 0.213489 0.878813
0.0763561 0.224063 0.887846
0.195575 0.228717 0.893553
0.36582 0.22179 0.889494
0.562615 0.209445 0.881285
0.760449 0.198093 0.8748
0.926299 0.196124 0.877989
1 0.196231 0.88307
0 0.330282 0.862196
0 0.352651 0.875502
0.0778668 0.369726 0.889036
0.20238 0.379232 0.898451
0.377798 0.375006 0.896895
0.578088 0.363912 0.890562
0.777859 0.353796 0.886992
0.946075 0.353155 0.89427
1 0.354177 0.904265
0 0.48748 0.857557
0 0.513313 0.872648
0.0742504 0.532052 0.886549
0.199466 0.543267 0.896483
0.376577 0.5411 0.89575
0.579416 0.53225 0.890547
0.780468 0.523629 0.887449
0.948074 0.523064 0.894087
1 0.5234 0.902571
0 0.653925 0.852079
0 0.681559 0.869718
0.07187 0.702251 0.885466
0.196078 0.715343 0.896254
0.371252 0.713497 0.894316
0.572076 0.703334 0.885801
0.770336 0.69192 0.877607
0.933455 0.687846 0.878218
1 0.683314 0.879759
0 0.819806 0.865965
0 0.845945 0.885725
0.0846876 0.864332 0.90042
0.203204 0.874205 0.908003
0.370947 0.868681 0.901152
0.565927 0.853681 0.885618
0.759457 0.836988 0.869047
0.916732 0.828107 0.860914
1 0.819928 0.854124
0 0.970153 0.888136
0.00766003 0.991897 0.905104
0.0972 1 0.914778
0.207446 1 0.917586
0.36611 1 0.906096
0.556542 0.981003 0.885145
0.749096 0.959976 0.862989
0.906004 0.94789 0.850065
1 0.938094 0.839857
0 1 0.891417
0.00433356 1 0.903181
0.089128 1 0.908293
0.192935 1 0.908263
0.343954 1 0.89572
0.533394 1 0.873365
0.72987 1 0.850019
0.892699 1 0.836866
1 1 0.827359
0 0.0359045 0.935149
0 0.0389258 0.937331
0.0439307 0.0374304 0.936934
0.143008 0.0314031 0.932692
0.288563 0.0148165 0.918257
0.468086 0 0.897215
0.65774 0 0.876127
0.820981 0 0.865034
0.968612 0 0.860502
0 0.103807 0.943206
0 0.112154 0.948775
0.0659648 0.116243 0.952758
0.175601 0.11519 0.95288
0.334813 0.103334 0.942992
0.523064 0.0863966 0.928512
0.716442 0.0708171 0.915633
0.879881 0.0656901 0.913237
1 0.0650797 0.915236
0 0.201633 0.945708
0 0.217655 0.955337
0.0803845 0.229038 0.964981
0.200427 0.234363 0.971267
0.371435 0.227924 0.967788
0.568612 0.215991 0.96022
0.766369 0.204959 0.954528
0.93196 0.203113 0.958572
1 0.203143 0.964691
0 0.336141 0.940169
0 0.359609 0.953872
0.0833143 0.376928 0.967498
0.208377 0.386297 0.976761
0.384085 0.38204 0.975113
0.584436 0.371115 0.96907
0.783993 0.361471 0.966232
0.951904 0.361135 0.974334
1 0.362188 0.985214
0 0.494484 0.936446
0 0.520516 0.951156
0.0801709 0.539605 0.965118
0.206088 0.550973 0.975082
0.383764 0.548882 0.974365
0.586557 0.540093 0.969299
0.786847 0.531624 0.966567
0.953826 0.531319 0.97377
1 0.530861 0.982376
0 0.661555 0.931899
0 0.689555 0.94931
0.0784619 0.710475 0.964965
0.203143 0.722972 0.975158
0.378561 0.720699 0.972763
0.578851 0.710094 0.963882
0.775738 0.698329 0.95555
0.937499 0.693858 0.956176
1 0.688746 0.957809
0 0.82707 0.94667
0 0.852979 0.965545
0.0908675 0.870878 0.979492
0.209415 0.880049 0.986252
0.377371 0.873747 0.978653
0.57174 0.858183 0.962722
0.763882 0.841123 0.94612
0.919844 0.831983 0.938247
1 0.823453 0.931868
0 0.976181 0.968856
0.0127565 0.996933 0.983978
0.101671 1 0.992752
0.211948 1 0.994736
0.371206 1 0.982635
0.561364 0.983871 0.961608
0.752972 0.96286 0.939925
0.908949 0.951095 0.927932
1 0.942016 0.918959
0 1 0.971313
0.00770581 1 0.981582
0.092195 1 0.985977
0.196384 1 0.985504
0.348562 1 0.972702
0.538231 1 0.950729
0.734234 1 0.928359
0.895842 1 0.916182
1 1 0.907835
