public/filters/konnect/Presets A Lighter Skin Tone/Stylish 1.5.cube_31.2021-06-18 12-03-14.cube
TITLE "Generated by Resolve"
LUT_3D_SIZE 5
0 0.0596323 0.233387
0.0590982 0.0501259 0.218662
0.303365 0.00572213 0.0974899
0.656306 0 0.107424
0.958892 0 0.0920729
0 0.191791 0.222309
0.0656596 0.205966 0.235416
0.340963 0.189181 0.158206
0.724147 0.153597 0.0977188
1 0.158572 0.189487
0 0.448875 0.179889
0.0467994 0.489082 0.204578
0.336339 0.496239 0.197147
0.739528 0.465644 0.105486
1 0.478126 0.218112
0 0.776226 0.163226
0.0481422 0.821576 0.189624
0.328832 0.833707 0.175448
0.729091 0.81001 0.154299
1 0.800702 0.177707
0 1 0.192889
0.0742046 1 0.233494
0.324193 1 0.174289
0.706264 1 0.163073
1 1 0.144137
0 0.0453651 0.363027
0.0567941 0.045594 0.370413
0.303181 0.00390631 0.297551
0.660105 0 0.228763
0.961456 0 0.223285
0 0.193835 0.375006
0.0691386 0.211841 0.395041
0.353094 0.19382 0.340581
0.734356 0.156008 0.25803
1 0.171618 0.344671
0 0.46067 0.34078
0.0561837 0.503075 0.376852
0.352972 0.505806 0.360281
0.75436 0.478447 0.299062
1 0.4925 0.362509
0 0.787182 0.310964
0.0616464 0.836713 0.373022
0.348699 0.843137 0.353246
0.743053 0.81796 0.320348
1 0.807538 0.30692
0 1 0.330266
0.0826886 1 0.386114
0.340139 1 0.34284
0.722042 1 0.293843
1 1 0.276158
0 0.0325322 0.567437
0.0500343 0.0419776 0.581292
0.292943 0.0121767 0.546014
0.656733 0 0.467292
0.960052 0 0.438788
0 0.192126 0.58175
0.0702373 0.214313 0.604807
0.354437 0.207431 0.596063
0.743282 0.170794 0.534966
1 0.178653 0.558297
0 0.4654 0.549111
0.0617838 0.513893 0.597543
0.359319 0.522255 0.604547
0.763302 0.493187 0.555535
1 0.49926 0.569787
0 0.789929 0.51957
0.0699168 0.848249 0.60148
0.355383 0.856107 0.602579
0.749477 0.824094 0.553613
1 0.806653 0.510262
0 1 0.548867
0.0850233 1 0.603235
0.336782 1 0.589914
0.725002 1 0.526055
1 1 0.494987
0 0.0383764 0.781353
0.0449073 0.0377966 0.78146
0.288228 0.0131075 0.758144
0.6551 0 0.707851
0.96286 0 0.67921
0 0.194797 0.787243
0.0730755 0.219425 0.805829
0.360754 0.216281 0.805661
0.754711 0.190906 0.786191
1 0.189654 0.790219
0 0.480262 0.771954
0.0690623 0.524529 0.80264
0.369802 0.533806 0.811658
0.774304 0.515236 0.800031
1 0.515435 0.811368
0 0.809415 0.771939
0.0788891 0.858122 0.814237
0.364813 0.863996 0.816251
0.755398 0.833234 0.783062
1 0.813703 0.760235
0 1 0.793332
0.0867628 1 0.820264
0.340078 1 0.808408
0.726543 1 0.759777
1 1 0.730068
0 0.0359045 0.935149
0.0439307 0.0374304 0.936934
0.288563 0.0148165 0.918257
0.65774 0 0.876127
0.968612 0 0.860502
0 0.201633 0.945708
0.0803845 0.229038 0.964981
0.371435 0.227924 0.967788
0.766369 0.204959 0.954528
1 0.203143 0.964691
0 0.494484 0.936446
0.0801709 0.539605 0.965118
0.383764 0.548882 0.974365
0.786847 0.531624 0.966567
1 0.530861 0.982376
0 0.82707 0.94667
0.0908675 0.870878 0.979492
0.377371 0.873747 0.978653
0.763882 0.841123 0.94612
1 0.823453 0.931868
0 1 0.971313
0.092195 1 0.985977
0.348562 1 0.972702
0.734234 1 0.928359
1 1 0.907835
