public/filters/konnect/Presets A Lighter Skin Tone/Stylish 1.5.cube_31.2021-06-18 12-03-14.cube
TITLE "Generated by Resolve"
LUT_3D_SIZE 33
0 0.0596323 0.233387
0 0.0593271 0.233112
0 0.0586557 0.232425
0 0.0577707 0.231464
0 0.0566873 0.230198
0.00201419 0.0554513 0.228565
0.0200809 0.0538949 0.2262
0.0390478 0.0521553 0.223026
0.0590982 0.0501259 0.218662
0.0804761 0.0476844 0.212741
0.103593 0.0446174 0.20441
0.128908 0.0406653 0.192782
0.157107 0.0356146 0.177462
0.188602 0.0293584 0.158831
0.223636 0.0220035 0.137865
0.262181 0.0139162 0.116716
0.303365 0.00572213 0.0974899
0.346166 0 0.0813458
0.389334 0 0.0702525
0.43209 0 0.0659342
0.475792 0 0.0672465
0.520516 0 0.0737163
0.565881 0 0.0853742
0.611429 0 0.0982986
0.656306 0 0.107424
0.699489 0 0.112535
0.740627 0 0.113664
0.779263 0 0.110674
0.816114 0 0.106325
0.851728 0 0.10251
0.886809 0 0.0990005
0.922179 0 0.095613
0.958892 0 0.0920729
0 0.0688792 0.233692
0 0.0694133 0.234501
0 0.0694133 0.234562
0 0.0690623 0.234165
0 0.0684672 0.233326
0.00421149 0.0676432 0.231617
0.0225528 0.0664683 0.228595
0.0418555 0.0650797 0.224079
0.0623026 0.0633707 0.217685
0.0841688 0.0612345 0.209201
0.107744 0.0585489 0.19939
0.133486 0.0550546 0.188205
0.16199 0.0490578 0.175235
0.193683 0.0429389 0.160418
0.228794 0.035935 0.143999
0.267384 0.0279088 0.126116
0.308705 0.0191958 0.107713
0.351781 0.0103304 0.0900282
0.395422 0.00210575 0.0750591
0.438773 0 0.0662089
0.483055 0 0.0633249
0.528145 0 0.0665599
0.573693 0 0.0766461
0.619287 0 0.0920119
0.664164 0 0.105257
0.707332 0 0.114595
0.74847 0 0.119478
0.787396 0 0.119631
0.824353 0 0.116258
0.860166 0 0.112871
0.895613 0 0.109773
0.931197 0 0.106523
0.968322 0 0.103288
0 0.0812543 0.233753
0 0.0821851 0.235111
0 0.0825513 0.23563
0 0.0825666 0.235691
0 0.0822919 0.235355
0.0056611 0.0818341 0.234745
0.0242008 0.0810407 0.233036
0.0437324 0.0800183 0.229206
0.0644999 0.0786908 0.222889
0.0867628 0.0769207 0.213718
0.110933 0.0745708 0.201434
0.137362 0.0715648 0.187594
0.166506 0.0679179 0.174289
0.198703 0.0635233 0.161425
0.234195 0.0582742 0.148409
0.27303 0.0521401 0.1346
0.314611 0.0450752 0.118837
0.358114 0.0370794 0.100206
0.402335 0.0285649 0.0807355
0.446571 0.0203098 0.0646677
0.4916 0.0127565 0.0551003
0.537041 0.00633249 0.0529946
0.582574 0.00117494 0.0598154
0.627695 0 0.0751354
0.672587 0 0.0945449
0.715969 0 0.110689
0.757351 0 0.121706
0.79646 0 0.126574
0.833616 0 0.125948
0.869612 0 0.122896
0.905333 0 0.120134
0.941619 0 0.117433
0.979232 0 0.114595
0 0.0955215 0.233463
0 0.0967727 0.235218
0 0.0974441 0.236133
0 0.0977646 0.23653
0 0.0977798 0.236561
0.00654612 0.0975967 0.236301
0.0253147 0.0971389 0.235691
0.0449836 0.0965438 0.234653
0.0658427 0.0956893 0.231968
0.0882429 0.0944381 0.226474
0.112566 0.092668 0.217807
0.1393 0.0901961 0.205814
0.169085 0.0868086 0.190661
0.202075 0.0825513 0.174472
0.238422 0.0774243 0.158312
0.278111 0.0713664 0.141405
0.320424 0.0644388 0.122789
0.364492 0.056733 0.102098
0.409186 0.0484779 0.0799115
0.454139 0.0400244 0.0588998
0.499779 0.0323796 0.0450446
0.545571 0.0261692 0.0395361
0.591287 0.0218357 0.044007
0.636866 0.0193027 0.0592966
0.681849 0.0179446 0.0839399
0.725307 0.0163119 0.10631
0.766796 0.0144961 0.123522
0.806058 0.0126192 0.13341
0.843488 0.0107118 0.136095
0.879774 0.0087892 0.133471
0.915877 0.00708019 0.131106
0.952667 0.00537118 0.128756
0.990692 0.00347906 0.126268
0 0.111437 0.232715
0 0.112963 0.234806
0 0.113939 0.236027
0 0.114534 0.236759
0 0.114855 0.237125
0.00688182 0.114946 0.237186
0.0259098 0.114778 0.236912
0.0458839 0.114473 0.236454
0.0669718 0.114 0.235752
0.0895247 0.113207 0.233951
0.114 0.111955 0.229603
0.140993 0.110002 0.221424
0.171145 0.107134 0.208576
0.204822 0.103105 0.190356
0.242237 0.0978103 0.167834
0.283085 0.0913252 0.143313
0.326421 0.0839246 0.118334
0.371221 0.0758221 0.0934005
0.416251 0.0674907 0.0699474
0.46157 0.0591745 0.0493172
0.507424 0.0519112 0.036408
0.553384 0.0462043 0.0315251
0.599283 0.0424659 0.0361486
0.645106 0.0406806 0.051957
0.690501 0.0403601 0.0793317
0.734447 0.039704 0.105714
0.776379 0.0386969 0.127214
0.816037 0.0375372 0.140978
0.85388 0.0362554 0.146349
0.890562 0.0348363 0.14461
0.927138 0.0336004 0.142702
0.964508 0.0323339 0.14078
1 0.03093 0.138735
0 0.128908 0.231388
0 0.130739 0.233722
0 0.132021 0.235248
0 0.132937 0.236286
0 0.133547 0.236957
0.00657664 0.133944 0.237354
0.0259098 0.134081 0.237446
0.0462043 0.134096 0.237354
0.0676585 0.133913 0.236881
0.0906081 0.13344 0.235569
0.115496 0.13254 0.232486
0.142931 0.130953 0.225696
0.173632 0.128374 0.21326
0.20798 0.124559 0.194202
0.246235 0.119265 0.16878
0.28806 0.112413 0.139025
0.332326 0.104402 0.10901
0.377783 0.0958419 0.081529
0.423102 0.0874037 0.0581064
0.468696 0.0793927 0.0395514
0.514672 0.0727703 0.0289769
0.560784 0.0678569 0.026154
0.606928 0.0648356 0.0316167
0.653117 0.063798 0.0476081
0.69897 0.064332 0.0751049
0.743511 0.0647593 0.104631
0.786007 0.0646677 0.129503
0.8262 0.0643015 0.146868
0.864607 0.0637369 0.15555
0.901854 0.0629282 0.156237
0.938979 0.0621347 0.154818
0.976944 0.061265 0.153353
1 0.0602731 0.151766
0 0.148043 0.229252
0 0.15021 0.23183
0 0.151843 0.233616
0 0.153079 0.234958
0 0.154025 0.23595
0.00550851 0.154757 0.236683
0.0251621 0.15523 0.237079
0.0458228 0.155581 0.237125
0.0677195 0.155718 0.236561
0.0911421 0.155581 0.235019
0.116533 0.155016 0.232044
0.144411 0.153841 0.227192
0.175448 0.151858 0.21944
0.209964 0.148882 0.207813
0.248234 0.144747 0.191852
0.289998 0.139452 0.172061
0.33431 0.133211 0.149691
0.380011 0.126452 0.127474
0.425834 0.119753 0.107973
0.47219 0.113283 0.092195
0.519509 0.107424 0.0821698
0.567315 0.102708 0.0797131
0.615259 0.0991836 0.0841688
0.662791 0.0968185 0.0953078
0.709209 0.0955673 0.113191
0.753933 0.0948501 0.133013
0.796506 0.0942245 0.148867
0.836866 0.0937667 0.160128
0.875593 0.093431 0.166506
0.913344 0.0930343 0.168002
0.950988 0.0925917 0.167086
0.989532 0.0920577 0.166049
1 0.0914015 0.16492
0 0.168963 0.226215
0 0.171496 0.229038
0 0.17348 0.231083
0 0.175113 0.232731
0 0.17644 0.234073
0.00367742 0.177569 0.235172
0.0237125 0.178439 0.235904
0.0447852 0.179141 0.235843
0.067155 0.179614 0.234607
0.0911116 0.179751 0.231739
0.117113 0.179385 0.22678
0.145708 0.178347 0.219425
0.177401 0.176532 0.210376
0.212497 0.173846 0.199588
0.251255 0.170153 0.186694
0.293385 0.165499 0.171695
0.338003 0.160067 0.155047
0.384085 0.154116 0.137194
0.430442 0.147982 0.119371
0.477531 0.141711 0.10277
0.525643 0.135622 0.0894942
0.574105 0.130617 0.0831311
0.622538 0.126925 0.0839399
0.670481 0.124697 0.0922255
0.717311 0.123964 0.108614
0.762631 0.124178 0.130617
0.805829 0.124422 0.150072
0.846784 0.124697 0.165011
0.886122 0.124956 0.174777
0.924483 0.125048 0.178958
0.962676 0.12491 0.178988
1 0.124605 0.178393
1 0.124193 0.177707
0 0.191791 0.222309
0 0.194751 0.22536
0 0.197177 0.227726
0 0.199222 0.229694
0 0.200992 0.231373
0.00112917 0.202533 0.232868
0.0215305 0.203845 0.234119
0.0429541 0.20502 0.235264
0.0656596 0.205966 0.235416
0.0900435 0.206516 0.23331
0.116533 0.206531 0.228473
0.145678 0.205798 0.220508
0.178088 0.204105 0.209079
0.213931 0.20148 0.195789
0.25333 0.198032 0.182925
0.295949 0.193866 0.170504
0.340963 0.189181 0.158206
0.387442 0.184146 0.145693
0.434318 0.178897 0.13193
0.482139 0.173053 0.11574
0.531029 0.166766 0.0991379
0.580179 0.161013 0.0866407
0.629023 0.156664 0.0814527
0.677134 0.154116 0.0846876
0.724147 0.153597 0.0977188
0.769879 0.154589 0.119615
0.813794 0.156024 0.144106
0.855497 0.157244 0.164569
0.895537 0.15819 0.179278
0.934585 0.158801 0.187457
0.973419 0.158999 0.189914
1 0.158755 0.18967
1 0.158572 0.189487
0 0.216739 0.217533
0 0.220172 0.220844
0 0.223056 0.223484
0 0.225574 0.225788
0 0.227802 0.227832
0 0.229801 0.229694
0.018555 0.23154 0.231342
0.0403754 0.233158 0.232914
0.0634623 0.234607 0.234333
0.0881514 0.235767 0.235279
0.114931 0.236454 0.234302
0.144366 0.236408 0.230213
0.177111 0.235447 0.222614
0.213428 0.233417 0.211368
0.253529 0.230243 0.196902
0.296956 0.226184 0.181704
0.342794 0.221607 0.167254
0.390021 0.216709 0.153033
0.437598 0.211612 0.13814
0.486091 0.205982 0.121691
0.535622 0.19971 0.103822
0.585306 0.193439 0.0873884
0.63447 0.18854 0.078172
0.682719 0.185641 0.0776074
0.729793 0.185168 0.0875105
0.775753 0.186725 0.108095
0.820356 0.189334 0.1364
0.86276 0.191516 0.161822
0.903502 0.193164 0.181628
0.943191 0.194247 0.194003
0.982635 0.194736 0.199283
1 0.194553 0.19942
1 0.194415 0.199603
0 0.243915 0.211917
0 0.247837 0.215503
0 0.251209 0.218448
0 0.254215 0.221088
0 0.256901 0.223484
0 0.259373 0.225742
0.0149081 0.261585 0.227802
0.0371405 0.263676 0.229786
0.0606546 0.265599 0.231617
0.085771 0.267231 0.233143
0.112902 0.268498 0.234195
0.142672 0.269154 0.233768
0.175708 0.268956 0.230503
0.21236 0.267704 0.223346
0.252872 0.265217 0.211795
0.296941 0.261479 0.195621
0.343603 0.256733 0.176455
0.391684 0.251392 0.156405
0.439963 0.245838 0.136797
0.489052 0.239811 0.117388
0.539055 0.233433 0.0989548
0.589151 0.227222 0.0829786
0.638666 0.222538 0.0743572
0.68719 0.219883 0.0738384
0.734447 0.219669 0.0831159
0.780652 0.221637 0.103136
0.825681 0.224979 0.132967
0.868559 0.227771 0.160998
0.909789 0.229877 0.18378
0.949966 0.23125 0.199023
0.989883 0.231876 0.206348
1 0.231708 0.207111
1 0.23151 0.207584
0 0.273274 0.205768
0 0.277699 0.209659
0 0.281575 0.212955
0 0.285069 0.215946
0 0.288258 0.218738
0 0.291234 0.221408
0.0109865 0.293919 0.22385
0.0336309 0.296498 0.226169
0.0575723 0.298878 0.228244
0.0831311 0.300999 0.229908
0.110719 0.302678 0.230869
0.140887 0.303777 0.230671
0.174289 0.304067 0.228794
0.211261 0.303319 0.223667
0.252125 0.301305 0.213733
0.296605 0.297932 0.198459
0.343755 0.293339 0.178378
0.392432 0.287694 0.154589
0.44126 0.281559 0.130663
0.490822 0.275044 0.108751
0.541176 0.268452 0.0899062
0.591546 0.262379 0.0750439
0.641306 0.258091 0.0680552
0.690089 0.256031 0.0693675
0.737575 0.256291 0.0793927
0.783932 0.258564 0.09897
0.829099 0.262211 0.128252
0.872312 0.265476 0.157992
0.913832 0.267857 0.182681
0.95436 0.269413 0.200229
0.994644 0.27013 0.209873
1 0.269947 0.212284
1 0.269612 0.212955
0 0.304753 0.199496
0 0.309682 0.203754
0 0.314076 0.207431
0 0.318074 0.210834
0 0.321767 0.214008
0 0.325246 0.217014
0.00723278 0.32842 0.219684
0.0302892 0.331441 0.22211
0.054612 0.334249 0.224125
0.0805524 0.336736 0.225483
0.108507 0.33875 0.225895
0.13904 0.340139 0.224994
0.172747 0.340749 0.222965
0.209964 0.340459 0.219577
0.250935 0.339147 0.214038
0.295445 0.336736 0.205554
0.342626 0.33341 0.193927
0.391424 0.329259 0.178714
0.44062 0.324605 0.160998
0.490684 0.319478 0.14287
0.541772 0.314122 0.126574
0.593057 0.309056 0.113603
0.643885 0.305119 0.106874
0.693645 0.302846 0.107912
0.741756 0.302205 0.11606
0.788128 0.302907 0.130816
0.832715 0.304616 0.151736
0.875334 0.306493 0.173556
0.916411 0.307927 0.19118
0.95668 0.308904 0.204028
0.99704 0.309438 0.211963
1 0.309316 0.215015
1 0.309117 0.216114
0 0.338262 0.193561
0 0.343694 0.19826
0 0.348608 0.202335
0 0.353094 0.206073
0 0.357244 0.209491
0 0.361151 0.212589
0.00395209 0.364706 0.215213
0.0273747 0.368093 0.217502
0.0520333 0.371252 0.219287
0.0782788 0.374029 0.220066
0.106523 0.376287 0.219501
0.137331 0.377859 0.217243
0.171328 0.378561 0.213382
0.20882 0.378317 0.208011
0.250019 0.377142 0.201831
0.294652 0.375067 0.194888
0.341878 0.372274 0.186908
0.390692 0.368887 0.17702
0.439963 0.365133 0.165179
0.490181 0.360769 0.151278
0.541558 0.35584 0.136263
0.593164 0.350759 0.121981
0.644205 0.346288 0.111574
0.693996 0.343313 0.108446
0.74197 0.342046 0.112734
0.788128 0.342336 0.1243
0.832532 0.343862 0.143145
0.875181 0.345937 0.165972
0.916518 0.347738 0.185718
0.957198 0.349142 0.200931
0.998001 0.350042 0.21117
1 0.35021 0.216114
1 0.350164 0.217807
0 0.373632 0.188449
0 0.379522 0.1935
0 0.384848 0.197833
0 0.389731 0.201694
0 0.394247 0.205066
0 0.398505 0.208026
0.00146487 0.402365 0.210452
0.0251926 0.406043 0.212558
0.0501106 0.409506 0.214359
0.0765393 0.412634 0.215869
0.104906 0.415259 0.216358
0.135805 0.417151 0.214801
0.169894 0.418097 0.211002
0.207462 0.418036 0.205173
0.248798 0.416831 0.197147
0.293584 0.414694 0.188296
0.340871 0.41207 0.180636
0.389685 0.409125 0.173663
0.438911 0.406012 0.166293
0.489128 0.402487 0.157748
0.540597 0.398291 0.146883
0.592416 0.393484 0.133227
0.643641 0.388617 0.119661
0.69337 0.38468 0.110704
0.74107 0.382376 0.108995
0.786892 0.381933 0.115373
0.831159 0.383291 0.130571
0.874037 0.385779 0.152728
0.915816 0.388312 0.175677
0.956909 0.390326 0.194415
0.998093 0.391653 0.207752
1 0.392157 0.215244
1 0.392309 0.218372
0 0.410498 0.184207
0 0.416754 0.189364
0 0.422461 0.193652
0 0.427665 0.197314
0 0.432486 0.200427
0 0.436988 0.203128
0 0.441108 0.205402
0.0235904 0.445045 0.207507
0.0486915 0.448753 0.209506
0.0752422 0.45214 0.211383
0.103655 0.45507 0.213123
0.134493 0.45742 0.214374
0.16846 0.458854 0.21387
0.20589 0.459281 0.211215
0.247074 0.458549 0.206119
0.291814 0.456687 0.198596
0.339223 0.453986 0.189258
0.388174 0.450874 0.18027
0.437537 0.447654 0.171695
0.487755 0.444083 0.162585
0.539239 0.439948 0.151843
0.591165 0.435386 0.139025
0.642542 0.43061 0.124788
0.692409 0.426337 0.112505
0.740139 0.423575 0.106828
0.78587 0.422705 0.109071
0.83003 0.423819 0.120623
0.872923 0.42649 0.140749
0.914992 0.429633 0.165606
0.956374 0.432181 0.187152
0.997818 0.433967 0.203571
1 0.434775 0.21355
1 0.435126 0.218173
0 0.448875 0.179889
0 0.455482 0.184833
0 0.461479 0.188739
0 0.466957 0.192035
0 0.471992 0.194858
0 0.476646 0.197345
0 0.481025 0.19971
0.021622 0.485176 0.202106
0.0467994 0.489082 0.204578
0.0733806 0.492668 0.207034
0.101778 0.495796 0.209339
0.13254 0.498314 0.211185
0.166339 0.499992 0.212192
0.203555 0.50071 0.211887
0.24448 0.500298 0.209598
0.289036 0.498741 0.204639
0.336339 0.496239 0.197147
0.385458 0.493126 0.187427
0.435157 0.489693 0.176059
0.485679 0.485878 0.163622
0.537499 0.481605 0.1505
0.589731 0.476997 0.136568
0.641398 0.472389 0.122774
0.691554 0.468269 0.110994
0.739528 0.465644 0.105486
0.785428 0.46479 0.107027
0.829633 0.465827 0.116991
0.872511 0.468467 0.135515
0.914672 0.471855 0.160433
0.956176 0.474647 0.182895
0.997711 0.476646 0.200656
1 0.477638 0.212207
1 0.478126 0.218112
0 0.488701 0.17673
0 0.495598 0.181949
0 0.501839 0.185992
0 0.5075 0.189075
0 0.512673 0.191287
0 0.517403 0.193164
0 0.521904 0.195224
0.0192569 0.526146 0.197528
0.0444495 0.530159 0.200122
0.070985 0.533837 0.202853
0.0992752 0.537026 0.205203
0.129885 0.539544 0.206744
0.163485 0.541176 0.206989
0.20058 0.541863 0.205905
0.241413 0.541634 0.204044
0.285939 0.540398 0.200458
0.333364 0.538262 0.194476
0.38265 0.53547 0.186069
0.432593 0.53225 0.175387
0.483345 0.528389 0.161227
0.535378 0.523888 0.145556
0.587777 0.519127 0.13019
0.639612 0.514504 0.116365
0.689952 0.510521 0.105303
0.73814 0.508171 0.101045
0.784268 0.507607 0.103853
0.828595 0.508766 0.113878
0.871473 0.51136 0.131334
0.913588 0.514717 0.155154
0.955108 0.517617 0.177981
0.996658 0.519677 0.196323
1 0.520699 0.208972
1 0.521202 0.216175
0 0.529442 0.173373
0 0.536568 0.179385
0 0.543038 0.184543
0 0.548959 0.189197
0 0.554421 0.19353
0 0.559472 0.197589
0 0.563149 0.190356
0.0166018 0.567514 0.193606
0.0417182 0.571527 0.196384
0.0681621 0.575158 0.198505
0.0963912 0.578332 0.199939
0.127001 0.580911 0.200397
0.160662 0.582666 0.199588
0.197833 0.58349 0.197253
0.238697 0.583413 0.194766
0.283207 0.582483 0.192233
0.330587 0.58088 0.189425
0.379828 0.57879 0.186069
0.429786 0.576471 0.181979
0.480537 0.573587 0.174441
0.532769 0.569955 0.163653
0.58555 0.565927 0.1514
0.637888 0.561929 0.13959
0.688869 0.558404 0.129793
0.737652 0.556146 0.125536
0.784222 0.555398 0.127855
0.828717 0.555978 0.135973
0.871366 0.55761 0.149264
0.912947 0.559838 0.166781
0.953948 0.561929 0.1841
0.99501 0.563394 0.197757
1 0.564065 0.207385
1 0.564324 0.213413
0 0.570672 0.16994
0 0.57789 0.176181
0 0.584421 0.181643
0 0.590372 0.186404
0 0.595804 0.19028
0 0.600717 0.193103
0 0.605264 0.194888
0.0138399 0.609445 0.19559
0.0391546 0.613382 0.195636
0.0657969 0.616999 0.195346
0.0942092 0.620203 0.19472
0.124895 0.622827 0.193378
0.158602 0.624643 0.191043
0.195758 0.625498 0.187381
0.236622 0.625437 0.183383
0.281147 0.624521 0.179492
0.328496 0.623026 0.176486
0.377691 0.62121 0.174624
0.427604 0.619364 0.173785
0.478202 0.617136 0.171099
0.530358 0.614176 0.165423
0.583215 0.610681 0.156924
0.635737 0.606958 0.146563
0.686915 0.603387 0.135958
0.73579 0.600732 0.128817
0.7823 0.599466 0.127886
0.826596 0.599573 0.132967
0.869017 0.600824 0.143709
0.910323 0.602808 0.159487
0.95111 0.604852 0.177066
0.991958 0.606271 0.191409
1 0.606836 0.201816
1 0.606973 0.208652
0 0.611917 0.166598
0 0.619135 0.173144
0 0.62562 0.178607
0 0.631617 0.183597
0 0.637186 0.187976
0 0.642344 0.191363
0 0.64712 0.19353
0.0123598 0.651484 0.194339
0.0378576 0.655558 0.193896
0.0646372 0.659251 0.192477
0.0931106 0.662501 0.1906
0.123796 0.665232 0.188647
0.157382 0.667201 0.186236
0.1944 0.668238 0.182696
0.235096 0.668315 0.178622
0.279484 0.667491 0.174563
0.326802 0.665965 0.170504
0.375967 0.664088 0.167468
0.425864 0.662318 0.166842
0.476295 0.660471 0.166888
0.528283 0.658 0.165072
0.581048 0.65507 0.161135
0.633646 0.65182 0.154604
0.684977 0.648432 0.145327
0.733959 0.645502 0.136141
0.780362 0.643595 0.130983
0.824384 0.642954 0.131456
0.866361 0.643549 0.137957
0.907195 0.64506 0.150515
0.947585 0.646891 0.166934
0.988098 0.648249 0.182422
1 0.648707 0.194141
1 0.648692 0.202075
0 0.652857 0.163165
0 0.660258 0.170809
0 0.666941 0.176349
0 0.673075 0.181155
0 0.678767 0.185153
0 0.684047 0.188281
0 0.68893 0.190402
0.0124971 0.693431 0.191333
0.0381323 0.697643 0.191226
0.0649577 0.701488 0.190188
0.0934157 0.704875 0.188403
0.12398 0.707713 0.186343
0.157382 0.709865 0.184405
0.194095 0.711208 0.182559
0.234455 0.71162 0.180224
0.278523 0.711131 0.178088
0.325582 0.709895 0.175891
0.37464 0.708125 0.173571
0.424567 0.706157 0.171496
0.474861 0.704173 0.170611
0.526696 0.70164 0.168521
0.579339 0.69868 0.164858
0.631876 0.69546 0.159197
0.683207 0.69218 0.151324
0.732235 0.689158 0.14197
0.778531 0.686854 0.134447
0.822293 0.685634 0.131624
0.863828 0.685588 0.134447
0.904097 0.686519 0.143572
0.943877 0.687907 0.157687
0.983886 0.689067 0.173327
1 0.689326 0.185794
1 0.689097 0.194705
0 0.69398 0.161227
0 0.70161 0.170047
0 0.70837 0.175326
0 0.714595 0.179568
0 0.720317 0.182681
0 0.725567 0.184939
0 0.730449 0.186557
0.0143282 0.735027 0.18764
0.0400702 0.739361 0.188281
0.0669108 0.743389 0.188571
0.0952468 0.74699 0.188373
0.125628 0.750042 0.18764
0.158724 0.752361 0.186389
0.195132 0.753796 0.18468
0.235142 0.754284 0.182574
0.278843 0.753872 0.180728
0.325612 0.752712 0.179217
0.374456 0.751019 0.177752
0.424231 0.749035 0.176455
0.474327 0.746929 0.175189
0.525917 0.744183 0.172091
0.578378 0.740963 0.167041
0.630716 0.737514 0.160555
0.68191 0.734066 0.152514
0.730831 0.730953 0.14374
0.776989 0.728481 0.136355
0.820539 0.727016 0.13312
0.861708 0.726558 0.134554
0.901427 0.72694 0.141421
0.940566 0.727794 0.15317
0.979919 0.728573 0.167529
1 0.728603 0.179385
1 0.728008 0.187991
0 0.73521 0.161715
0 0.743084 0.172198
0 0.749966 0.178302
0 0.756268 0.182956
0 0.76202 0.186206
0 0.767285 0.187976
0 0.772045 0.188281
0.0176394 0.776516 0.188296
0.043473 0.780835 0.188678
0.0702678 0.784909 0.189395
0.0984512 0.788632 0.190249
0.128573 0.791836 0.190967
0.161303 0.794263 0.190616
0.19733 0.795697 0.188663
0.236957 0.796033 0.185153
0.280339 0.795331 0.181033
0.326802 0.793957 0.178134
0.375357 0.792111 0.176303
0.424903 0.790036 0.175357
0.474647 0.787884 0.175143
0.525841 0.785168 0.173785
0.577981 0.781735 0.168612
0.63006 0.777966 0.16112
0.681025 0.774227 0.152453
0.729763 0.77084 0.143542
0.775738 0.768109 0.135943
0.819043 0.7664 0.132921
0.859922 0.765667 0.134417
0.899199 0.765652 0.140291
0.937743 0.766049 0.150195
0.97644 0.766384 0.162829
1 0.766094 0.173724
1 0.765194 0.181628
0 0.776226 0.163226
0 0.784253 0.174884
0 0.791257 0.182345
0 0.79762 0.188342
0 0.80354 0.193668
0 0.809033 0.198367
0 0.814176 0.202686
0.0222019 0.819013 0.206699
0.0481422 0.821576 0.189624
0.074815 0.825803 0.192508
0.102815 0.829587 0.194491
0.132631 0.832731 0.195117
0.164981 0.83505 0.194186
0.20058 0.836316 0.191348
0.23975 0.836454 0.186526
0.282719 0.835431 0.180285
0.328832 0.833707 0.175448
0.37705 0.831586 0.172732
0.426215 0.829374 0.172381
0.475486 0.827222 0.174243
0.526101 0.824643 0.176638
0.577783 0.821317 0.175219
0.629572 0.817517 0.170214
0.680385 0.813611 0.162768
0.729091 0.81001 0.154299
0.77499 0.807004 0.146319
0.818173 0.804898 0.14226
0.858824 0.803723 0.142733
0.897704 0.803204 0.146929
0.935683 0.802991 0.154131
0.973663 0.802747 0.163455
1 0.801999 0.171908
1 0.800702 0.177707
0 0.816968 0.167269
0 0.82501 0.179141
0 0.832013 0.187228
0 0.838331 0.193561
0 0.844205 0.199344
0 0.849622 0.204227
0.00337224 0.854582 0.207675
0.027924 0.859113 0.209476
0.0535897 0.863188 0.209491
0.0801251 0.866835 0.207706
0.107927 0.870008 0.204715
0.137484 0.872633 0.20116
0.169451 0.87451 0.19707
0.204593 0.875441 0.192004
0.243259 0.875288 0.18584
0.28571 0.873991 0.178668
0.33138 0.871885 0.172457
0.379202 0.869368 0.168231
0.428 0.866804 0.166918
0.476814 0.864424 0.168902
0.526818 0.861769 0.172854
0.577966 0.858473 0.174594
0.629343 0.854673 0.172961
0.679942 0.85069 0.168048
0.728542 0.846876 0.160525
0.774365 0.843519 0.151888
0.817365 0.840925 0.145556
0.85771 0.839231 0.143481
0.896147 0.838209 0.145342
0.933623 0.837568 0.150561
0.971008 0.836957 0.158434
1 0.835935 0.166583
1 0.834363 0.172244
0 0.857099 0.171496
0 0.865202 0.184176
0 0.872145 0.192935
0 0.87837 0.199359
0 0.884092 0.205097
0 0.889387 0.210193
0.00973526 0.89424 0.214313
0.0340581 0.89865 0.216876
0.0595865 0.902571 0.217365
0.0858778 0.906035 0.215686
0.113359 0.908949 0.211826
0.14255 0.911192 0.206241
0.17406 0.912673 0.199878
0.208667 0.913252 0.193347
0.246738 0.912825 0.186557
0.288533 0.911345 0.179477
0.333669 0.90901 0.173205
0.381018 0.906233 0.168872
0.429496 0.903258 0.166552
0.477974 0.900435 0.167041
0.527474 0.897459 0.170214
0.578103 0.894026 0.17351
0.629084 0.89012 0.174228
0.679408 0.88603 0.172213
0.727932 0.882063 0.167285
0.773724 0.878477 0.159701
0.816678 0.875456 0.151965
0.85684 0.873228 0.147173
0.894926 0.871656 0.145983
0.931899 0.870497 0.148363
0.968719 0.869474 0.154025
1 0.868193 0.16112
1 0.866407 0.166781
0 0.896635 0.175906
0 0.904692 0.189258
0 0.911543 0.198611
0 0.917601 0.205142
0 0.923095 0.210315
0 0.928115 0.214542
0.0161593 0.932647 0.217639
0.0400092 0.936751 0.219501
0.0653697 0.940368 0.219745
