public/filters/konnect/Presets A Lighter Skin Tone/Vibrant 1.2_25.2021-06-18 12-03-14.cube
TITLE "Generated by Resolve"
LUT_3D_SIZE 9
0 0 0
0.205936 0 0
0.370672 0 0
0.527184 0 0
0.678981 0 0
0.827512 0 0
0.973587 0 0
1 0 0
1 0 0
0 0.166598 0
0.146456 0.148348 0
0.323415 0.13521 0
0.484352 0.126497 0
0.638071 0.119677 0
0.787564 0.113863 0
0.934157 0.108659 0
1 0.103883 0
1 0.0993668 0
0 0.310964 0
0.102739 0.296101 0
0.279286 0.282658 0
0.445029 0.271504 0
0.602121 0.262638 0
0.753674 0.255253 0
0.901534 0.248814 0
1 0.243015 0
1 0.237675 0
0 0.449653 0
0.071458 0.435828 0
0.242176 0.423758 0
0.40763 0.41239 0
0.56672 0.402411 0
0.720302 0.393835 0
0.869718 0.386343 0
1 0.379644 0
1 0.373541 0
0 0.584878 0
0.0452125 0.571466 0
0.211429 0.560265 0
0.374319 0.549432 0
0.533181 0.539284 0
0.687724 0.530083 0
0.838361 0.521843 0
0.985794 0.514397 0
1 0.507607 0
0 0.717708 0
0.0215 0.704433 0
0.18468 0.693736 0
0.344884 0.683436 0
0.502373 0.673503 0
0.656733 0.664149 0
0.807874 0.655497 0
0.956069 0.647547 0
1 0.640208 0
0 0.848646 0
0 0.835416 0
0.160342 0.824994 0
0.318334 0.815061 0
0.474159 0.805432 0
0.62768 0.796155 0
0.778668 0.787366 0
0.927153 0.779141 0
1 0.771435 0
0 0.978073 0
0 0.964813 0
0.137606 0.954543 0
0.293873 0.944869 0
0.448127 0.9355 0
0.600519 0.92639 0
0.750957 0.917632 0
0.899306 0.909285 0
1 0.901366 0
0 1 0
0 1 0
0.11603 1 0
0.270909 1 0
0.423819 1 0
0.575082 1 0
0.724727 1 0
0.872663 1 0
1 1 0
0 0 0.224353
0.198734 0 0.210101
0.369345 0 0.190433
0.526665 0 0.177813
0.678401 0 0.168933
0.826719 0 0.161944
0.972549 0 0.156039
1 0 0.150835
1 0 0.14609
0 0.159213 0.170153
0.136217 0.140566 0.163668
0.328969 0.125414 0.136995
0.487297 0.11812 0.128923
0.639551 0.112093 0.122667
0.788144 0.106767 0.117266
0.934096 0.101884 0.112398
1 0.097322 0.107881
1 0.0930037 0.103624
0 0.306065 0.126894
0.0848554 0.293828 0.100252
0.273747 0.277668 0.0827955
0.446403 0.264179 0.0832685
0.60383 0.255161 0.0821546
0.754788 0.248005 0.0796368
0.902022 0.241825 0.076524
1 0.236255 0.0731823
1 0.231098 0.069749
0 0.445304 0.0962234
0.0569772 0.432868 0.0728923
0.229877 0.420783 0.0543984
0.40235 0.407507 0.0467231
0.565454 0.396201 0.0453346
0.720241 0.387152 0.0443885
0.86981 0.379568 0.0427863
1 0.37293 0.0406195
1 0.366934 0.0380865
0 0.580667 0.0709544
0.032578 0.568109 0.0495918
0.198856 0.557275 0.032517
0.365072 0.545754 0.0208743
0.527993 0.534432 0.0153811
0.685145 0.524361 0.0130922
0.837018 0.515663 0.0115969
0.984909 0.508034 0.00996414
1 0.501198 0.0080415
0 0.713512 0.0484627
0.0100099 0.700816 0.0283055
0.172747 0.690471 0.0122835
0.334371 0.680003 0
0.494545 0.669413 0
0.65156 0.659266 0
0.804562 0.650004 0
0.953826 0.641657 0
1 0.634104 0
0 0.844434 0.0276188
0 0.831632 0.00827039
0.149111 0.8215 0
0.307668 0.811612 0
0.465049 0.801648 0
0.620615 0.791836 0
0.773495 0.782467 0
0.923369 0.77377 0
1 0.765759 0
0 0.973816 0.00788891
0 0.960891 0
0.126955 0.950881 0
0.283375 0.941299 0
0.438529 0.931792 0
0.592355 0.922362 0
0.74435 0.913146 0
0.894133 0.904372 0
1 0.896086 0
0 1 0
0 1 0
0.105852 1 0
0.260716 1 0
0.414115 1 0
0.566339 1 0
0.717189 1 0
0.866377 1 0
1 1 0
0 0 0.401099
0.184771 0 0.393851
0.359747 0 0.379904
0.521553 0 0.36492
0.675395 0 0.35259
0.824643 0 0.342748
0.970901 0 0.334615
1 0 0.327642
1 0 0.321508
0 0.151614 0.359976
0.132738 0.135042 0.357733
0.320577 0.119783 0.34435
0.485817 0.111681 0.323278
0.6392 0.10602 0.309331
0.787869 0.10103 0.299413
0.933715 0.0964065 0.291585
1 0.0920577 0.284977
1 0.0878767 0.279118
0 0.299413 0.318837
0.0802167 0.286763 0.308049
0.263828 0.270466 0.30576
0.452247 0.255238 0.277455
0.607065 0.247776 0.268223
0.756649 0.241428 0.26125
0.903044 0.235737 0.255253
1 0.230503 0.249866
1 0.225574 0.244892
0 0.440146 0.282887
0.0476844 0.428656 0.264134
0.213321 0.41912 0.241199
0.397498 0.403418 0.22295
0.56759 0.389746 0.223529
0.72256 0.380636 0.222171
0.871473 0.373342 0.219318
1 0.366979 0.215885
1 0.361196 0.212207
0 0.576318 0.252934
0.0231632 0.564553 0.232822
0.18584 0.555032 0.213062
0.353704 0.543664 0.194797
0.523568 0.53048 0.186938
0.684688 0.519081 0.185595
0.83769 0.509941 0.184604
0.985672 0.502266 0.182864
1 0.495506 0.180499
0 0.709529 0.227054
0.000991836 0.697459 0.207126
0.161563 0.687907 0.189364
0.323003 0.677852 0.172885
0.486259 0.666636 0.161196
0.647257 0.655344 0.155673
0.802838 0.645228 0.153414
0.953277 0.636454 0.151904
1 0.628733 0.150195
0 0.84065 0.203754
0 0.828305 0.184298
0.13901 0.818723 0.167773
0.297047 0.809201 0.152514
0.455665 0.799115 0.139971
0.613794 0.788678 0.131548
0.769253 0.778561 0.126757
0.920943 0.769253 0.124025
1 0.760861 0.122011
0 0.970123 0.182193
0 0.957565 0.163165
0.117586 0.947936 0.147478
0.273472 0.938674 0.133059
0.429053 0.929229 0.120485
0.584344 0.919493 0.110658
0.738308 0.909773 0.103822
0.889891 0.900435 0.0993515
1 0.891707 0.0963149
0 1 0.161868
0 1 0.143221
0.0970321 1 0.12813
0.251377 1 0.114305
0.404868 1 0.1019
0.557885 1 0.0914473
0.710079 1 0.083299
0.860777 1 0.0773327
1 1 0.0730449
0 0 0.568627
0.176425 0 0.562615
0.34905 0 0.553643
0.512963 0 0.541466
0.669367 0 0.528969
0.820371 0 0.517739
0.967697 0 0.508019
1 0 0.49958
1 0 0.492149
0 0.146731 0.532036
0.129549 0.131884 0.527871
0.30631 0.119081 0.521279
0.475578 0.108934 0.506859
0.633768 0.101946 0.490898
0.784726 0.0965438 0.477592
0.931563 0.0918441 0.466911
1 0.0874952 0.458076
1 0.08336 0.450492
0 0.293202 0.496742
0.0857862 0.279179 0.491493
0.260945 0.265156 0.490715
0.442679 0.250141 0.47837
0.605158 0.241596 0.457176
0.756161 0.235569 0.442573
0.90277 0.230228 0.43209
1 0.225254 0.423758
1 0.220539 0.416693
0 0.434363 0.461814
0.0480812 0.422004 0.450706
0.210117 0.411872 0.443091
0.38761 0.396262 0.442283
0.573449 0.380941 0.413626
0.725826 0.373495 0.403342
0.873396 0.367025 0.395834
1 0.361166 0.389456
1 0.355734 0.383719
0 0.571298 0.429938
0.0192264 0.559548 0.414328
0.177325 0.550835 0.399207
0.337499 0.542062 0.377584
0.51873 0.526665 0.358312
0.68716 0.512825 0.358999
0.840238 0.503685 0.357473
0.987533 0.496315 0.354391
1 0.48986 0.350713
0 0.705104 0.401556
0 0.693294 0.383963
0.152697 0.684504 0.367514
0.31043 0.675761 0.348699
0.474968 0.664836 0.330343
0.64303 0.651682 0.32224
0.80267 0.640208 0.320974
0.954223 0.631022 0.319966
1 0.62327 0.318105
0 0.836606 0.376013
0 0.824567 0.357748
0.13048 0.815564 0.341512
0.286305 0.806821 0.324681
0.444587 0.797223 0.308431
0.605692 0.786206 0.296605
0.765209 0.774929 0.291035
0.919509 0.764782 0.288823
1 0.755947 0.287312
0 0.966323 0.352605
0 0.95404 0.334173
0.109438 0.944869 0.318441
0.263828 0.936126 0.302876
0.418814 0.927077 0.287968
0.575219 0.917266 0.275471
0.731731 0.906935 0.266987
0.885939 0.896819 0.262211
1 0.887495 0.259495
0 1 0.33077
0 1 0.312413
0.0892042 1 0.297139
0.242481 1 0.282429
0.395377 1 0.268437
0.54876 1 0.256016
0.702358 1 0.246189
0.855024 1 0.239338
1 1 0.234897
0 0 0.730938
0.170871 0 0.725063
0.340581 0 0.718364
0.504067 0 0.709087
0.661707 0 0.698268
0.814282 0 0.687312
0.962921 0 0.677058
1 0 0.667765
1 0 0.659403
0 0.143145 0.6963
0.126833 0.129259 0.691066
0.297734 0.117922 0.685817
0.464439 0.107897 0.676509
0.62472 0.0998398 0.663722
0.778378 0.0935378 0.650446
0.927108 0.0883345 0.638453
1 0.0837415 0.628046
1 0.0794995 0.618982
0 0.288228 0.664759
0.0879835 0.274189 0.659586
0.257771 0.26186 0.657084
0.428748 0.249348 0.650797
0.594583 0.238972 0.636683
0.750454 0.231586 0.620523
0.899458 0.225818 0.606806
1 0.220752 0.595666
1 0.216068 0.586404
0 0.428931 0.632624
0.0514839 0.415747 0.624964
0.215473 0.404486 0.622003
0.385092 0.391119 0.621408
0.562737 0.376364 0.610025
0.723415 0.367529 0.588937
0.872724 0.361318 0.573892
1 0.355795 0.562997
1 0.350622 0.554299
0 0.56611 0.601343
0.0199435 0.553735 0.589975
0.178103 0.544213 0.581949
0.335576 0.534615 0.575448
0.508934 0.519463 0.575479
0.692943 0.504021 0.547097
0.843458 0.496635 0.535775
0.989441 0.490135 0.52781
1 0.484184 0.521096
0 0.700359 0.572106
0 0.688334 0.557778
0.149142 0.67953 0.545617
0.302571 0.671504 0.531716
0.459037 0.663188 0.511147
0.638056 0.64802 0.4907
0.805402 0.634012 0.491539
0.956924 0.624872 0.489845
1 0.617456 0.486534
0 0.832258 0.545159
0 0.820249 0.529061
0.125093 0.81149 0.515068
0.277867 0.803464 0.499702
0.432303 0.795178 0.481453
0.594308 0.784588 0.462913
0.761044 0.771435 0.454505
0.919539 0.759884 0.4533
1 0.750668 0.452293
0 0.962295 0.520256
0 0.950118 0.503227
0.103349 0.941238 0.48864
0.255634 0.933074 0.473457
0.408377 0.924804 0.457145
0.564248 0.915511 0.44097
0.72369 0.904646 0.428992
0.882017 0.89337 0.423346
1 0.883192 0.42118
0 1 0.497078
0 1 0.479606
0.0828565 1 0.464912
0.234623 1 0.450202
0.386023 1 0.435172
0.53872 1 0.420478
0.69337 1 0.40795
0.848554 1 0.39939
1 1 0.394614
0 0 0.889632
0.166705 0 0.883635
0.334066 0 0.877989
0.496269 0 0.870604
0.653925 0 0.861601
0.80734 0 0.851789
0.957031 0 0.841886
1 0 0.83241
1 0 0.823575
0 0.14023 0.85597
0.124407 0.126955 0.850065
0.291844 0.116472 0.845182
0.45568 0.10695 0.838163
0.615427 0.0986343 0.828443
0.770352 0.0916609 0.817029
0.920729 0.0858473 0.805432
1 0.0808118 0.794537
1 0.0762951 0.784649
0 0.284184 0.826703
0.0883803 0.270405 0.820951
0.254932 0.259052 0.817533
0.42031 0.248005 0.812497
0.583444 0.237842 0.803311
0.741207 0.22948 0.790509
0.892927 0.222827 0.777005
1 0.217258 0.764645
1 0.212329 0.753841
0 0.424201 0.796994
0.0539101 0.410712 0.790204
0.217441 0.399512 0.787228
0.381994 0.387793 0.785016
0.549218 0.375509 0.779004
0.712581 0.365042 0.765316
0.866743 0.357443 0.749142
1 0.351461 0.73518
1 0.346197 0.723735
0 0.561181 0.767254
0.0221256 0.548257 0.758221
0.181476 0.538018 0.753277
0.340719 0.527413 0.750866
0.506676 0.514488 0.750301
0.681147 0.499947 0.739757
0.840558 0.490898 0.718929
0.988556 0.484535 0.703487
1 0.478889 0.692256
0 0.695567 0.738399
0 0.683116 0.726802
0.150027 0.673747 0.718563
0.3037 0.664897 0.711498
0.458274 0.655528 0.705776
0.628458 0.640772 0.706264
0.811002 0.625193 0.678614
0.960082 0.617884 0.666194
1 0.611368 0.657771
0 0.827756 0.71104
0 0.815488 0.697292
0.123339 0.806546 0.686366
0.274662 0.798489 0.675273
0.425071 0.790814 0.662242
0.578668 0.782803 0.642649
0.755856 0.76791 0.620981
0.922499 0.753674 0.621942
1 0.744549 0.620081
0 0.958068 0.685283
0 0.945815 0.670069
0.0999008 0.93695 0.657526
0.250523 0.929015 0.644602
0.400275 0.921431 0.629938
0.552209 0.913481 0.612131
0.712139 0.903151 0.593332
0.877852 0.889982 0.584588
1 0.87837 0.583444
0 1 0.661112
0 1 0.644953
0.0784466 1 0.631586
0.228763 1 0.618051
0.378088 1 0.603494
0.528481 1 0.587533
0.682445 1 0.571389
0.840482 1 0.559197
0.997848 1 0.55346
0 0 1
0.163348 0 1
0.328862 0 1
0.489693 0 1
0.646784 0 1
0.800336 0 1
0.950607 0 1
1 0 0.993667
1 0 0.984817
0 0.137728 1
0.122164 0.124865 1
0.287327 0.114916 1
0.44889 0.105852 0.995361
0.607324 0.0976272 0.987579
0.762234 0.0903639 0.978119
0.913466 0.0840925 0.967758
1 0.0786145 0.957305
1 0.0737469 0.94728
0 0.280751 0.984619
0.0879683 0.267277 0.978332
0.252323 0.256535 0.974365
0.414435 0.246342 0.96968
0.574685 0.236744 0.962692
0.731838 0.228183 0.952941
0.884749 0.220905 0.94139
1 0.214755 0.929534
1 0.2094 0.918318
0 0.420096 0.95671
0.0551766 0.406561 0.94992
0.217685 0.395682 0.946426
0.379126 0.384909 0.943358
0.540993 0.37406 0.938476
0.701503 0.363897 0.929503
0.857374 0.355367 0.916823
1 0.348516 0.903243
1 0.342733 0.890669
0 0.556695 0.928557
0.0240787 0.543465 0.920485
0.18381 0.532982 0.916289
0.342535 0.522499 0.913802
0.503655 0.511131 0.911711
0.668055 0.499046 0.905943
0.82948 0.488548 0.892683
0.982315 0.480797 0.8766
1 0.474662 0.862455
0 0.691005 0.900679
0 0.678141 0.890761
0.152224 0.668284 0.884642
0.307027 0.658763 0.880415
0.463203 0.648508 0.878279
0.626368 0.635904 0.877714
0.79823 0.621607 0.867933
0.956634 0.612345 0.847425
1 0.605875 0.831647
0 0.82327 0.873564
0 0.810681 0.861753
0.123964 0.801343 0.853346
0.2757 0.792737 0.846021
0.42649 0.784222 0.839551
0.578958 0.77499 0.83444
0.746532 0.760571 0.835203
0.927825 0.744869 0.80856
1 0.737621 0.795056
0 0.953765 0.847593
0 0.941314 0.834134
0.0988174 0.932235 0.823804
0.248966 0.924086 0.813901
0.397406 0.916426 0.803479
0.545571 0.90898 0.791165
0.696834 0.901198 0.772534
0.872374 0.88658 0.749645
1 0.872114 0.750713
0 1 0.822873
0 1 0.808194
0.0760357 1 0.796521
0.225498 1 0.785016
0.373236 1 0.772763
0.520729 1 0.758618
0.670604 1 0.741176
0.828717 1 0.722133
0.993667 1 0.712993
0 0 1
0.160479 0 1
0.324544 0 1
0.484154 0 1
0.640436 0 1
0.793729 0 1
0.944183 0 1
1 0 1
1 0 1
0 0.1355 1
0.120073 0.122911 1
0.283574 0.113344 1
0.443412 0.104631 1
0.600488 0.0965896 1
0.754803 0.0892805 1
0.906172 0.0827497 1
1 0.076936 1
1 0.0717174 1
0 0.277775 1
0.0871138 0.264515 1
0.249897 0.254215 1
0.409827 0.244602 1
0.567864 0.235477 1
0.723674 0.227054 1
0.876539 0.219532 1
1 0.21294 1
1 0.207156 1
0 0.416495 1
0.0556344 0.403037 1
0.217105 0.392447 1
0.376471 0.3823 1
0.535164 0.372305 1
0.692851 0.362722 1
0.84799 0.354055 1
0.999329 0.346593 1
1 0.34023 1
0 0.552666 1
0.0254063 0.5393 1
0.184955 0.528817 1
0.342657 0.518639 1
0.500816 0.508202 1
0.66006 0.49752 1
0.818509 0.487388 1
0.972854 0.478782 1
1 0.471763 1
0 0.686732 1
0 0.673609 1
0.154131 0.663493 1
0.309255 0.653773 1
0.464881 0.643656 1
0.623438 0.632547 1
0.785565 0.620661 1
0.945357 0.610147 1
1 0.602258 1
0 0.818952 1
0 0.806073 1
0.125444 0.796368 1
0.277897 0.787305 1
0.429786 0.778164 1
0.583673 0.768154 1
0.744595 0.755825 1
0.914168 0.741741 0.994766
1 0.73228 0.97464
0 0.949523 1
0 0.936812 0.995163
0.0991989 0.927428 0.986603
0.249683 0.918898 0.979126
0.398581 0.910704 0.972366
0.547265 0.902403 0.966339
0.698085 0.893263 0.96173
0.863432 0.879133 0.962661
1 0.86331 0.937255
0 1 0.98233
0 1 0.969009
0.0752117 1 0.958984
0.224537 1 0.949645
0.371847 1 0.940352
0.518181 1 0.93048
0.664546 1 0.918776
0.813855 1 0.901152
0.987793 1 0.876997
0 0 1
0.157961 0 1
0.320851 0 1
0.479377 0 1
0.634852 0 1
0.787671 0 1
0.938018 0 1
1 0 1
1 0 1
0 0.133486 1
0.11809 0.12108 1
0.280339 0.111788 1
0.438804 0.103349 1
0.59469 0.0955062 1
0.748196 0.0882429 1
0.899306 0.0816052 1
1 0.0755627 1
1 0.0700847 1
0 0.275105 1
0.0860304 0.262028 1
0.247608 0.252064 1
0.405951 0.242817 1
0.56231 0.234089 1
0.716777 0.225895 1
0.869017 0.218341 1
1 0.211505 1
1 0.205402 1
0 0.413291 1
0.0555581 0.399924 1
0.216114 0.389593 1
0.373968 0.379873 1
0.530556 0.370443 1
0.686061 0.361364 1
0.839841 0.35285 1
0.991073 0.34519 1
1 0.338399 1
0 0.54902 1
0.0261234 0.535622 1
0.185275 0.525231 1
0.341985 0.515373 1
0.498131 0.505531 1
0.654307 0.495689 1
0.809995 0.486183 1
0.9635 0.47747 1
1 0.469871 1
0 0.682841 1
0 0.669551 1
0.155398 0.659342 1
0.310338 0.649622 1
0.464958 0.639841 1
0.620645 0.629633 1
0.777798 0.619104 1
0.934539 0.608988 1
1 0.60029 1
0 0.814923 1
0 0.801801 1
0.126909 0.791867 1
0.279774 0.782559 1
0.431937 0.773236 1
0.58526 0.763394 1
0.741772 0.752483 1
0.901961 0.740764 1
1 0.73022 1
0 0.945434 1
0 0.932479 1
0.100191 0.922835 1
0.251179 0.91397 1
0.400793 0.905333 1
0.55053 0.896437 1
0.702617 0.88661 1
0.861616 0.87451 1
1 0.860609 1
0 1 1
0 1 1
0.0753948 1 1
0.224994 1 1
0.372656 1 1
0.519478 1 1
0.666514 1 1
0.815961 1 1
0.97937 0.996704 1
