public/filters/konnect/Presets A Lighter Skin Tone/Vibrant 1.2_25.2021-06-18 12-03-14.cube
TITLE "Generated by Resolve"
LUT_3D_SIZE 5
0 0 0
0.370672 0 0
0.678981 0 0
0.973587 0 0
1 0 0
0 0.310964 0
0.279286 0.282658 0
0.602121 0.262638 0
0.901534 0.248814 0
1 0.237675 0
0 0.584878 0
0.211429 0.560265 0
0.533181 0.539284 0
0.838361 0.521843 0
1 0.507607 0
0 0.848646 0
0.160342 0.824994 0
0.474159 0.805432 0
0.778668 0.787366 0
1 0.771435 0
0 1 0
0.11603 1 0
0.423819 1 0
0.724727 1 0
1 1 0
0 0 0.401099
0.359747 0 0.379904
0.675395 0 0.35259
0.970901 0 0.334615
1 0 0.321508
0 0.299413 0.318837
0.263828 0.270466 0.30576
0.607065 0.247776 0.268223
0.903044 0.235737 0.255253
1 0.225574 0.244892
0 0.576318 0.252934
0.18584 0.555032 0.213062
0.523568 0.53048 0.186938
0.83769 0.509941 0.184604
1 0.495506 0.180499
0 0.84065 0.203754
0.13901 0.818723 0.167773
0.455665 0.799115 0.139971
0.769253 0.778561 0.126757
1 0.760861 0.122011
0 1 0.161868
0.0970321 1 0.12813
0.404868 1 0.1019
0.710079 1 0.083299
1 1 0.0730449
0 0 0.730938
0.340581 0 0.718364
0.661707 0 0.698268
0.962921 0 0.677058
1 0 0.659403
0 0.288228 0.664759
0.257771 0.26186 0.657084
0.594583 0.238972 0.636683
0.899458 0.225818 0.606806
1 0.216068 0.586404
0 0.56611 0.601343
0.178103 0.544213 0.581949
0.508934 0.519463 0.575479
0.843458 0.496635 0.535775
1 0.484184 0.521096
0 0.832258 0.545159
0.125093 0.81149 0.515068
0.432303 0.795178 0.481453
0.761044 0.771435 0.454505
1 0.750668 0.452293
0 1 0.497078
0.0828565 1 0.464912
0.386023 1 0.435172
0.69337 1 0.40795
1 1 0.394614
0 0 1
0.328862 0 1
0.646784 0 1
0.950607 0 1
1 0 0.984817
0 0.280751 0.984619
0.252323 0.256535 0.974365
0.574685 0.236744 0.962692
0.884749 0.220905 0.94139
1 0.2094 0.918318
0 0.556695 0.928557
0.18381 0.532982 0.916289
0.503655 0.511131 0.911711
0.82948 0.488548 0.892683
1 0.474662 0.862455
0 0.82327 0.873564
0.123964 0.801343 0.853346
0.42649 0.784222 0.839551
0.746532 0.760571 0.835203
1 0.737621 0.795056
0 1 0.822873
0.0760357 1 0.796521
0.373236 1 0.772763
0.670604 1 0.741176
0.993667 1 0.712993
0 0 1
0.320851 0 1
0.634852 0 1
0.938018 0 1
1 0 1
0 0.275105 1
0.247608 0.252064 1
0.56231 0.234089 1
0.869017 0.218341 1
1 0.205402 1
0 0.54902 1
0.185275 0.525231 1
0.498131 0.505531 1
0.809995 0.486183 1
1 0.469871 1
0 0.814923 1
0.126909 0.791867 1
0.431937 0.773236 1
0.741772 0.752483 1
1 0.73022 1
0 1 1
0.0753948 1 1
0.372656 1 1
0.666514 1 1
0.97937 0.996704 1
