public/filters/konnect/Presets A Lighter Skin Tone/Vibrant 1.2_25.2021-06-18 12-03-14.cube
TITLE "Generated by Resolve"
LUT_3D_SIZE 33
0 0 0
0.0682689 0 0
0.116976 0 0
0.162356 0 0
0.205936 0 0
0.24828 0 0
0.289738 0 0
0.330495 0 0
0.370672 0 0
0.410376 0 0
0.449668 0 0
0.488594 0 0
0.527184 0 0
0.565499 0 0
0.603571 0 0
0.641382 0 0
0.678981 0 0
0.716381 0 0
0.753597 0 0
0.790631 0 0
0.827512 0 0
0.86424 0 0
0.900816 0 0
0.93727 0 0
0.973587 0 0
1 0 0
1 0 0
1 0 0
1 0 0
1 0 0
1 0 0
1 0 0
1 0 0
0 0.049424 0
0.0403296 0.0409857 0
0.0969711 0.0347143 0
0.145464 0.0308385 0
0.190555 0.0279698 0
0.233783 0.0256199 0
0.275807 0.0235752 0
0.316945 0.0217288 0
0.357397 0.0200198 0
0.397314 0.0184482 0
0.436759 0.0169528 0
0.475807 0.0155337 0
0.514504 0.0141604 0
0.552911 0.0128481 0
0.591028 0.0115816 0
0.628901 0.0103609 0
0.666545 0.00915541 0
0.703975 0.00799573 0
0.741222 0.0068513 0
0.778286 0.00573739 0
0.815183 0.00463874 0
0.851926 0.00357061 0
0.888533 0.00251774 0
0.924987 0.00148013 0
0.961303 0.000457771 0
0.997513 0 0
1 0 0
1 0 0
1 0 0
1 0 0
1 0 0
1 0 0
1 0 0
0 0.0901503 0
0.0201724 0.0841077 0
0.0768444 0.0779431 0
0.128435 0.0728771 0
0.175738 0.0690013 0
0.220386 0.065919 0
0.26334 0.0633097 0
0.305119 0.0610208 0
0.346059 0.0589761 0
0.386313 0.057084 0
0.426017 0.0553292 0
0.465278 0.0536965 0
0.504143 0.0521401 0
0.542672 0.0506447 0
0.580896 0.0492103 0
0.61886 0.047837 0
0.656565 0.0465095 0
0.694072 0.0452277 0
0.731365 0.0439612 0
0.768475 0.0427405 0
0.805402 0.0415503 0
0.842176 0.0403754 0
0.878813 0.0392309 0
0.915282 0.0381018 0
0.951629 0.0370031 0
0.987854 0.0359197 0
1 0.0348516 0
1 0.0337987 0
1 0.0327611 0
1 0.0317388 0
1 0.0307012 0
1 0.0296941 0
1 0.0287022 0
0 0.128939 0
0.00708019 0.123751 0
0.0604715 0.118593 0
0.112047 0.113558 0
0.160693 0.109178 0
0.206668 0.105516 0
0.250675 0.102419 0
0.293263 0.0997177 0
0.334783 0.0973068 0
0.375494 0.09514 0
0.415564 0.0931258 0
0.4551 0.0912642 0
0.494194 0.0895094 0
0.532906 0.0878462 0
0.571283 0.0862745 0
0.609369 0.0847486 0
0.647196 0.0832837 0
0.684794 0.0818799 0
0.722164 0.0805219 0
0.759335 0.0791791 0
0.796323 0.0778973 0
0.833143 0.0766308 0
0.86981 0.0753948 0
0.906325 0.0742046 0
0.942702 0.0730297 0
0.978943 0.07187 0
1 0.0707256 0
1 0.0696117 0
1 0.0684977 0
1 0.0674144 0
1 0.066331 0
1 0.0652628 0
1 0.06421 0
0 0.166598 0
0 0.161791 0
0.0476692 0.157305 0
0.0978256 0.152712 0
0.146456 0.148348 0
0.193103 0.144411 0
0.237934 0.140963 0
0.28127 0.137926 0
0.323415 0.13521 0
0.36463 0.132753 0
0.405112 0.13051 0
0.444984 0.128435 0
0.484352 0.126497 0
0.523293 0.124666 0
0.561868 0.122927 0
0.600122 0.121263 0
0.638071 0.119677 0
0.675776 0.118151 0
0.713252 0.116686 0
0.750515 0.115251 0
0.787564 0.113863 0
0.82446 0.11252 0
0.861173 0.111208 0
0.897734 0.109926 0
0.934157 0.108659 0
0.970443 0.107439 0
1 0.106233 0
1 0.105058 0
1 0.103883 0
1 0.102739 0
1 0.101595 0
1 0.100465 0
1 0.0993668 0
0 0.203479 0
0 0.198886 0
0.0370642 0.194781 0
0.0857404 0.190616 0
0.133623 0.186465 0
0.18027 0.182544 0
0.225483 0.178927 0
0.269337 0.175662 0
0.312016 0.172702 0
0.353719 0.170016 0
0.394614 0.167559 0
0.434852 0.165286 0
0.474525 0.163165 0
0.513726 0.161166 0
0.552514 0.159289 0
0.590936 0.157488 0
0.629053 0.155779 0
0.666896 0.154131 0
0.704479 0.15256 0
0.741848 0.151034 0
0.779004 0.149554 0
0.815961 0.148119 0
0.85275 0.146715 0
0.889372 0.145357 0
0.925841 0.14403 0
0.962173 0.142733 0
0.998367 0.141466 0
1 0.140215 0
1 0.138979 0
1 0.137774 0
1 0.136599 0
1 0.135409 0
1 0.134264 0
0 0.239765 0
0 0.235294 0
0.0277714 0.231418 0
0.075227 0.227543 0
0.122194 0.223667 0
0.168399 0.219867 0
0.213596 0.216236 0
0.257694 0.212863 0
0.30074 0.209766 0
0.342824 0.206897 0
0.3841 0.204257 0
0.424674 0.201801 0
0.464637 0.199512 0
0.504097 0.19736 0
0.543114 0.195346 0
0.58175 0.193423 0
0.620035 0.191592 0
0.65803 0.189837 0
0.69575 0.188159 0
0.733227 0.186526 0
0.770489 0.18497 0
0.807538 0.183444 0
0.844419 0.181964 0
0.881102 0.180529 0
0.917632 0.179126 0
0.954025 0.177768 0
0.990265 0.176425 0
1 0.175128 0
1 0.173831 0
1 0.172564 0
1 0.171328 0
1 0.170108 0
1 0.168902 0
0 0.275563 0
0 0.271168 0
0.0194247 0.267491 0
0.0658885 0.263844 0
0.112001 0.260166 0
0.15761 0.256535 0
0.202518 0.252995 0
0.246601 0.249607 0
0.289784 0.246418 0
0.332128 0.243442 0
0.373678 0.240665 0
0.414542 0.238071 0
0.454795 0.235645 0
0.494514 0.233356 0
0.533761 0.231205 0
0.572595 0.22916 0
0.611078 0.227222 0
0.649226 0.22536 0
0.687099 0.223575 0
0.724697 0.221851 0
0.762066 0.220203 0
0.799222 0.218601 0
0.836179 0.217044 0
0.872953 0.215534 0
0.90956 0.214069 0
0.946014 0.212634 0
0.982315 0.211231 0
1 0.209857 0
1 0.208515 0
1 0.207202 0
1 0.205905 0
1 0.204623 0
1 0.203372 0
0 0.310964 0
0 0.306645 0
0.0116732 0.303075 0
0.0573739 0.29958 0
0.102739 0.296101 0
0.147723 0.292622 0
0.192233 0.289189 0
0.236103 0.285847 0
0.279286 0.282658 0
0.321721 0.279606 0
0.36347 0.276753 0
0.404547 0.274052 0
0.445029 0.271504 0
0.484962 0.269108 0
0.524422 0.26685 0
0.563455 0.264698 0
0.602121 0.262638 0
0.640436 0.260685 0
0.678447 0.258793 0
0.716182 0.256992 0
0.753674 0.255253 0
0.790936 0.253574 0
0.827985 0.251942 0
0.864851 0.250355 0
0.901534 0.248814 0
0.938048 0.247318 0
0.974411 0.245853 0
1 0.244419 0
1 0.243015 0
1 0.241642 0
1 0.240299 0
1 0.238972 0
1 0.237675 0
0 0.346044 0
0 0.341741 0
0.00437934 0.338262 0
0.0494545 0.334905 0
0.0941939 0.331563 0
0.138613 0.328222 0
0.18265 0.324895 0
0.226246 0.321645 0
0.269276 0.318471 0
0.311696 0.315419 0
0.353506 0.312505 0
0.39472 0.309743 0
0.43537 0.307118 0
0.475486 0.304631 0
0.515129 0.302266 0
0.554345 0.300008 0
0.593164 0.297856 0
0.631647 0.295811 0
0.66981 0.293843 0
0.707683 0.291951 0
0.745296 0.290135 0
0.782666 0.288365 0
0.819821 0.286656 0
0.856779 0.285008 0
0.893553 0.283406 0
0.930144 0.281849 0
0.966583 0.280324 0
1 0.278843 0
1 0.277378 0
1 0.275959 0
1 0.274556 0
1 0.273182 0
1 0.271839 0
0 0.380819 0
0 0.376562 0
0 0.373129 0
0.0420081 0.369863 0
0.0861982 0.366629 0
0.130114 0.363409 0
0.173709 0.360189 0
0.216953 0.357015 0
0.25977 0.353902 0
0.302083 0.350866 0
0.343877 0.347951 0
0.385153 0.345144 0
0.425895 0.342473 0
0.466148 0.33991 0
0.505943 0.337469 0
0.545296 0.335134 0
0.584283 0.332906 0
0.622904 0.33077 0
0.661204 0.328725 0
0.699199 0.326757 0
0.736934 0.324849 0
0.774426 0.323018 0
0.811688 0.321248 0
0.848737 0.319539 0
0.885588 0.317861 0
0.922255 0.316228 0
0.95877 0.314656 0
0.995132 0.313115 0
1 0.311604 0
1 0.310124 0
1 0.308675 0
1 0.307256 0
1 0.305852 0
0 0.415351 0
0 0.411093 0
0 0.407721 0
0.0349126 0.404517 0
0.0786603 0.401373 0
0.122118 0.398245 0
0.165316 0.395132 0
0.208194 0.39205 0
0.250751 0.388983 0
0.292897 0.385992 0
0.334615 0.383093 0
0.37586 0.38027 0
0.416648 0.377554 0
0.456977 0.37496 0
0.49688 0.372457 0
0.536355 0.370062 0
0.575463 0.367758 0
0.614206 0.365545 0
0.652628 0.363439 0
0.690761 0.361395 0
0.728603 0.359426 0
0.766201 0.357519 0
0.803555 0.355688 0
0.840711 0.353902 0
0.877653 0.352178 0
0.914412 0.350484 0
0.950988 0.348852 0
0.987411 0.34725 0
1 0.345693 0
1 0.344167 0
1 0.342672 0
1 0.341192 0
1 0.339757 0
0 0.449653 0
0 0.445411 0
0 0.442069 0
0.0281224 0.438911 0
0.071458 0.435828 0
0.114519 0.432776 0
0.157336 0.429755 0
0.199893 0.426734 0
0.242176 0.423758 0
0.284108 0.420798 0
0.325673 0.417914 0
0.366857 0.415106 0
0.40763 0.41239 0
0.44799 0.409751 0
0.487953 0.407218 0
0.52752 0.404776 0
0.56672 0.402411 0
0.60557 0.400153 0
0.644099 0.397971 0
0.682338 0.395865 0
0.720302 0.393835 0
0.757992 0.391882 0
0.795453 0.389975 0
0.832685 0.388128 0
0.869718 0.386343 0
0.906554 0.384604 0
0.943221 0.38291 0
0.979721 0.381262 0
1 0.379644 0
1 0.378073 0
1 0.376532 0
1 0.375021 0
1 0.373541 0
0 0.483711 0
0 0.479484 0
0 0.476173 0
0.0215457 0.47306 0
0.0645762 0.470039 0
0.107286 0.467063 0
0.149767 0.464103 0
0.192004 0.461158 0
0.233997 0.458244 0
0.275715 0.455344 0
0.317113 0.452491 0
0.35819 0.449699 0
0.398901 0.446983 0
0.439246 0.444343 0
0.479225 0.441779 0
0.518853 0.439307 0
0.558114 0.436912 0
0.597055 0.434592 0
0.635676 0.432364 0
0.673991 0.430198 0
0.712047 0.428122 0
0.749844 0.426093 0
0.787381 0.42414 0
0.824704 0.422248 0
0.86183 0.420401 0
0.898741 0.418601 0
0.935485 0.416861 0
0.972045 0.415167 0
1 0.413504 0
1 0.411872 0
1 0.410285 0
1 0.408728 0
1 0.407202 0
0 0.517617 0
0 0.51339 0
0 0.510094 0
0.015198 0.507027 0
0.0579232 0.504036 0
0.100343 0.501122 0
0.142504 0.498222 0
0.184451 0.495338 0
0.226184 0.49247 0
0.267674 0.489632 0
0.308888 0.486824 0
0.349813 0.484062 0
0.390448 0.481361 0
0.430732 0.478706 0
0.47071 0.476143 0
0.510338 0.47364 0
0.549645 0.471214 0
0.588632 0.468864 0
0.627329 0.46659 0
0.665736 0.464378 0
0.703868 0.462257 0
0.741741 0.460182 0
0.77937 0.458183 0
0.81677 0.45623 0
0.853971 0.454337 0
0.890959 0.452491 0
0.927764 0.45069 0
0.964401 0.448951 0
1 0.447242 0
1 0.445579 0
1 0.443931 0
1 0.442329 0
1 0.440772 0
0 0.551324 0
0 0.547097 0
0 0.543816 0
0.00898756 0.54078 0
0.0514687 0.537835 0
0.0936141 0.534951 0
0.135515 0.532113 0
0.177188 0.529274 0
0.218662 0.526467 0
0.259922 0.523674 0
0.300954 0.520912 0
0.341741 0.518181 0
0.382239 0.515496 0
0.422461 0.512856 0
0.462379 0.510277 0
0.502007 0.507774 0
0.541329 0.505333 0
0.580346 0.502953 0
0.619089 0.500648 0
0.657557 0.498405 0
0.69575 0.496239 0
0.733684 0.494118 0
0.771389 0.492073 0
0.808865 0.490074 0
0.846128 0.488136 0
0.883192 0.486244 0
0.920073 0.484413 0
0.956786 0.482628 0
0.993317 0.480873 0
1 0.479164 0
1 0.477485 0
1 0.475853 0
1 0.474235 0
0 0.584878 0
0 0.580667 0
0 0.577386 0
0.00294499 0.574365 0
0.0452125 0.571466 0
0.0871138 0.568612 0
0.128771 0.56582 0
0.170199 0.563027 0
0.211429 0.560265 0
0.252476 0.557519 0
0.293324 0.554788 0
0.333944 0.552102 0
0.374319 0.549432 0
0.414435 0.546822 0
0.454292 0.544259 0
0.493874 0.541741 0
0.533181 0.539284 0
0.572213 0.536889 0
0.610986 0.534569 0
0.649485 0.532296 0
0.687724 0.530083 0
0.725719 0.527932 0
0.763485 0.525856 0
0.801022 0.523812 0
0.838361 0.521843 0
0.875486 0.519921 0
0.912428 0.518029 0
0.949203 0.516197 0
0.985794 0.514397 0
1 0.512657 0
1 0.510933 0
1 0.509255 0
1 0.507607 0
0 0.61828 0
0 0.614069 0
0 0.610819 0
0 0.607797 0
0.0390936 0.604913 0
0.0807813 0.602106 0
0.12221 0.599344 0
0.163424 0.596597 0
0.204456 0.593881 0
0.245289 0.591165 0
0.285939 0.588479 0
0.32639 0.585824 0
0.366629 0.5832 0
0.406638 0.580591 0
0.446418 0.578042 0
0.485939 0.57554 0
0.525216 0.573068 0
0.564233 0.570672 0
0.603006 0.568322 0
0.64152 0.566033 0
0.679805 0.56379 0
0.717845 0.561624 0
0.755657 0.559503 0
0.79324 0.557427 0
0.83064 0.555428 0
0.867826 0.55346 0
0.90483 0.551537 0
0.941649 0.549661 0
0.978302 0.547829 0
1 0.546044 0
1 0.544289 0
1 0.54258 0
1 0.540902 0
0 0.65156 0
0 0.647334 0
0 0.644083 0
0 0.641093 0
0.0331273 0.638224 0
0.0746166 0.635431 0
0.115846 0.632715 0
0.156863 0.629999 0
0.197681 0.627314 0
0.238315 0.624643 0
0.278798 0.622003 0
0.319081 0.619379 0
0.359167 0.61677 0
0.399069 0.614191 0
0.438743 0.611658 0
0.478202 0.609155 0
0.517433 0.606714 0
0.55642 0.604288 0
0.595178 0.601938 0
0.633707 0.599634 0
0.671992 0.597391 0
0.710063 0.595178 0
0.747921 0.593042 0
0.78555 0.590936 0
0.82298 0.588891 0
0.860227 0.586892 0
0.897261 0.584939 0
0.934142 0.583032 0
0.970855 0.58117 0
1 0.579355 0
1 0.577554 0
1 0.575814 0
1 0.57409 0
0 0.684688 0
0 0.680461 0
0 0.677226 0
0 0.674235 0
0.0272526 0.671397 0
0.0685893 0.668635 0
0.109636 0.665919 0
0.150454 0.663249 0
0.191089 0.660594 0
0.231556 0.657969 0
0.271855 0.65536 0
0.311986 0.65275 0
0.351934 0.650187 0
0.391699 0.647639 0
0.431281 0.645106 0
0.470649 0.642618 0
0.509819 0.640177 0
0.54876 0.637766 0
0.587488 0.635401 0
0.626001 0.633097 0
0.664302 0.630823 0
0.702388 0.628611 0
0.740261 0.626444 0
0.77792 0.624323 0
0.815396 0.622248 0
0.852674 0.620218 0
0.889754 0.618235 0
0.92668 0.616297 0
0.963424 0.614404 0
1 0.612543 0
1 0.610727 0
1 0.608942 0
1 0.607202 0
0 0.717708 0
0 0.713481 0
0 0.710231 0
0 0.707271 0
0.0215 0.704433 0
0.0626688 0.701686 0
0.103563 0.699001 0
0.144213 0.696361 0
0.18468 0.693736 0
0.224964 0.691127 0
0.265095 0.688548 0
0.305074 0.685985 0
0.344884 0.683436 0
0.384527 0.680903 0
0.423987 0.678401 0
0.463279 0.675929 0
0.502373 0.673503 0
0.541268 0.671092 0
0.57995 0.668727 0
0.618448 0.666423 0
0.656733 0.664149 0
0.694804 0.661906 0
0.732692 0.659724 0
0.770382 0.657588 0
0.807874 0.655497 0
0.845182 0.653437 0
0.882322 0.651438 0
0.91928 0.64947 0
0.956069 0.647547 0
0.992691 0.645655 0
1 0.643809 0
1 0.641993 0
1 0.640208 0
0 0.750591 0
0 0.746349 0
0 0.743114 0
0 0.740154 0
0.0158236 0.737331 0
0.0568551 0.7346 0
0.0975814 0.731945 0
0.138079 0.72932 0
0.178393 0.726711 0
0.218524 0.724132 0
0.258503 0.721584 0
0.298329 0.719036 0
0.338003 0.716518 0
0.377523 0.714015 0
0.416876 0.711543 0
0.456062 0.709087 0
0.495079 0.706661 0
0.533898 0.704265 0
0.572549 0.701915 0
0.611002 0.699596 0
0.649271 0.697322 0
0.687327 0.695064 0
0.725216 0.692866 0
0.762921 0.69073 0
0.800427 0.688609 0
0.837751 0.686534 0
0.874922 0.684504 0
0.91191 0.682521 0
0.948745 0.680568 0
0.985412 0.67866 0
1 0.676783 0
1 0.674937 0
1 0.673136 0
0 0.783383 0
0 0.779141 0
0 0.775906 0
0 0.772946 0
0.0102541 0.770138 0
0.0511482 0.767422 0
0.0917372 0.764767 0
0.132097 0.762158 0
0.172244 0.759579 0
0.212238 0.757031 0
0.252079 0.754513 0
0.291752 0.75198 0
0.331304 0.749493 0
0.370687 0.747005 0
0.409949 0.744564 0
0.449027 0.742123 0
0.487953 0.739712 0
0.526711 0.737331 0
0.565301 0.734966 0
0.603708 0.732662 0
0.641932 0.730373 0
0.680003 0.72813 0
0.717861 0.725933 0
0.755566 0.723751 0
0.793088 0.72163 0
0.830427 0.719539 0
0.867613 0.717494 0
0.904616 0.715496 0
0.941482 0.713512 0
0.97818 0.711589 0
1 0.709682 0
1 0.70782 0
1 0.705989 0
0 0.816068 0
0 0.81181 0
0 0.808576 0
0 0.805615 0
0.00474556 0.802823 0
0.0455329 0.800122 0
0.0859846 0.797482 0
0.126207 0.794888 0
0.166232 0.79234 0
0.206088 0.789807 0
0.245777 0.787305 0
0.285344 0.784817 0
0.324742 0.78233 0
0.364019 0.779873 0
0.403159 0.777447 0
0.442145 0.775021 0
0.48098 0.772625 0
0.519661 0.77026 0
0.55819 0.76791 0
0.596551 0.765606 0
0.634745 0.763333 0
0.67277 0.761074 0
0.710628 0.758862 0
0.748302 0.756695 0
0.785824 0.754559 0
0.823178 0.752453 0
0.860365 0.750378 0
0.897398 0.748363 0
0.934279 0.74638 0
0.971008 0.744427 0
1 0.742489 0
1 0.740612 0
1 0.73875 0
0 0.848646 0
0 0.844388 0
0 0.841154 0
0 0.838209 0
0 0.835416 0
0.0399939 0.832715 0
0.0803388 0.830091 0
0.120439 0.827512 0
0.160342 0.824994 0
0.200061 0.822477 0
0.239628 0.819989 0
0.279057 0.817517 0
0.318334 0.815061 0
0.357504 0.812619 0
0.396521 0.810208 0
0.435416 0.807813 0
0.474159 0.805432 0
0.512764 0.803067 0
0.551217 0.800732 0
0.589517 0.798428 0
0.62768 0.796155 0
0.66566 0.793912 0
0.703487 0.791699 0
0.741161 0.789517 0
0.778668 0.787366 0
0.816022 0.78526 0
0.853223 0.783185 0
0.890257 0.78114 0
0.927153 0.779141 0
0.963897 0.777157 0
1 0.775219 0
1 0.773312 0
1 0.771435 0
0 0.881148 0
0 0.876875 0
0 0.87364 0
0 0.870695 0
0 0.867903 0
0.0345312 0.865217 0
0.0747692 0.862608 0
0.114748 0.860044 0
0.154528 0.857511 0
0.194125 0.855024 0
0.23357 0.852552 0
0.272877 0.850111 0
0.312062 0.847669 0
0.35111 0.845258 0
0.390021 0.842863 0
0.428809 0.840467 0
0.467475 0.838117 0
0.505989 0.835767 0
0.544381 0.833448 0
0.58262 0.831144 0
0.620722 0.82887 0
0.658671 0.826642 0
0.696468 0.82443 0
0.734112 0.822232 0
0.771603 0.820081 0
0.808942 0.817975 0
0.846143 0.815885 0
0.883177 0.813825 0
0.920089 0.81181 0
0.956847 0.809827 0
0.993454 0.807858 0
1 0.805936 0
1 0.804044 0
0 0.913542 0
0 0.90927 0
0 0.906035 0
0 0.90309 0
0 0.900298 0
0.0291295 0.897627 0
0.0692607 0.895018 0
0.109148 0.89247 0
0.148806 0.889967 0
0.188296 0.88748 0
0.227634 0.885023 0
0.266835 0.882597 0
0.305898 0.880186 0
0.344839 0.877775 0
0.383642 0.875395 0
0.422339 0.87303 0
0.460914 0.87068 0
0.499352 0.86836 0
0.537667 0.866041 0
0.575845 0.863752 0
0.613886 0.861494 0
0.651774 0.859251 0
0.68954 0.857038 0
0.727153 0.854856 0
0.76463 0.852705 0
0.801953 0.850584 0
0.839139 0.848478 0
0.876188 0.846418 0
0.913085 0.844388 0
0.949859 0.84239 0
0.986481 0.840421 0
1 0.838468 0
1 0.836561 0
0 0.945846 0
0 0.941573 0
0 0.938323 0
0 0.935378 0
0 0.932601 0
0.0237736 0.929915 0
0.0638132 0.927321 0
0.103593 0.924788 0
0.14316 0.922286 0
