public/filters/konnect/Presets A Lighter Skin Tone/Warm v1_21.2021-06-18 12-03-14.cube
TITLE "Generated by Resolve"
LUT_3D_SIZE 5
0.104967 0.0835431 0.0730144
0.247211 0.0897688 0.0634928
0.455375 0.0889601 0.0440833
0.65687 0.0734722 0.0395209
0.80145 0.0746471 0.0469368
0.0974899 0.204959 0.0871138
0.243732 0.220722 0.117586
0.485008 0.236027 0.0543069
0.686854 0.229053 0.0515908
0.83267 0.229953 0.0556649
0.0940414 0.374716 0.0968185
0.259205 0.40116 0.0765393
0.495842 0.451392 0.172381
0.656565 0.46215 0.164858
0.830884 0.477134 0.126665
0.100069 0.577539 0.0726177
0.22034 0.61004 0.0768902
0.563775 0.690959 0.102937
0.752529 0.718975 0.203616
0.867903 0.729885 0.251728
0.104234 0.733837 0.0683452
0.227787 0.765286 0.0718853
0.571984 0.853971 0.0763409
0.784085 0.889708 0.121569
0.902968 0.8851 0.189334
0.0868696 0.0892348 0.175647
0.245121 0.0924849 0.172015
0.455695 0.0600443 0.174929
0.648997 0.073991 0.159365
0.797253 0.0785229 0.149233
0.0900435 0.217395 0.20174
0.258549 0.226673 0.200778
0.487007 0.237446 0.190814
0.669139 0.207019 0.16495
0.82034 0.21033 0.158892
0.0928206 0.395483 0.223774
0.226032 0.408728 0.224323
0.494057 0.459297 0.266773
0.658564 0.470466 0.239567
0.831388 0.489876 0.210132
0.0978408 0.600778 0.22031
0.2159 0.619974 0.206012
0.555932 0.699733 0.193118
0.736309 0.72311 0.281285
0.849805 0.730434 0.331121
0.101411 0.766033 0.234501
0.226825 0.778515 0.230533
0.554376 0.864988 0.190051
0.761532 0.894484 0.20824
0.884199 0.893797 0.265339
0.0734112 0.0707713 0.330938
0.249088 0.0762493 0.321233
0.464927 0.0720684 0.340444
0.670695 0.0718547 0.35407
0.809705 0.0733654 0.359152
0.0797436 0.211902 0.357549
0.252399 0.22768 0.350134
0.499596 0.233082 0.371115
0.695735 0.198688 0.384894
0.820264 0.207065 0.380713
0.0883803 0.410056 0.401328
0.204959 0.424353 0.408301
0.532204 0.471046 0.429694
0.734279 0.486519 0.431678
0.8719 0.498634 0.429664
0.0876173 0.625193 0.425071
0.210101 0.639094 0.433082
0.558419 0.712428 0.445823
0.756451 0.73843 0.519493
0.865217 0.740276 0.536858
0.0868544 0.79556 0.444907
0.220691 0.793515 0.452125
0.517174 0.850416 0.470405
0.782666 0.907652 0.482155
0.904585 0.915938 0.518242
0.0793317 0.078645 0.494453
0.24477 0.0763714 0.493339
0.478218 0.0763867 0.518044
0.689082 0.0771344 0.53846
0.825071 0.0770886 0.547433
0.0762646 0.187762 0.526558
0.246281 0.214298 0.52697
0.507973 0.208957 0.552422
0.714397 0.193927 0.573831
0.843534 0.197665 0.578775
0.0831006 0.41352 0.581964
0.199176 0.434501 0.592782
0.541482 0.483818 0.605447
0.759655 0.494057 0.63122
0.879408 0.509606 0.644587
0.0890516 0.640375 0.62211
0.205417 0.656062 0.627756
0.525032 0.716899 0.650736
0.781277 0.762158 0.714397
0.889906 0.764508 0.711589
0.0877394 0.802045 0.641123
0.217334 0.808988 0.641733
0.510094 0.85687 0.663401
0.804349 0.918074 0.691966
0.925124 0.93254 0.719753
0.080415 0.0789349 0.639551
0.243824 0.0758831 0.640208
0.487816 0.0759136 0.667628
0.700435 0.0776989 0.690806
0.835828 0.0809644 0.698116
0.0804913 0.188342 0.66659
0.223194 0.234119 0.674128
0.517662 0.240146 0.703761
0.722515 0.205356 0.721904
0.853178 0.21178 0.72932
0.0879835 0.420691 0.721004
0.199542 0.442847 0.730144
0.537255 0.491295 0.748348
0.768154 0.504173 0.773205
0.893614 0.517586 0.783475
0.101808 0.642451 0.761578
0.209888 0.664302 0.766644
0.514733 0.72256 0.783673
0.794629 0.769802 0.824353
0.925475 0.78172 0.824308
0.106233 0.789609 0.773693
0.224201 0.816953 0.778973
0.504784 0.862165 0.793042
0.802594 0.91603 0.833036
0.938186 0.931533 0.860029
