public/filters/konnect/Presets A Lighter Skin Tone/Warm v1_21.2021-06-18 12-03-14.cube
TITLE "Generated by Resolve"
LUT_3D_SIZE 33
0.104967 0.0835431 0.0730144
0.122713 0.0838178 0.0705272
0.136278 0.0849165 0.069276
0.151232 0.0857557 0.0679179
0.168368 0.0862745 0.0664073
0.187243 0.0868391 0.0654154
0.205631 0.0878767 0.0647746
0.224338 0.0888533 0.0642252
0.247211 0.0897688 0.0634928
0.269978 0.090547 0.0627146
0.294835 0.0907301 0.0613107
0.319265 0.0909285 0.0588998
0.343923 0.0908675 0.0534524
0.369848 0.0908675 0.0484169
0.39736 0.0908217 0.0460365
0.426184 0.0903639 0.0449378
0.455375 0.0889601 0.0440833
0.483482 0.0863355 0.0434119
0.510002 0.0775006 0.0425422
0.536507 0.0723125 0.0417487
0.563043 0.0720073 0.0410773
0.588708 0.0722515 0.0403143
0.612955 0.0726482 0.0397345
0.635508 0.0730602 0.0394293
0.65687 0.0734722 0.0395209
0.677317 0.0738537 0.0397498
0.696956 0.0741436 0.0404364
0.715801 0.0743267 0.041413
0.733837 0.0745098 0.0428779
0.751415 0.0745708 0.0439918
0.768536 0.0746014 0.0449836
0.785397 0.0745861 0.0459754
0.80145 0.0746471 0.0469368
0.10515 0.0972 0.0774548
0.123201 0.0974746 0.0748302
0.137301 0.0985733 0.0730602
0.152651 0.0994736 0.0710765
0.169894 0.100145 0.0689555
0.189044 0.100877 0.0675212
0.207645 0.101976 0.0664683
0.22652 0.103166 0.0657969
0.249409 0.104204 0.0648661
0.272435 0.105043 0.0638132
0.297551 0.105196 0.0619974
0.322286 0.105394 0.0592355
0.34725 0.105348 0.053727
0.373541 0.105501 0.0493172
0.401297 0.105623 0.0469062
0.430076 0.105348 0.0457313
0.459098 0.104295 0.0446937
0.487083 0.101808 0.0438544
0.513542 0.09337 0.043061
0.540063 0.0879683 0.0424201
0.566476 0.0860304 0.0417182
0.592157 0.0863203 0.0411383
0.616388 0.0867475 0.0406348
0.639002 0.0871901 0.0408026
0.660426 0.0876478 0.0415198
0.680842 0.0880446 0.0418708
0.70045 0.088365 0.0424659
0.719219 0.0885634 0.0432441
0.737209 0.0887312 0.0441749
0.754803 0.0887922 0.0451209
0.771923 0.0888228 0.046067
0.788708 0.0888075 0.0470283
0.804654 0.0888228 0.0479591
0.103563 0.111513 0.0823835
0.120348 0.112032 0.0822919
0.136355 0.112947 0.0787213
0.153063 0.113725 0.0752422
0.170916 0.114473 0.0719768
0.190707 0.115251 0.0697337
0.209705 0.116457 0.0680858
0.22887 0.117922 0.0672923
0.251789 0.119112 0.0661326
0.274907 0.119829 0.0645609
0.300298 0.120043 0.0623484
0.325353 0.120394 0.0590524
0.350713 0.120638 0.0535592
0.377279 0.120912 0.0498054
0.405158 0.121248 0.0475776
0.433936 0.121294 0.0466163
0.462898 0.120714 0.0454566
0.490745 0.119005 0.0444038
0.51722 0.113268 0.0436866
0.543404 0.105272 0.0430304
0.56965 0.10045 0.0424811
0.595376 0.100862 0.0422827
0.619608 0.100938 0.0420539
0.642283 0.101396 0.0424201
0.663737 0.101869 0.0431525
0.684138 0.102281 0.0435187
0.703731 0.102602 0.0440223
0.722515 0.102861 0.0446326
0.740551 0.102983 0.0453346
0.758083 0.103044 0.0461891
0.775235 0.103075 0.0471046
0.79202 0.103075 0.0480354
0.807935 0.103075 0.0489662
0.103456 0.126055 0.0861372
0.119448 0.126574 0.0890059
0.135119 0.127703 0.0864576
0.151461 0.128832 0.0836347
0.169192 0.129976 0.0801251
0.190005 0.130877 0.076112
0.209979 0.131823 0.0723583
0.229999 0.132906 0.0698558
0.253361 0.134264 0.0681315
0.277073 0.13547 0.0666819
0.302846 0.136263 0.0648966
0.328145 0.137087 0.0614939
0.353704 0.137804 0.0558175
0.380529 0.138445 0.0520027
0.408789 0.138857 0.0502937
0.437934 0.138811 0.0493477
0.46714 0.138354 0.0480659
0.495109 0.137102 0.0466773
0.521416 0.133715 0.0457618
0.547158 0.125917 0.0442664
0.572946 0.11873 0.0434577
0.598215 0.115221 0.0438392
0.622385 0.115465 0.0439307
0.644999 0.115724 0.0441291
0.666377 0.116121 0.0444038
0.686839 0.116533 0.0446784
0.706508 0.116869 0.0451057
0.725475 0.117128 0.0457008
0.743648 0.117311 0.0464027
0.761318 0.117342 0.0472419
0.778561 0.117388 0.048127
0.795331 0.117372 0.0489967
0.811246 0.117388 0.0499123
0.104417 0.140291 0.088838
0.120241 0.140658 0.0948501
0.133486 0.142351 0.0957351
0.148241 0.144045 0.0947433
0.16556 0.14583 0.0911269
0.18764 0.146593 0.0841382
0.209033 0.147173 0.0772717
0.229877 0.147936 0.0732738
0.253941 0.149447 0.0710307
0.278325 0.150881 0.0690318
0.30486 0.152071 0.0670481
0.330526 0.153353 0.0636606
0.356435 0.154589 0.0578012
0.383536 0.155749 0.0539254
0.411978 0.156497 0.0525673
0.441382 0.156603 0.0516823
0.47071 0.156329 0.0505989
0.498802 0.15552 0.0492714
0.525017 0.153689 0.0485542
0.550423 0.14815 0.0471656
0.575525 0.139116 0.0457008
0.600214 0.131914 0.0453803
0.624063 0.130053 0.0453956
0.646616 0.130144 0.0454108
0.668193 0.130571 0.0455634
0.688945 0.130922 0.0457618
0.708858 0.131212 0.0461128
0.728161 0.131472 0.0467079
0.746609 0.131655 0.0473793
0.764462 0.131746 0.0482032
0.781918 0.131716 0.0490883
0.798764 0.131731 0.0499733
0.81474 0.131731 0.0508431
0.105684 0.154894 0.0882124
0.122408 0.155062 0.0944381
0.135424 0.15668 0.0990311
0.149538 0.158541 0.101152
0.165347 0.160662 0.100038
0.185168 0.162173 0.0955825
0.204578 0.163622 0.0907912
0.224811 0.164523 0.0853437
0.250965 0.165331 0.0784161
0.277607 0.166186 0.0725414
0.305943 0.167544 0.0688334
0.332525 0.16939 0.0654917
0.358907 0.17113 0.0594034
0.386404 0.172778 0.0553902
0.415106 0.173877 0.0539406
0.444526 0.17438 0.0533455
0.473884 0.174426 0.0527047
0.50193 0.173907 0.0519265
0.527962 0.172549 0.0509804
0.553216 0.169406 0.0497902
0.577615 0.161501 0.0482338
0.601373 0.1523 0.0470436
0.624659 0.145495 0.046479
0.647196 0.14522 0.0464942
0.668986 0.145159 0.0465705
0.690181 0.14548 0.0467689
0.710704 0.145754 0.0470741
0.730541 0.145937 0.0476539
0.749477 0.146044 0.0483253
0.767666 0.14612 0.049134
0.785473 0.146151 0.0500191
0.802426 0.146105 0.0508888
0.81857 0.14612 0.0517739
0.107454 0.170184 0.0861372
0.125643 0.170199 0.0916304
0.138277 0.171725 0.100252
0.151598 0.173434 0.106386
0.165438 0.175891 0.108553
0.18294 0.178271 0.107118
0.201038 0.180499 0.103899
0.220996 0.181704 0.0978408
0.247639 0.182254 0.088838
0.274388 0.183078 0.0813458
0.303471 0.184237 0.0750134
0.331762 0.185901 0.068925
0.359808 0.18761 0.060853
0.388602 0.18967 0.0563058
0.418112 0.191394 0.0549172
0.44828 0.192401 0.0542
0.47834 0.192859 0.0535286
0.507195 0.192828 0.0529488
0.534188 0.191974 0.0522621
0.56054 0.189395 0.0513008
0.586053 0.185122 0.0500954
0.610285 0.177432 0.0487068
0.633524 0.169299 0.0476844
0.655894 0.165866 0.047364
0.677363 0.164813 0.0474403
0.697993 0.162997 0.0476692
0.7178 0.161501 0.0480354
0.736812 0.161059 0.0486305
0.755199 0.161715 0.049424
0.772839 0.162463 0.0502632
0.790234 0.163165 0.0511788
0.806836 0.163745 0.0520638
0.822873 0.164233 0.0529183
0.103151 0.187411 0.0858473
0.123842 0.187411 0.0889296
0.139376 0.188251 0.0967422
0.154391 0.189654 0.103731
0.168902 0.191989 0.110094
0.185855 0.194827 0.112917
0.202289 0.197787 0.113558
0.219684 0.200549 0.112093
0.242588 0.201968 0.105562
0.267674 0.202609 0.0963149
0.298329 0.20293 0.0843977
0.328939 0.20415 0.0734722
0.358618 0.20618 0.0640116
0.388632 0.20882 0.0586557
0.42002 0.211276 0.0558938
0.451591 0.213062 0.0543679
0.4822 0.214389 0.0537881
0.511299 0.215 0.0536049
0.538537 0.214786 0.0533761
0.565103 0.213291 0.0529793
0.590967 0.211032 0.052369
0.615641 0.207401 0.0514687
0.638834 0.203342 0.0504463
0.660761 0.200244 0.0497139
0.681697 0.19733 0.0493172
0.701961 0.193286 0.0492256
0.721706 0.190295 0.0494698
0.740734 0.188968 0.0499886
0.759258 0.18967 0.0508125
0.777096 0.190921 0.051667
0.794491 0.192157 0.0525673
0.811292 0.193545 0.0534371
0.827558 0.194598 0.0542916
0.0974899 0.204959 0.0871138
0.119677 0.204791 0.0875868
0.137774 0.205371 0.0932784
0.155184 0.206424 0.0994278
0.171435 0.208515 0.108598
0.189532 0.211475 0.115404
0.205829 0.214755 0.119097
0.222644 0.218097 0.120134
0.243732 0.220722 0.117586
0.266468 0.222354 0.111437
0.293416 0.223026 0.100984
0.321187 0.223972 0.0879225
0.351034 0.225818 0.0752575
0.384268 0.228183 0.0644541
0.420188 0.23093 0.0570535
0.453407 0.233783 0.0548867
0.485008 0.236027 0.0543069
0.514992 0.237446 0.0542153
0.542504 0.237858 0.0543374
0.569268 0.237354 0.0543526
0.595422 0.236103 0.0541543
0.620447 0.234791 0.0537118
0.644038 0.233234 0.0529793
0.666102 0.231479 0.0522316
0.686854 0.229053 0.0515908
0.706905 0.226154 0.0512551
0.72639 0.223789 0.0512551
0.745235 0.222995 0.0515908
0.763577 0.223713 0.0522621
0.781552 0.22501 0.0530556
0.799069 0.226566 0.0539254
0.816114 0.228107 0.0547951
0.83267 0.229953 0.0556649
0.0940108 0.222507 0.0894484
0.114305 0.222263 0.0898299
0.132738 0.222766 0.0911421
0.152621 0.223774 0.0928817
0.173495 0.225422 0.104509
0.193942 0.228092 0.115328
0.210819 0.231525 0.122087
0.227329 0.235233 0.125475
0.246891 0.238911 0.127016
0.267826 0.241505 0.124163
0.292195 0.242969 0.116777
0.317617 0.244007 0.104494
0.345312 0.245655 0.0923781
0.376577 0.248051 0.0817578
0.410788 0.250797 0.0730449
0.447349 0.253742 0.0654612
0.483955 0.256519 0.0594949
0.516793 0.258885 0.057023
0.54551 0.260395 0.0564889
0.572732 0.260838 0.0562448
0.59913 0.260502 0.0559548
0.624384 0.259754 0.0555123
0.648249 0.259007 0.0549935
0.670634 0.258091 0.0544137
0.691752 0.256992 0.0538796
0.712016 0.256123 0.0535439
0.731685 0.255619 0.0535286
0.750652 0.255756 0.0537728
0.769024 0.256245 0.0542153
0.787121 0.256718 0.0548562
0.804761 0.257374 0.0555581
0.822003 0.258366 0.0563211
0.838712 0.259663 0.057084
0.0937057 0.240543 0.0915541
0.110689 0.24036 0.0918593
0.127459 0.240787 0.092195
0.147402 0.241886 0.0924697
0.171847 0.24361 0.0987869
0.196429 0.246204 0.109926
0.215793 0.24947 0.120516
0.232837 0.253193 0.127504
0.252247 0.257099 0.131487
0.272251 0.261051 0.13341
0.294316 0.263996 0.130922
0.316884 0.265324 0.120592
0.342016 0.267231 0.110445
0.370459 0.269322 0.100603
0.402869 0.271778 0.0911879
0.438193 0.274678 0.0823072
0.474815 0.27779 0.0744182
0.509682 0.280812 0.0686961
0.542184 0.283055 0.0638743
0.572869 0.284276 0.0601816
0.600931 0.284779 0.0584878
0.626841 0.284779 0.0577096
0.651057 0.284627 0.057145
0.673808 0.28423 0.0566262
0.695323 0.283558 0.0561532
0.715969 0.283024 0.0558328
0.736034 0.282628 0.0556954
0.755444 0.282902 0.0558328
0.774151 0.283207 0.0561379
0.792508 0.283528 0.0566415
0.810529 0.284153 0.0572213
0.827985 0.285206 0.0578775
0.844999 0.286534 0.0585641
0.0936599 0.260365 0.0935225
0.110491 0.26006 0.093843
0.127031 0.260517 0.0940108
0.143877 0.261738 0.0938735
0.164279 0.263416 0.0950637
0.194751 0.266285 0.102113
0.21854 0.269505 0.113848
0.237873 0.273213 0.124681
0.258503 0.27747 0.132372
0.278614 0.281605 0.136355
0.300694 0.285649 0.13724
0.322316 0.289555 0.133272
0.344045 0.291875 0.127703
0.36878 0.293797 0.120211
0.39736 0.295888 0.112093
0.429282 0.298421 0.10341
0.463783 0.301366 0.0946059
0.498283 0.304555 0.0868391
0.53109 0.307469 0.0801862
0.563043 0.309712 0.0744488
0.59353 0.311376 0.0697642
0.622461 0.312398 0.0656291
0.649226 0.312749 0.0623178
0.673655 0.312932 0.0603342
0.696239 0.31284 0.0593271
0.717754 0.312566 0.058793
0.738659 0.312459 0.0585336
0.758938 0.312535 0.0584573
0.778546 0.312825 0.0585489
0.797543 0.313085 0.0588388
0.816266 0.313771 0.0593118
0.834165 0.314656 0.0598001
0.851575 0.315908 0.0603647
0.0936294 0.282277 0.0950027
0.110185 0.281758 0.095491
0.126497 0.282017 0.0957504
0.142519 0.282994 0.095613
0.159747 0.285878 0.0956436
0.185794 0.288792 0.0949569
0.216648 0.292485 0.102022
0.240696 0.296101 0.115557
0.264363 0.300343 0.127718
0.285771 0.304555 0.134569
0.308217 0.309087 0.136141
0.330907 0.314458 0.137179
0.353353 0.319799 0.139254
0.37499 0.322667 0.137865
0.398642 0.324361 0.132677
0.425589 0.326146 0.125704
0.455879 0.328695 0.117784
0.487312 0.331563 0.110018
0.518257 0.334279 0.10277
0.550057 0.336812 0.0958572
0.582391 0.338918 0.0890516
0.614145 0.340658 0.0827039
0.644251 0.341772 0.0769818
0.672099 0.342382 0.0722667
0.698329 0.342321 0.0680858
0.722988 0.342077 0.0648356
0.746197 0.341985 0.062562
0.767361 0.342123 0.061738
0.787167 0.342565 0.0615702
0.806058 0.343343 0.0616617
0.824353 0.344137 0.0618906
0.8421 0.34551 0.0622568
0.859129 0.347143 0.0626535
0.0936599 0.303899 0.0959029
0.110048 0.303761 0.0966659
0.126146 0.304372 0.0971389
0.141939 0.305715 0.0972
0.158099 0.307683 0.0967269
0.1776 0.310491 0.09514
0.210422 0.31516 0.0948348
0.240803 0.319493 0.103716
0.269215 0.32372 0.117678
0.292866 0.328023 0.127245
0.316793 0.332937 0.132219
0.340337 0.338933 0.138766
0.363714 0.34522 0.14374
0.387182 0.350942 0.147051
0.409293 0.35407 0.146441
0.432364 0.35552 0.141985
0.457938 0.357336 0.136126
0.485039 0.359579 0.129809
0.512398 0.361929 0.12372
0.541009 0.36405 0.117769
0.57084 0.366186 0.111635
0.600961 0.368246 0.105653
0.630472 0.370336 0.100053
0.659007 0.371893 0.0944076
0.686793 0.372793 0.0884413
0.713573 0.373327 0.0827802
0.739101 0.373861 0.0779278
0.763165 0.374273 0.0738842
0.78613 0.374655 0.0704051
0.80763 0.375265 0.0678874
0.828092 0.376196 0.0659953
0.846616 0.377661 0.0657206
0.864256 0.379324 0.0656443
0.0937209 0.32668 0.0969863
0.109987 0.326452 0.097734
0.125948 0.327062 0.0981918
0.141604 0.328527 0.0981918
0.157534 0.330541 0.0975814
0.174075 0.333394 0.0958267
0.203357 0.338262 0.0923934
0.236759 0.34342 0.0928817
0.271336 0.348196 0.102708
0.298894 0.352575 0.114183
0.325368 0.357733 0.126619
0.350179 0.364034 0.137438
0.374228 0.370565 0.144976
0.398306 0.377096 0.150057
0.422477 0.382849 0.152224
0.445365 0.386206 0.151675
0.467887 0.388067 0.148882
0.490837 0.389715 0.145296
0.513848 0.391226 0.141817
0.538415 0.392828 0.13843
0.564706 0.394476 0.134127
0.591928 0.396246 0.129244
0.619242 0.398093 0.124071
0.646235 0.399969 0.118822
0.672786 0.401694 0.113405
0.699001 0.403311 0.108064
0.72491 0.404623 0.102449
0.750164 0.405798 0.0968185
0.774701 0.406744 0.0910658
0.798428 0.407691 0.0859083
0.821042 0.40885 0.0814527
0.842939 0.410163 0.0772869
0.863615 0.411688 0.0740215
0.0938277 0.350103 0.0974136
0.110033 0.34992 0.0981155
0.125856 0.350545 0.0985122
0.141253 0.351995 0.098497
0.156863 0.354131 0.0977798
0.172702 0.357015 0.0954147
0.194308 0.361364 0.0902113
0.227237 0.367605 0.0845045
0.268864 0.37409 0.0870527
0.303075 0.379263 0.0996567
0.332982 0.384375 0.117449
0.359609 0.390616 0.132219
0.384695 0.397147 0.14374
0.409384 0.403952 0.152514
0.434104 0.410468 0.158358
0.458701 0.416175 0.162234
0.481636 0.419791 0.163699
0.502739 0.421958 0.163317
0.522469 0.423224 0.161975
0.542718 0.423957 0.16022
0.564569 0.424872 0.157549
0.588022 0.426246 0.153872
0.612253 0.427832 0.149493
0.63682 0.429221 0.144335
0.661646 0.430793 0.138933
0.686488 0.432273 0.133486
0.711391 0.434058 0.128237
0.735592 0.43595 0.123171
0.759121 0.437842 0.118166
0.782391 0.439506 0.112795
0.805646 0.441093 0.10721
0.828107 0.44271 0.101808
0.849867 0.444663 0.0968795
0.0940414 0.374716 0.0968185
0.110216 0.374472 0.0974289
0.125856 0.375143 0.097673
0.140948 0.376608 0.0973678
0.156252 0.378805 0.0960098
0.171832 0.381903 0.0918288
0.188159 0.386313 0.0855726
0.215427 0.392676 0.0795453
0.259205 0.40116 0.0765393
0.303975 0.40795 0.0877546
0.338582 0.413428 0.104631
0.367834 0.419409 0.121706
0.394675 0.425879 0.13695
0.420356 0.432547 0.149767
0.445808 0.439445 0.159213
0.471107 0.445731 0.166766
0.495842 0.451392 0.172381
0.518456 0.455619 0.175753
0.538079 0.457877 0.177142
0.556405 0.458564 0.177188
0.574609 0.458564 0.176272
0.593652 0.458976 0.174792
0.613794 0.459953 0.172549
0.634836 0.461006 0.169116
0.656565 0.46215 0.164858
0.678752 0.463355 0.160067
0.70132 0.464927 0.15523
0.723751 0.466819 0.150546
0.745739 0.468666 0.145724
0.767315 0.470741 0.141131
0.789075 0.47277 0.136172
0.810361 0.474815 0.131258
0.830884 0.477134 0.126665
0.0943923 0.400748 0.0952926
0.110552 0.400473 0.0954452
0.126055 0.400961 0.0949874
0.140917 0.402533 0.0936294
0.156008 0.404822 0.0911421
0.171389 0.408438 0.0849165
0.187396 0.413321 0.0809033
0.206607 0.419608 0.0784924
0.24419 0.428519 0.0755932
0.300603 0.437812 0.0790417
0.341039 0.444175 0.0918441
0.373816 0.450324 0.108049
0.403281 0.456779 0.124895
0.430716 0.463493 0.140719
0.457176 0.470024 0.154253
0.483299 0.476402 0.165606
0.508858 0.482536 0.174762
0.532845 0.488212 0.181567
0.554223 0.492485 0.186328
0.5738 0.495094 0.189227
0.591638 0.495827 0.190173
0.60827 0.495552 0.189853
0.624521 0.495247 0.18938
0.641276 0.495491 0.188693
0.658824 0.495964 0.187243
0.677272 0.496773 0.184924
0.696651 0.498039 0.181872
0.716823 0.499779 0.178195
0.73695 0.501656 0.174289
0.756985 0.503365 0.170016
0.777173 0.505425 0.165713
0.797253 0.507515 0.161257
0.816739 0.509743 0.156954
0.0950027 0.427482 0.0919051
0.111162 0.426902 0.0904555
0.126635 0.427298 0.0881666
0.14139 0.428473 0.0856947
0.156313 0.430777 0.0834821
0.171359 0.434379 0.0815747
0.186908 0.441886 0.0801556
0.202945 0.447959 0.0795911
0.233326 0.456184 0.0777447
0.290791 0.467292 0.0752422
0.340612 0.475441 0.0826123
0.377111 0.482155 0.0952926
0.409491 0.488884 0.110567
0.439155 0.495583 0.127214
0.467292 0.501991 0.14342
0.49453 0.508217 0.15819
0.520638 0.514397 0.170596
0.544945 0.52015 0.180194
0.566873 0.525002 0.18764
0.587808 0.529046 0.193347
0.607523 0.531716 0.197452
0.625834 0.533074 0.200015
0.642603 0.533059 0.2009
0.658427 0.532357 0.200855
0.674235 0.531792 0.200748
0.690455 0.531533 0.20032
0.707668 0.532235 0.199496
0.725505 0.533791 0.198276
0.743389 0.535637 0.196506
0.761379 0.537331 0.19382
0.779141 0.539193 0.19089
0.796338 0.54136 0.188098
0.813397 0.543511 0.184802
0.0956436 0.452155 0.0822156
0.111864 0.452049 0.08159
0.127337 0.453086 0.0809186
0.142031 0.455009 0.0806897
0.156756 0.45803 0.0808881
0.171481 0.462272 0.0810101
0.186679 0.467765 0.0809644
0.202304 0.474327 0.0805219
0.223789 0.48217 0.0795605
0.263294 0.49247 0.0768902
0.339132 0.505043 0.0775311
0.379446 0.512779 0.0865187
0.414267 0.520012 0.0988022
0.446403 0.526925 0.114015
0.476753 0.533455 0.130419
0.505791 0.539635 0.146899
0.533196 0.5458 0.161471
0.558373 0.551614 0.173449
0.580682 0.556512 0.182422
0.601877 0.560647 0.190036
0.622431 0.564187 0.196735
0.642023 0.566979 0.202792
0.660121 0.568582 0.207294
0.676844 0.569131 0.210208
0.692241 0.568521 0.21149
0.707301 0.567727 0.211887
0.722698 0.567681 0.211917
0.738262 0.568276 0.211948
0.75378 0.569451 0.211856
0.769482 0.571038 0.211383
0.785183 0.572824 0.210529
0.800366 0.574578 0.209384
0.815366 0.57673 0.207919
0.0964065 0.477745 0.0771344
0.112657 0.477745 0.0777905
0.128115 0.478874 0.0784772
0.142748 0.480781 0.0793622
0.157321 0.483742 0.0801862
0.171771 0.48806 0.080827
0.186679 0.493538 0.0810101
0.201999 0.500221 0.0808118
0.22063 0.507958 0.0802167
0.252537 0.517662 0.0783856
0.335744 0.532433 0.0751659
0.380301 0.541421 0.0805829
0.417304 0.549279 0.0899977
0.451606 0.556619 0.102525
0.484138 0.563424 0.117357
0.51487 0.569802 0.133547
0.543908 0.576074 0.148989
0.570169 0.581903 0.162463
0.593027 0.586725 0.173053
0.614572 0.590845 0.182559
0.635355 0.5944 0.191577
0.655329 0.597391 0.200458
0.674342 0.600076 0.208164
0.692058 0.601785 0.214313
0.708736 0.602762 0.218753
0.724361 0.602914 0.221195
0.739391 0.602747 0.222095
0.754284 0.603098 0.222568
0.768627 0.603632 0.222843
0.782574 0.604349 0.223102
0.796613 0.605539 0.223255
0.810193 0.606806 0.223209
0.823209 0.608286 0.223163
0.0971389 0.503349 0.0750896
0.113512 0.503319 0.0763714
0.128969 0.504356 0.0775464
0.143557 0.506447 0.0786297
0.157977 0.509346 0.0795605
0.172244 0.513634 0.0803082
0.186954 0.519387 0.0805982
0.201999 0.526223 0.0804761
0.219623 0.534081 0.0800488
0.248264 0.543465 0.0787518
0.330465 0.559258 0.0742809
0.379416 0.569879 0.0762951
0.418418 0.5785 0.0831006
0.454337 0.586313 0.0928511
0.488426 0.593347 0.105577
0.520851 0.599908 0.12079
0.551431 0.606134 0.136751
0.578897 0.61178 0.151843
0.602487 0.616617 0.164752
0.624384 0.620554 0.176455
0.645304 0.623987 0.187198
0.665415 0.627039 0.197345
0.684627 0.629816 0.206348
0.703029 0.632334 0.21416
0.720699 0.634256 0.220722
0.737804 0.635874 0.225757
0.754223 0.637095 0.229053
0.769833 0.638102 0.231205
0.784314 0.638743 0.232532
0.79762 0.639109 0.233326
0.81004 0.6392 0.233616
0.822019 0.639414 0.233799
0.833631 0.639902 0.233967
0.0980545 0.52874 0.0742809
0.114473 0.528634 0.0755169
0.129931 0.529595 0.0766613
0.144488 0.531594 0.0777295
0.158831 0.534661 0.0786297
0.172961 0.53901 0.0793622
0.187549 0.544915 0.0795758
0.202426 0.552026 0.0793927
0.219394 0.560098 0.0790112
0.24509 0.569131 0.0782177
0.323476 0.585168 0.0739452
0.377722 0.597528 0.0736553
0.418845 0.606867 0.0782483
0.456031 0.615183 0.085481
0.491508 0.622797 0.0959182
0.525536 0.629679 0.109148
0.557824 0.636072 0.124025
0.586923 0.64181 0.139178
0.611856 0.646494 0.153368
0.634928 0.650416 0.166873
0.656718 0.65388 0.179446
0.677272 0.656779 0.191119
0.696864 0.659617 0.201511
0.715496 0.662196 0.210559
0.733364 0.664302 0.218524
0.750896 0.666468 0.225406
0.767865 0.668544 0.230915
0.783108 0.669947 0.234913
0.797269 0.670985 0.237949
0.810529 0.671702 0.240253
0.822812 0.671885 0.241672
0.834638 0.67219 0.242679
0.846082 0.672618 0.243503
0.0990463 0.553597 0.0734417
0.115511 0.553323 0.0746166
0.130999 0.554223 0.0757
0.145541 0.556207 0.0766613
0.159869 0.559365 0.0774243
0.174014 0.563867 0.0779583
0.188464 0.569909 0.0780499
0.20325 0.577188 0.07776
0.21973 0.585489 0.0773938
0.243091 0.594476 0.0769665
0.316228 0.609827 0.0735637
0.375341 0.623621 0.0723583
0.418708 0.633692 0.0751812
0.456748 0.642664 0.0802625
0.493095 0.65066 0.0885176
0.528313 0.657801 0.0996109
0.562142 0.664637 0.112535
0.592615 0.670542 0.126329
0.619196 0.675364 0.140459
0.643549 0.679332 0.15465
0.666316 0.682643 0.168429
0.687572 0.685542 0.181369
0.707424 0.688212 0.193011
0.726146 0.690608 0.203357
0.744015 0.692729 0.212634
0.761059 0.694636 0.220783
0.776745 0.696178 0.227573
0.791302 0.697444 0.233097
0.805417 0.698756 0.237812
0.819181 0.700023 0.241917
0.832197 0.700984 0.244862
0.8448 0.701991 0.247425
0.856886 0.702846 0.249561
0.100069 0.577539 0.0726177
0.116625 0.577005 0.0737163
0.132158 0.5776 0.0747845
0.146761 0.579278 0.0757916
0.161135 0.582055 0.0767071
0.175311 0.58616 0.0774853
0.18967 0.591623 0.0780346
0.204135 0.598352 0.0784009
0.22034 0.61004 0.0768902
0.241474 0.618296 0.0769818
0.308766 0.63238 0.0746014
0.371984 0.647089 0.0728618
0.418082 0.658183 0.0741131
0.456703 0.667689 0.0774701
0.493553 0.676173 0.0833753
0.52929 0.683772 0.0921798
0.563775 0.690959 0.102937
0.595056 0.697124 0.114778
0.622553 0.702098 0.127138
0.647791 0.705974 0.140536
0.671443 0.709239 0.154345
0.693614 0.712123 0.167803
0.714351 0.714656 0.180621
0.733913 0.716976 0.192615
0.752529 0.718975 0.203616
0.76968 0.72047 0.213367
0.785031 0.721447 0.221668
0.799908 0.722591 0.22858
0.814618 0.724056 0.234668
0.828901 0.725673 0.24004
0.842466 0.727108 0.244419
0.855482 0.728511 0.24828
0.867903 0.729885 0.251728
0.101045 0.597498 0.0719463
0.117678 0.597391 0.0729076
0.133333 0.598413 0.0738689
0.147997 0.600397 0.0748455
0.162432 0.603494 0.0757305
0.176623 0.608057 0.0765087
0.190951 0.61413 0.0770123
0.205371 0.621424 0.0772717
0.220752 0.629679 0.0773785
0.240162 0.638575 0.077348
0.303609 0.652155 0.0756085
0.370474 0.668086 0.0735332
0.418708 0.680064 0.0739452
0.457801 0.690242 0.0760357
0.495171 0.69929 0.080354
0.531716 0.707439 0.0872206
0.566857 0.714977 0.0962387
0.599023 0.721584 0.106416
0.627482 0.72697 0.117327
0.653681 0.731121 0.129091
0.67834 0.734539 0.141817
0.70132 0.737346 0.1552
0.722698 0.739879 0.168353
0.742733 0.742123 0.181155
0.761257 0.743755 0.193317
0.777447 0.744488 0.20412
0.792447 0.744961 0.213886
0.807157 0.745892 0.221958
0.821668 0.747082 0.229053
0.835798 0.74844 0.235386
0.849378 0.749889 0.240726
0.862547 0.751431 0.245609
0.875212 0.753002 0.250172
0.1019 0.618143 0.0712596
0.1187 0.618112 0.0720989
0.134463 0.619135 0.0729839
0.149218 0.62118 0.0738842
0.163699 0.624262 0.0747387
0.17789 0.628717 0.0755474
0.192218 0.634699 0.0761273
0.206638 0.641917 0.0765087
0.221881 0.650248 0.0767376
0.239841 0.658946 0.0768444
0.299779 0.671626 0.0758984
0.368429 0.687877 0.0738079
0.419181 0.700679 0.0738384
0.458808 0.711299 0.0749828
0.496559 0.720851 0.0781872
