public/filters/konnect/Presets A Lighter Skin Tone/Warm v1_21.2021-06-18 12-03-14.cube
TITLE "Generated by Resolve"
LUT_3D_SIZE 9
0.104967 0.0835431 0.0730144
0.168368 0.0862745 0.0664073
0.247211 0.0897688 0.0634928
0.343923 0.0908675 0.0534524
0.455375 0.0889601 0.0440833
0.563043 0.0720073 0.0410773
0.65687 0.0734722 0.0395209
0.733837 0.0745098 0.0428779
0.80145 0.0746471 0.0469368
0.104417 0.140291 0.088838
0.16556 0.14583 0.0911269
0.253941 0.149447 0.0710307
0.356435 0.154589 0.0578012
0.47071 0.156329 0.0505989
0.575525 0.139116 0.0457008
0.668193 0.130571 0.0455634
0.746609 0.131655 0.0473793
0.81474 0.131731 0.0508431
0.0974899 0.204959 0.0871138
0.171435 0.208515 0.108598
0.243732 0.220722 0.117586
0.351034 0.225818 0.0752575
0.485008 0.236027 0.0543069
0.595422 0.236103 0.0541543
0.686854 0.229053 0.0515908
0.763577 0.223713 0.0522621
0.83267 0.229953 0.0556649
0.0936294 0.282277 0.0950027
0.159747 0.285878 0.0956436
0.264363 0.300343 0.127718
0.353353 0.319799 0.139254
0.455879 0.328695 0.117784
0.582391 0.338918 0.0890516
0.698329 0.342321 0.0680858
0.787167 0.342565 0.0615702
0.859129 0.347143 0.0626535
0.0940414 0.374716 0.0968185
0.156252 0.378805 0.0960098
0.259205 0.40116 0.0765393
0.394675 0.425879 0.13695
0.495842 0.451392 0.172381
0.574609 0.458564 0.176272
0.656565 0.46215 0.164858
0.745739 0.468666 0.145724
0.830884 0.477134 0.126665
0.0964065 0.477745 0.0771344
0.157321 0.483742 0.0801862
0.22063 0.507958 0.0802167
0.417304 0.549279 0.0899977
0.543908 0.576074 0.148989
0.635355 0.5944 0.191577
0.708736 0.602762 0.218753
0.768627 0.603632 0.222843
0.823209 0.608286 0.223163
0.100069 0.577539 0.0726177
0.161135 0.582055 0.0767071
0.22034 0.61004 0.0768902
0.418082 0.658183 0.0741131
0.563775 0.690959 0.102937
0.671443 0.709239 0.154345
0.752529 0.718975 0.203616
0.814618 0.724056 0.234668
0.867903 0.729885 0.251728
0.102632 0.658427 0.0699931
0.166155 0.664378 0.0728618
0.224277 0.690288 0.0743114
0.418769 0.740902 0.0717632
0.569635 0.779416 0.0828565
0.686091 0.801877 0.113817
0.773648 0.810575 0.15819
0.835843 0.810636 0.20029
0.889357 0.812741 0.230457
0.104234 0.733837 0.0683452
0.169436 0.741299 0.0699626
0.227787 0.765286 0.0718853
0.423514 0.812833 0.0724193
0.571984 0.853971 0.0763409
0.69189 0.879667 0.0927443
0.784085 0.889708 0.121569
0.849271 0.887541 0.157671
0.902968 0.8851 0.189334
0.0962387 0.0867018 0.117006
0.160708 0.0893568 0.115236
0.246509 0.0917372 0.114244
0.345129 0.0891432 0.11017
0.455406 0.0737316 0.0936904
0.560342 0.0721599 0.0914473
0.650782 0.0735637 0.0905318
0.729458 0.075639 0.0910506
0.80119 0.0764935 0.0940108
0.096788 0.145174 0.133257
0.170535 0.147066 0.129381
0.25539 0.152956 0.122652
0.358007 0.156237 0.116869
0.47129 0.152483 0.0990921
0.574075 0.131273 0.0950637
0.66305 0.132677 0.0943923
0.740764 0.134142 0.0948806
0.813169 0.134051 0.0979171
0.0937514 0.211826 0.140887
0.166567 0.212528 0.152758
0.250019 0.22443 0.156481
0.368414 0.23003 0.123171
0.487648 0.237659 0.105425
0.592142 0.237644 0.103365
0.67718 0.228473 0.099855
0.754147 0.226825 0.0997024
0.827955 0.228199 0.102693
0.0931716 0.291615 0.150927
0.157061 0.291859 0.151308
0.264179 0.306004 0.175891
0.355505 0.323461 0.182437
0.466651 0.33315 0.150683
0.592264 0.34548 0.126726
0.695079 0.348714 0.112139
0.776471 0.351034 0.10956
0.85214 0.355261 0.110338
0.0939803 0.386526 0.155261
0.155306 0.388006 0.155795
0.247501 0.406043 0.138262
0.396216 0.432685 0.178698
0.496696 0.457832 0.212589
0.573816 0.464561 0.212726
0.65304 0.468299 0.203342
0.739895 0.477119 0.188693
0.82945 0.486748 0.171008
0.0965438 0.491249 0.147402
0.157244 0.493431 0.135607
0.218021 0.514611 0.13051
0.416098 0.557931 0.133745
0.543938 0.583307 0.190951
0.632273 0.600397 0.233661
0.702098 0.607782 0.256565
0.758785 0.608286 0.262898
0.81474 0.612406 0.262974
0.099794 0.588388 0.121523
0.161013 0.591867 0.125216
0.218647 0.616556 0.128008
0.414755 0.665705 0.123674
0.561303 0.697536 0.14583
0.666804 0.714748 0.193011
0.743999 0.722576 0.238849
0.802823 0.72546 0.272297
0.858488 0.731212 0.290501
0.102434 0.671046 0.118212
0.166018 0.673716 0.121309
0.223423 0.697383 0.12398
0.41236 0.748043 0.123217
0.563058 0.786435 0.129519
0.677317 0.806775 0.155215
0.762646 0.81442 0.19408
0.826505 0.813794 0.236683
0.882277 0.815717 0.268574
0.104173 0.747112 0.131899
0.169863 0.750668 0.122026
0.228107 0.771695 0.120882
0.413504 0.81857 0.122652
0.563333 0.86247 0.125338
0.67953 0.884489 0.137179
0.769772 0.894316 0.161196
0.839063 0.892638 0.194476
0.895857 0.890089 0.226581
0.0868696 0.0892348 0.175647
0.157198 0.0911727 0.166369
0.245121 0.0924849 0.172015
0.345235 0.0842908 0.17583
0.455695 0.0600443 0.174929
0.560616 0.067689 0.166049
0.648997 0.073991 0.159365
0.728695 0.0747082 0.150134
0.797253 0.0785229 0.149233
0.0904097 0.148959 0.187854
0.164797 0.149874 0.180713
0.252598 0.156054 0.183017
0.357763 0.157961 0.185229
0.468742 0.141726 0.179538
0.575128 0.132006 0.173297
0.661036 0.134646 0.161532
0.737881 0.136645 0.158755
0.808804 0.137087 0.157046
0.0900435 0.217395 0.20174
0.157656 0.216587 0.200763
0.258549 0.226673 0.200778
0.372366 0.234974 0.194446
0.487007 0.237446 0.190814
0.588815 0.224094 0.177569
0.669139 0.207019 0.16495
0.747875 0.205249 0.158663
0.82034 0.21033 0.158892
0.0913558 0.29929 0.216022
0.151507 0.298558 0.214862
0.258396 0.310307 0.231235
0.362341 0.328145 0.242267
0.490791 0.338064 0.206546
0.605676 0.346456 0.185779
0.692607 0.346456 0.164019
0.767971 0.348409 0.159457
0.842695 0.353262 0.159564
0.0928206 0.395483 0.223774
0.153475 0.396704 0.225559
0.226032 0.408728 0.224323
0.395132 0.437766 0.253422
0.494057 0.459297 0.266773
0.572702 0.464424 0.252537
0.658564 0.470466 0.239567
0.741711 0.479988 0.225818
0.831388 0.489876 0.210132
0.0953384 0.502388 0.225238
0.155718 0.503243 0.226871
0.21294 0.519707 0.217411
0.40882 0.560601 0.192599
0.542458 0.585107 0.236698
0.629801 0.601999 0.279545
0.697475 0.608469 0.29688
0.746395 0.607538 0.302312
0.807492 0.612772 0.301762
0.0978408 0.600778 0.22031
0.159991 0.59968 0.221195
0.2159 0.619974 0.206012
0.398917 0.665492 0.177295
0.555932 0.699733 0.193118
0.662333 0.716258 0.237781
0.736309 0.72311 0.281285
0.793652 0.725032 0.312551
0.849805 0.730434 0.331121
0.0993362 0.685481 0.221546
0.164019 0.682277 0.222293
0.221424 0.700847 0.208301
0.390066 0.745983 0.183886
0.554269 0.789242 0.182696
0.667659 0.807813 0.201907
0.753491 0.815488 0.238132
0.818143 0.815564 0.276921
0.874235 0.816663 0.308217
0.101411 0.766033 0.234501
0.168994 0.764126 0.235279
0.226825 0.778515 0.230533
0.385412 0.815152 0.211887
0.554376 0.864988 0.190051
0.670878 0.884993 0.188556
0.761532 0.894484 0.20824
0.830335 0.896132 0.238636
0.884199 0.893797 0.265339
0.0829175 0.0847486 0.244633
0.160708 0.0885939 0.235157
0.246433 0.0911269 0.239551
0.345357 0.0871138 0.248463
0.458198 0.0640879 0.254704
0.569726 0.0647288 0.256901
0.658747 0.0720378 0.255787
0.734432 0.0726787 0.256809
0.798108 0.0776684 0.254978
0.0778668 0.148577 0.255772
0.158083 0.149874 0.249409
0.252369 0.156115 0.249256
0.360006 0.157275 0.258427
0.474067 0.137392 0.26508
0.583825 0.132738 0.270558
0.669001 0.13579 0.268223
0.741238 0.138308 0.266728
0.80676 0.140383 0.265629
0.0844892 0.219059 0.274617
0.149767 0.219654 0.269581
0.257633 0.228946 0.266438
0.374304 0.236728 0.273442
0.492378 0.237522 0.278462
0.597498 0.222202 0.282292
0.682963 0.197986 0.277852
0.75021 0.197391 0.27361
0.814923 0.206287 0.273472
0.0885328 0.30338 0.291844
0.147906 0.304128 0.291096
0.244358 0.311849 0.293034
0.384283 0.331411 0.298161
0.513405 0.34284 0.294347
0.61648 0.348241 0.298909
0.7028 0.348211 0.298726
0.771328 0.34815 0.290929
0.8365 0.355016 0.289891
0.092195 0.403128 0.307256
0.14876 0.40499 0.307103
0.209888 0.415793 0.310658
0.396338 0.443946 0.340551
0.50515 0.462257 0.359442
0.609674 0.471977 0.34023
0.709255 0.48069 0.328191
0.79147 0.482948 0.310811
0.861616 0.48986 0.306218
0.0950942 0.510582 0.314229
0.154025 0.512779 0.318547
0.209445 0.528725 0.320134
0.385321 0.560861 0.320394
0.549645 0.590921 0.360754
0.637522 0.605844 0.394339
0.699702 0.606241 0.395468
0.756237 0.605783 0.391699
0.817594 0.614862 0.388418
0.0976272 0.611032 0.317403
0.158648 0.610132 0.322194
0.21268 0.627634 0.323476
0.355932 0.657252 0.323995
0.561288 0.703426 0.319936
0.670161 0.716915 0.351034
0.738781 0.722438 0.37319
0.801038 0.728038 0.392462
0.851133 0.729778 0.404685
0.0982223 0.696498 0.323217
0.163638 0.692531 0.327901
0.217685 0.708904 0.329732
0.348928 0.737972 0.331228
0.555993 0.789395 0.324407
0.677684 0.808331 0.330373
0.762478 0.81532 0.355016
0.826337 0.818708 0.380957
0.878981 0.818341 0.409369
0.0961776 0.781292 0.336477
0.168124 0.774701 0.33991
0.224186 0.784649 0.343709
0.346578 0.807416 0.348852
0.547509 0.862379 0.348455
0.677333 0.890211 0.347555
0.767514 0.897688 0.358648
0.836225 0.902098 0.380713
0.891798 0.90161 0.404761
0.0734112 0.0707713 0.330938
0.157488 0.0759136 0.319951
0.249088 0.0762493 0.321233
0.349264 0.0754711 0.330007
0.464927 0.0720684 0.340444
0.578668 0.0687419 0.349859
0.670695 0.0718547 0.35407
0.74435 0.0733806 0.357198
0.809705 0.0733654 0.359152
0.0746471 0.131746 0.341146
0.156512 0.137743 0.332906
0.255879 0.143435 0.331838
0.361685 0.143893 0.342535
0.47924 0.132235 0.353841
0.592233 0.133425 0.36614
0.686061 0.13492 0.370398
0.756222 0.137346 0.369223
0.818128 0.139849 0.371267
0.0797436 0.211902 0.357549
0.145006 0.216266 0.3561
0.252399 0.22768 0.350134
0.376638 0.236072 0.360052
0.499596 0.233082 0.371115
0.606195 0.214221 0.380163
0.695735 0.198688 0.384894
0.763104 0.198505 0.382147
0.820264 0.207065 0.380713
0.0847181 0.30518 0.380758
0.145602 0.307576 0.38175
0.222004 0.317082 0.380987
0.387533 0.337331 0.385824
0.523552 0.345464 0.393622
0.628641 0.34902 0.402197
0.714763 0.350042 0.41033
0.786511 0.351324 0.408118
0.842664 0.359686 0.405371
0.0883803 0.410056 0.401328
0.146715 0.412955 0.403952
0.204959 0.424353 0.408301
0.387182 0.447333 0.423606
0.532204 0.471046 0.429694
0.651987 0.482338 0.424872
0.734279 0.486519 0.431678
0.811719 0.490517 0.434058
0.8719 0.498634 0.429664
0.0899062 0.522194 0.41651
0.151095 0.524163 0.419364
0.206455 0.540505 0.424445
0.350607 0.564141 0.430579
0.558221 0.603784 0.467079
0.654078 0.618875 0.502052
0.715175 0.615763 0.495384
0.791485 0.622415 0.489754
0.860487 0.636149 0.48661
0.0876173 0.625193 0.425071
0.156435 0.621881 0.427619
0.210101 0.639094 0.433082
0.319005 0.664118 0.4374
0.558419 0.712428 0.445823
0.687907 0.732219 0.481605
0.756451 0.73843 0.519493
0.815167 0.742412 0.534874
0.865217 0.740276 0.536858
0.0823072 0.71632 0.434531
0.162158 0.705165 0.434852
0.215732 0.719051 0.440024
0.315206 0.74493 0.443671
0.540032 0.788663 0.455192
0.691981 0.820737 0.462257
0.776959 0.827985 0.490089
0.838544 0.832929 0.521065
0.897307 0.83621 0.540612
0.0868544 0.79556 0.444907
0.167865 0.786404 0.44686
0.220691 0.793515 0.452125
0.310399 0.812039 0.457099
0.517174 0.850416 0.470405
0.687327 0.896712 0.472389
0.782666 0.907652 0.482155
0.850141 0.913207 0.500893
0.904585 0.915938 0.518242
0.0750896 0.0734417 0.415854
0.148241 0.0762036 0.407446
0.248905 0.076463 0.408499
0.355261 0.0761578 0.418738
0.473106 0.0755169 0.4309
0.587793 0.073518 0.443381
0.682734 0.0745098 0.449104
0.754681 0.0755169 0.45275
0.81915 0.0738231 0.457786
0.0749218 0.131899 0.428901
0.147478 0.13109 0.423041
0.254261 0.131914 0.420844
0.366934 0.132036 0.432029
0.488975 0.132525 0.445594
0.602426 0.133608 0.458778
0.697108 0.135058 0.467491
0.766354 0.137163 0.468498
0.826596 0.139467 0.471626
0.0774395 0.188907 0.442313
0.145129 0.200778 0.441947
0.25095 0.223331 0.440711
0.379339 0.230304 0.450263
0.503731 0.222736 0.464118
0.612024 0.204349 0.474388
0.704524 0.19617 0.483635
0.777325 0.197314 0.485145
0.835142 0.199619 0.484657
0.0795453 0.300053 0.469047
0.142718 0.306157 0.472313
0.20763 0.319661 0.474861
0.384176 0.339239 0.473045
0.527382 0.348318 0.490349
0.639994 0.348241 0.501015
0.721935 0.349294 0.514763
0.794568 0.351705 0.516518
0.850156 0.36144 0.514626
0.0834974 0.413062 0.495018
0.143084 0.419242 0.49984
0.2009 0.432135 0.504921
0.371267 0.453773 0.506508
0.547005 0.48101 0.521675
0.667567 0.488655 0.528557
0.749584 0.491371 0.538491
0.820752 0.496025 0.547417
0.877058 0.505974 0.545632
0.0846113 0.531853 0.517021
0.148577 0.533165 0.518334
0.203479 0.549722 0.525475
0.31902 0.572045 0.530266
0.554788 0.609735 0.559945
0.663523 0.627634 0.587945
0.75021 0.632029 0.574151
0.831388 0.637034 0.574014
0.899184 0.646067 0.573816
0.0809949 0.63682 0.530449
0.153307 0.632853 0.528954
0.206989 0.649363 0.536324
0.290181 0.673991 0.540368
0.534493 0.712627 0.558434
0.699672 0.744961 0.588022
0.774868 0.75346 0.627558
0.821637 0.749981 0.633738
0.876478 0.749599 0.63151
0.0793774 0.724498 0.540612
0.160571 0.716442 0.537636
0.213123 0.72932 0.542947
0.270558 0.754406 0.546395
0.520806 0.787701 0.565393
0.700389 0.829419 0.577127
0.792813 0.839445 0.599985
0.851453 0.844388 0.62974
0.907774 0.848234 0.647074
0.0812085 0.80621 0.550622
0.166018 0.798611 0.548699
0.217029 0.802197 0.552621
0.281315 0.820462 0.557137
0.513466 0.85272 0.575128
0.686381 0.896117 0.587121
0.795666 0.914946 0.593622
0.858595 0.92015 0.606821
0.913024 0.925872 0.622065
0.0793317 0.078645 0.494453
0.14728 0.0774548 0.490654
0.24477 0.0763714 0.493339
0.358618 0.0759747 0.504814
0.478218 0.0763867 0.518044
0.592371 0.0767987 0.530877
0.689082 0.0771344 0.53846
0.76199 0.0785534 0.542489
0.825071 0.0770886 0.547433
0.0788128 0.132342 0.51014
0.146319 0.131823 0.506828
0.251148 0.132097 0.506645
0.370565 0.131991 0.519524
0.495003 0.13283 0.534188
0.609339 0.134051 0.547173
0.704814 0.135164 0.55639
0.776333 0.136828 0.559335
0.836225 0.138689 0.563378
0.0762646 0.187762 0.526558
0.145754 0.187976 0.525017
0.246281 0.214298 0.52697
0.379446 0.219394 0.537499
0.507973 0.208957 0.552422
0.621668 0.193698 0.56376
0.714397 0.193927 0.573831
0.786862 0.195743 0.577478
0.843534 0.197665 0.578775
0.0786755 0.288304 0.549584
0.140703 0.299596 0.555428
0.20528 0.319341 0.560128
0.382406 0.339254 0.562799
0.529 0.34847 0.5794
0.644862 0.347997 0.591989
0.730159 0.345174 0.601282
0.799969 0.348302 0.607553
0.85922 0.358968 0.607538
0.0831006 0.41352 0.581964
0.141787 0.419272 0.587045
0.199176 0.434501 0.592782
0.352224 0.456458 0.595605
0.541482 0.483818 0.605447
0.672328 0.492836 0.62179
0.759655 0.494057 0.63122
0.826062 0.498619 0.642741
0.879408 0.509606 0.644587
0.0869154 0.535668 0.605722
0.146151 0.538766 0.608072
0.201205 0.554833 0.616022
0.301137 0.577951 0.619699
0.542809 0.611963 0.636851
0.687556 0.637476 0.657206
0.78085 0.642237 0.65626
0.848585 0.644816 0.665705
0.907561 0.653452 0.670634
0.0890516 0.640375 0.62211
0.153429 0.640482 0.620172
0.205417 0.656062 0.627756
0.26067 0.68127 0.631815
0.525032 0.716899 0.650736
0.700313 0.750835 0.679011
0.781277 0.762158 0.714397
0.82826 0.758892 0.714382
0.889906 0.764508 0.711589
0.0810407 0.727962 0.635767
0.160464 0.723186 0.628275
0.212711 0.736736 0.634653
0.266773 0.760998 0.639368
0.514565 0.792828 0.657267
0.688365 0.827863 0.676997
0.803647 0.847639 0.695857
0.863233 0.853117 0.725261
0.915923 0.857267 0.741894
0.0877394 0.802045 0.641123
0.165759 0.801343 0.637339
0.217334 0.808988 0.641733
0.266957 0.827756 0.645777
0.510094 0.85687 0.663401
0.676555 0.892302 0.68098
0.804349 0.918074 0.691966
0.871092 0.925017 0.702251
0.925124 0.93254 0.719753
0.0797131 0.0787671 0.569589
0.148013 0.0774853 0.566384
0.241825 0.0760967 0.569223
0.361303 0.0755779 0.581674
0.482734 0.0762188 0.595651
0.597559 0.0769818 0.608927
0.694102 0.0777447 0.61796
0.76849 0.0792859 0.622156
0.829679 0.0805219 0.626108
0.0803693 0.132662 0.584314
0.147539 0.132097 0.58172
0.248264 0.13196 0.583566
0.373205 0.13167 0.597742
0.499596 0.132647 0.613413
0.614908 0.13402 0.626413
0.708858 0.135149 0.635523
0.782177 0.136828 0.639826
0.84213 0.138735 0.643626
0.0791791 0.187503 0.598947
0.146578 0.187289 0.598215
0.237919 0.214343 0.602548
0.381216 0.219104 0.615198
0.511986 0.209155 0.631006
0.626886 0.194278 0.64271
0.718517 0.193301 0.651881
0.790234 0.195148 0.656397
0.848753 0.197238 0.658534
0.0798047 0.282597 0.621118
0.14139 0.2972 0.626627
0.204746 0.320455 0.633707
0.378271 0.341115 0.640986
0.530343 0.350545 0.657267
0.650004 0.350332 0.670039
0.738552 0.346502 0.677058
0.806882 0.348501 0.68278
0.863951 0.360754 0.687175
0.0859083 0.414847 0.655512
0.141909 0.418479 0.659052
0.199237 0.436011 0.66601
0.343633 0.459586 0.66981
0.540307 0.485374 0.680919
0.673655 0.495796 0.6981
0.764508 0.496498 0.706722
0.832578 0.499672 0.71284
0.88957 0.510307 0.716747
0.0923629 0.53756 0.680735
0.148104 0.541588 0.682643
0.201251 0.557046 0.690242
0.288579 0.580591 0.693446
0.532448 0.614084 0.707683
0.68574 0.640772 0.724147
0.784466 0.646571 0.733944
0.853086 0.650217 0.740795
0.908293 0.658564 0.746303
0.09897 0.640452 0.695048
0.156298 0.644755 0.695766
0.20708 0.659892 0.703243
0.259586 0.684688 0.707088
0.518471 0.719936 0.723537
0.695857 0.750118 0.750195
0.78819 0.766949 0.77702
0.853605 0.771176 0.769512
0.916213 0.77882 0.765698
0.0983444 0.719921 0.704189
0.163088 0.726452 0.70338
0.215244 0.741482 0.710384
0.266728 0.76434 0.714504
0.509636 0.796368 0.729351
0.677943 0.827298 0.749477
0.805508 0.850813 0.770947
0.868833 0.857877 0.797726
0.909926 0.858839 0.80882
0.101762 0.791394 0.711513
0.167834 0.801373 0.710262
0.219471 0.813245 0.714672
0.26804 0.831388 0.718334
0.507301 0.860029 0.734112
0.67657 0.893141 0.753964
0.803128 0.916869 0.769665
0.880201 0.927749 0.778134
0.931624 0.931777 0.79527
0.080415 0.0789349 0.639551
0.148363 0.077409 0.637064
0.243824 0.0758831 0.640208
0.36492 0.0751354 0.653452
0.487816 0.0759136 0.667628
0.604166 0.0768292 0.681254
0.700435 0.0776989 0.690806
0.77496 0.0792554 0.694896
0.835828 0.0809644 0.698116
0.0809339 0.133303 0.654108
0.14815 0.132418 0.652171
0.249393 0.132738 0.654902
0.376257 0.132097 0.669749
0.503243 0.132311 0.685344
0.61973 0.133837 0.698329
0.713542 0.135027 0.707897
0.787015 0.136675 0.712337
0.846967 0.138705 0.715099
0.0804913 0.188342 0.66659
0.147127 0.191669 0.6663
0.223194 0.234119 0.674128
0.382116 0.242954 0.687541
0.517662 0.240146 0.703761
0.632197 0.221622 0.714656
0.722515 0.205356 0.721904
0.793286 0.203525 0.726513
0.853178 0.21178 0.72932
0.0814374 0.29723 0.68954
0.142473 0.307637 0.692943
0.203891 0.330785 0.701305
0.375906 0.3523 0.709895
0.533211 0.362936 0.726848
0.655406 0.36437 0.739849
0.744991 0.361379 0.746838
0.814511 0.363119 0.752148
0.872953 0.37438 0.755627
0.0879835 0.420691 0.721004
0.144228 0.426047 0.723049
0.199542 0.442847 0.730144
0.336492 0.466636 0.734539
0.537255 0.491295 0.748348
0.675029 0.502846 0.763989
0.768154 0.504173 0.773205
0.837064 0.507195 0.779065
0.893614 0.517586 0.783475
0.0961166 0.54081 0.745251
0.148058 0.543084 0.745525
0.202853 0.561196 0.75288
0.27863 0.583719 0.755505
0.524865 0.616068 0.770092
0.684962 0.641672 0.782223
0.784588 0.649775 0.796246
0.855497 0.653391 0.802808
0.911986 0.661234 0.807111
0.101808 0.642451 0.761578
0.15996 0.64947 0.761288
0.209888 0.664302 0.766644
0.259342 0.687419 0.769131
0.514733 0.72256 0.783673
0.693324 0.751705 0.804517
0.794629 0.769802 0.824353
0.868116 0.776059 0.823148
0.925475 0.78172 0.824308
0.105943 0.719844 0.769314
0.167849 0.730053 0.769772
0.218601 0.744869 0.773754
0.267659 0.767376 0.776791
0.504143 0.798291 0.788434
0.672175 0.828168 0.80734
0.801801 0.848875 0.831449
0.873549 0.859922 0.856428
0.917067 0.862333 0.860197
0.106233 0.789609 0.773693
0.171405 0.801709 0.77528
0.224201 0.816953 0.778973
0.270741 0.835004 0.78024
0.504784 0.862165 0.793042
0.674556 0.894316 0.813214
0.802594 0.91603 0.833036
0.882918 0.927413 0.843183
0.938186 0.931533 0.860029
