public/filters/konnect/Presets C Medium Skin Tone/Captivate v3_38.Med Skin 1.cube
TITLE "Generated by Resolve"
LUT_3D_SIZE 9
0.00848402 0.00848402 0.00848402
0.11725 0.00802625 0.00814832
0.210163 0.012726 0.0128939
0.290013 0.0205997 0.0208133
0.452293 0.0165255 0.0168765
0.668376 0.00299077 0.00366217
0.817395 0.000442512 0.0012665
0.969818 0 0
1 0 0
0.00514229 0.11603 0.00630198
0.115511 0.116762 0.00817884
0.208957 0.115526 0.0139467
0.31545 0.128023 0.0276188
0.44184 0.137636 0.0359655
0.677455 0.139712 0.0196841
0.832197 0.139788 0.017319
0.984695 0.139345 0.0155337
1 0.138537 0.0134585
0 0.233982 0.00109865
0.11223 0.236347 0.00567636
0.223804 0.234333 0.00936904
0.317128 0.229694 0.0160525
0.424704 0.226108 0.0174868
0.64567 0.255436 0.01944
0.838849 0.276555 0.0252079
0.996155 0.280949 0.026566
1 0.283742 0.0268101
0 0.358755 0
0.106737 0.361929 0.0012665
0.229206 0.362829 0.00376898
0.344366 0.358694 0.00747692
0.453437 0.352682 0.0112612
0.599176 0.353017 0.00680552
0.77586 0.359411 0
0.952758 0.382803 0.00895705
1 0.41323 0.0249638
0 0.489723 0
0.100755 0.49308 0
0.224857 0.494957 0
0.348135 0.492592 0.0031281
0.471473 0.488746 0.00549325
0.601053 0.485222 0.00581369
0.770428 0.492332 0
0.916701 0.490517 0
1 0.491142 0
0 0.625162 0
0.0946059 0.629007 0
0.219837 0.631556 0
0.350881 0.632776 0
0.482612 0.63122 3.0518e-05
0.614267 0.627512 0.00131228
0.765774 0.630365 0
0.914748 0.630274 0
1 0.62829 0
0 0.764263 0
0.0847181 0.761379 0
0.205447 0.762448 0
0.334844 0.765103 0
0.481437 0.773632 0
0.620371 0.77319 0
0.764416 0.773159 0
0.912123 0.773037 0
1 0.771588 0
0 0.906523 0
0.078294 0.904311 0
0.188434 0.890379 0
0.310033 0.889891 0
0.46566 0.909422 0
0.61854 0.918959 0
0.762356 0.918975 0
0.908919 0.918471 0
1 0.917494 0
0 1 0
0.073106 1 0
0.187518 1 0
0.307149 1 0
0.443687 1 0
0.613931 1 0
0.758221 1 0
0.905211 1 0
1 1 0
0.00793469 0.00805676 0.124025
0.116487 0.00616464 0.122988
0.227527 0.00418097 0.119265
0.324086 0.005066 0.114702
0.441566 0.00230411 0.111299
0.63357 0 0.115877
0.805142 0 0.12256
0.963928 0 0.126482
1 0 0.128023
0.0052491 0.11603 0.122286
0.116426 0.117617 0.123934
0.239063 0.120851 0.127245
0.339422 0.127199 0.133013
0.463188 0.133165 0.139574
0.63418 0.142489 0.148699
0.833906 0.141756 0.149126
0.986282 0.141268 0.148821
1 0.140475 0.148211
9.15541e-05 0.234791 0.118608
0.114244 0.238407 0.122835
0.236378 0.239033 0.123705
0.335531 0.234562 0.123629
0.464805 0.254429 0.144045
0.613443 0.270054 0.158328
0.847135 0.286915 0.165087
1 0.288624 0.165743
1 0.289219 0.16582
0 0.359899 0.113176
0.109407 0.364538 0.119051
0.233341 0.366735 0.121614
0.352911 0.363821 0.122057
0.450492 0.353735 0.120974
0.562661 0.346761 0.119265
0.814206 0.407385 0.15758
1 0.431922 0.172747
1 0.437675 0.176837
0 0.490684 0.107424
0.10312 0.494957 0.113832
0.227939 0.497917 0.117494
0.356725 0.498131 0.118944
0.468406 0.489265 0.118929
0.580621 0.477684 0.114916
0.735378 0.482582 0.116091
0.92752 0.50074 0.119265
1 0.543572 0.150561
0 0.626307 0.101625
0.0969863 0.630518 0.108766
0.222095 0.63331 0.11284
0.353216 0.634852 0.115145
0.480354 0.631174 0.116304
0.60592 0.624964 0.115846
0.738872 0.619883 0.115007
0.914839 0.631769 0.113695
1 0.63064 0.111696
0 0.765545 0.0954452
0.0904707 0.769635 0.103563
0.213077 0.769604 0.108476
0.341772 0.770443 0.111666
0.480018 0.773495 0.113405
0.61944 0.773816 0.113603
0.753964 0.768673 0.113252
0.910079 0.773129 0.113039
1 0.774105 0.111788
0 0.907927 0.0889906
0.0840314 0.912871 0.0980087
0.203433 0.907378 0.103426
0.324056 0.902296 0.107118
0.456931 0.904112 0.109224
0.619577 0.920333 0.111391
0.762325 0.919829 0.111894
0.909087 0.919539 0.111696
1 0.92015 0.111009
0 1 0.0822614
0.0770123 1 0.0920882
0.199115 1 0.0981155
0.303883 1 0.0979934
0.431632 1 0.101411
0.601282 1 0.107744
0.760983 1 0.109331
0.907897 1 0.109743
1 1 0.109545
0.00581369 0.00605783 0.252735
0.114977 0.00433356 0.251652
0.235172 0.000671397 0.249393
0.344289 0 0.240818
0.461662 0 0.233936
0.602472 0 0.232456
0.774594 0 0.233951
0.920531 0 0.229572
1 0 0.226658
0.00386053 0.114748 0.250492
0.115343 0.11664 0.252079
0.236255 0.115831 0.251606
0.34905 0.109743 0.245457
0.444205 0.104158 0.235096
0.573449 0.104417 0.233158
0.784573 0.119203 0.256733
0.970062 0.130602 0.273579
1 0.136416 0.281361
0 0.234089 0.247639
0.114046 0.23827 0.251896
0.237308 0.239872 0.25362
0.370733 0.245701 0.259541
0.468101 0.243793 0.259388
0.594614 0.243153 0.262364
0.804929 0.283009 0.296468
1 0.29044 0.305562
1 0.291066 0.306371
0 0.359869 0.243091
0.110094 0.365316 0.249042
0.235157 0.368765 0.252613
0.365011 0.369146 0.253162
0.445304 0.344869 0.234287
0.587396 0.366979 0.25832
0.764782 0.403845 0.291951
1 0.441581 0.320455
1 0.445243 0.323247
0 0.49102 0.237995
0.104295 0.496147 0.244236
0.230259 0.500496 0.248859
0.36141 0.502358 0.250813
0.47718 0.492744 0.242725
0.568856 0.471 0.229587
0.693553 0.46424 0.22855
0.979522 0.561624 0.306279
1 0.592706 0.328908
0 0.626841 0.232761
0.0980392 0.631281 0.239063
0.223926 0.635203 0.243656
0.356161 0.637995 0.246754
0.49044 0.637949 0.247593
0.595575 0.62118 0.236652
0.708247 0.602121 0.222934
0.881895 0.617624 0.238422
1 0.646784 0.253956
0 0.766262 0.227131
0.0920577 0.771084 0.234379
0.218067 0.774487 0.238941
0.349447 0.776349 0.241856
0.484428 0.776883 0.243458
0.608148 0.770031 0.236347
0.737774 0.761044 0.232868
0.880095 0.756725 0.236042
1 0.774029 0.241611
0 0.907652 0.220829
0.0856489 0.913939 0.229282
0.212192 0.917372 0.234485
0.340459 0.916381 0.237232
0.471931 0.915404 0.238224
0.616876 0.91902 0.240955
0.759945 0.919356 0.240513
0.896132 0.912077 0.237476
1 0.917967 0.240391
0 1 0.214511
0.0788739 1 0.223819
0.20412 1 0.227893
0.315877 1 0.221912
0.440162 1 0.22298
0.589761 1 0.23212
0.760571 1 0.239628
0.906874 1 0.239887
1 1 0.239857
0.00317388 0.00360113 0.38645
0.112917 0.00192264 0.388403
0.233555 0 0.386526
0.358526 0 0.382742
0.480323 0 0.374914
0.613718 0 0.369604
0.766262 0 0.370291
0.917952 0 0.368048
1 0 0.36202
0.00187686 0.112779 0.386175
0.113313 0.114733 0.387808
0.234714 0.114366 0.387717
0.362585 0.112276 0.386069
0.477928 0.10692 0.378347
0.600748 0.102724 0.370809
0.744472 0.101472 0.368994
0.918135 0.0974594 0.373526
1 0.0930037 0.370291
0 0.232639 0.384222
0.112398 0.236622 0.387854
0.235889 0.238575 0.38996
0.365164 0.238163 0.389868
0.480293 0.225269 0.382116
0.582895 0.217624 0.368887
0.71725 0.21709 0.364523
0.935241 0.247883 0.400076
1 0.271626 0.429603
0 0.359091 0.380484
0.109209 0.364355 0.385794
0.234714 0.368414 0.389975
0.366155 0.370199 0.391897
0.497856 0.368231 0.39411
0.597543 0.357366 0.38851
0.750805 0.369467 0.401312
0.960113 0.425834 0.446754
1 0.446952 0.470375
0 0.490883 0.37615
0.104204 0.49601 0.381811
0.230838 0.501228 0.387182
0.363882 0.504829 0.390845
0.499321 0.505104 0.391211
0.583825 0.476921 0.366613
0.74258 0.504372 0.395972
0.930373 0.546532 0.435996
1 0.601587 0.483375
0 0.622583 0.368536
0.0983902 0.631556 0.377111
0.224994 0.636423 0.38233
0.358633 0.640803 0.386786
0.495781 0.642908 0.388876
0.610117 0.629496 0.373205
0.70808 0.603586 0.355505
0.84184 0.594781 0.35227
1 0.717617 0.461051
0 0.749798 0.35697
0.0926833 0.771511 0.372763
0.218784 0.775128 0.377188
0.351919 0.778866 0.381247
0.48986 0.781735 0.384253
0.62414 0.780118 0.38117
0.729442 0.758831 0.361471
0.85243 0.738598 0.34667
1 0.74696 0.364218
0 0.881621 0.346929
0.0865187 0.914519 0.368032
0.213413 0.918486 0.373068
0.345953 0.921141 0.376471
0.482765 0.922896 0.378897
0.621958 0.923201 0.379965
0.748791 0.916274 0.369955
0.880919 0.904112 0.363485
1 0.893416 0.36379
0 1 0.344182
0.0793622 1 0.362234
0.207691 1 0.368627
0.340551 1 0.372503
0.473564 1 0.373907
0.609415 1 0.373922
0.757412 1 0.376532
0.903624 1 0.375433
1 1 0.368383
0 9.15541e-05 0.526268
0.110674 0 0.531334
0.231586 0 0.529625
0.359747 0 0.527184
0.493248 0 0.524147
0.629252 0 0.519905
0.768627 0 0.515221
0.913176 0 0.510399
1 0 0.499596
0 0.110475 0.528145
0.111025 0.112551 0.52958
0.232395 0.112184 0.529412
0.360678 0.110384 0.52813
0.492592 0.106889 0.525719
0.619852 0.101305 0.51931
0.757412 0.0975052 0.513954
0.910491 0.0960098 0.514122
1 0.0912947 0.512917
0 0.23125 0.527047
0.11014 0.234409 0.52929
0.233402 0.23621 0.531228
0.363119 0.236316 0.531579
0.497017 0.234653 0.530343
0.618051 0.226688 0.522591
0.745815 0.221561 0.513726
0.896117 0.222171 0.512673
1 0.223056 0.520348
0 0.358251 0.523888
0.107454 0.362493 0.527687
0.232563 0.366232 0.531533
0.364279 0.36846 0.533974
0.499794 0.368475 0.534188
0.62179 0.353811 0.52755
0.727443 0.339895 0.509148
0.869871 0.339345 0.503517
1 0.383658 0.551583
0 0.487068 0.516335
0.103212 0.494926 0.524559
0.229587 0.499916 0.529671
0.36318 0.504219 0.534112
0.50074 0.50634 0.5364
0.639811 0.506477 0.538994
0.754681 0.496345 0.537957
0.926421 0.512489 0.555413
1 0.590677 0.621149
0 0.614404 0.504814
0.0981918 0.631373 0.52079
0.224689 0.636133 0.525765
0.359152 0.641489 0.531197
0.498329 0.645472 0.535241
0.638132 0.645716 0.53547
0.733349 0.618128 0.510002
0.906798 0.648676 0.54258
1 0.713024 0.603616
0 0.733639 0.484138
0.0927749 0.771557 0.516793
0.218997 0.775357 0.521096
0.353002 0.780163 0.52607
0.492607 0.784848 0.530739
0.634913 0.78732 0.533272
0.755489 0.775326 0.516808
0.85333 0.740368 0.488289
1 0.747219 0.497429
0 0.860609 0.464347
0.0861219 0.912871 0.511193
0.213794 0.918807 0.517189
0.346578 0.921813 0.520699
0.485374 0.925643 0.524697
0.628046 0.92874 0.527855
0.768811 0.92813 0.526467
0.87219 0.902296 0.496941
0.996399 0.874357 0.473381
0 1 0.463798
0.0787823 1 0.504906
0.20827 1 0.513008
0.341497 1 0.516884
0.479057 1 0.519615
0.620462 1 0.521935
0.763272 1 0.522576
0.89398 1 0.51046
1 1 0.496864
0 0 0.674296
0.108248 0 0.679133
0.22948 0 0.677562
0.357839 0 0.675303
0.491554 0 0.672541
0.629602 0 0.669352
0.771206 0 0.665751
0.914137 0 0.660578
1 0 0.647395
0 0.107195 0.674556
0.108919 0.110552 0.676753
0.230289 0.110109 0.676371
0.358602 0.108354 0.675135
0.49221 0.10573 0.673274
0.630076 0.102449 0.670893
0.770031 0.0986954 0.667353
0.913832 0.0944381 0.663737
1 0.0881819 0.659113
0 0.229755 0.674754
0.10811 0.232578 0.676081
0.230854 0.233783 0.677333
0.360372 0.233783 0.677546
0.494743 0.232593 0.676707
0.632212 0.230045 0.674784
0.764767 0.223468 0.669184
0.909392 0.220279 0.665263
1 0.221302 0.667399
0 0.357168 0.671946
0.105791 0.360891 0.674754
0.229892 0.363546 0.677317
0.361166 0.365484 0.679454
0.497032 0.365957 0.680201
0.635645 0.364462 0.679286
0.758114 0.353216 0.669779
0.898924 0.3505 0.663096
1 0.356832 0.671565
0 0.48806 0.666285
0.102129 0.493935 0.672267
0.22739 0.497597 0.675898
0.360449 0.501457 0.679957
0.498344 0.504097 0.682841
0.638712 0.504372 0.683314
0.767987 0.489372 0.678462
0.881224 0.471275 0.656611
1 0.491646 0.670359
0 0.617853 0.656504
0.0976272 0.63093 0.669078
0.223407 0.634745 0.672984
0.357504 0.639796 0.678157
0.497322 0.644556 0.683101
0.639857 0.647089 0.685786
0.781216 0.645472 0.685145
0.917647 0.642054 0.693462
1 0.69601 0.746883
0 0.741024 0.637171
0.0924849 0.771313 0.665354
0.218647 0.775051 0.669367
0.352514 0.77969 0.674159
0.493065 0.785458 0.679973
0.637308 0.78996 0.68452
0.780606 0.790219 0.684596
0.87155 0.754452 0.650675
1 0.818936 0.715053
0 0.855772 0.60238
0.0864729 0.913802 0.660502
0.213794 0.918822 0.665843
0.3467 0.921996 0.669367
0.486503 0.927016 0.674449
0.631098 0.932143 0.679545
0.777569 0.934966 0.682399
0.902129 0.923705 0.664042
0.998749 0.876829 0.623957
0 1 0.603998
0.0784772 1 0.653788
0.208469 1 0.661891
0.341741 1 0.66566
0.479713 1 0.668742
0.62324 1 0.672908
0.770016 1 0.676326
0.915862 1 0.676112
1 1 0.629786
0 0 0.832822
0.105592 0 0.830945
0.227176 0 0.829465
0.355734 0 0.827375
0.489601 0 0.824765
0.627756 0 0.821759
0.769528 0 0.818418
0.914473 0 0.814771
1 0 0.807294
0 0.105547 0.828321
0.106615 0.10837 0.828031
0.228229 0.108049 0.827695
0.356725 0.106386 0.826551
0.490425 0.103838 0.824781
0.628382 0.100618 0.822538
0.769955 0.0968795 0.819883
0.914656 0.0927138 0.816892
1 0.0861677 0.813382
0 0.227909 0.826444
0.105257 0.229984 0.827695
0.228977 0.232044 0.828489
0.35819 0.231739 0.82826
0.49247 0.230503 0.827359
0.630915 0.22858 0.825925
0.772885 0.226093 0.824048
0.917372 0.223087 0.821439
1 0.219821 0.819242
0 0.35581 0.823865
0.10428 0.35964 0.826383
0.227893 0.361654 0.828061
0.35819 0.362631 0.829053
0.493736 0.362936 0.829602
0.632959 0.362142 0.829099
0.774777 0.360159 0.827405
0.915221 0.355215 0.823316
1 0.355581 0.823636
0 0.488533 0.820569
0.100954 0.492988 0.82414
0.225513 0.495735 0.826642
0.357214 0.498207 0.829175
0.49456 0.500435 0.831678
0.63534 0.501274 0.832792
0.778027 0.499977 0.832151
0.915694 0.49189 0.827176
1 0.495109 0.826886
0 0.624933 0.816236
0.0967422 0.630228 0.82121
0.222171 0.63357 0.82443
0.354818 0.636957 0.827909
0.49395 0.641169 0.832364
0.636912 0.644266 0.835737
0.781353 0.644816 0.836469
0.917784 0.630243 0.833875
1 0.634318 0.827466
0 0.761028 0.807614
0.0918593 0.770825 0.817731
0.218112 0.774639 0.821622
0.350896 0.777981 0.825071
0.491005 0.783337 0.830579
0.635935 0.788678 0.836103
0.782757 0.791653 0.839246
0.927459 0.789837 0.83772
1 0.821805 0.874418
0 0.884398 0.785657
0.0864271 0.914351 0.813794
0.213474 0.918593 0.818311
0.346212 0.921553 0.821485
0.485801 0.926345 0.826398
0.631434 0.932647 0.832746
0.780087 0.937728 0.837888
0.926467 0.938293 0.83801
1 0.933715 0.832486
0 1 0.776593
0.0804761 1 0.809308
0.208347 1 0.814572
0.341665 1 0.81825
0.479774 1 0.821393
0.624414 1 0.82678
0.773342 1 0.83241
0.923506 1 0.83566
1 1 0.812406
0 0 0.988235
0.102785 0 0.986206
0.224689 0 0.984802
0.353491 0 0.982834
0.487495 0 0.980392
0.625757 0 0.977523
0.76762 0 0.974334
0.912627 0 0.970871
1 0 0.967132
0 0.104219 0.983124
0.104097 0.105974 0.982757
0.225986 0.10576 0.982467
0.354665 0.104219 0.981399
0.488487 0.101762 0.979721
0.62652 0.0986191 0.977584
0.768139 0.0949416 0.975052
0.912886 0.090837 0.972183
1 0.0863508 0.969009
0 0.226093 0.981521
0.103944 0.228794 0.982971
0.22707 0.230259 0.983291
0.35642 0.230015 0.983093
0.490761 0.22884 0.982223
0.629236 0.226932 0.980835
0.771221 0.224475 0.979004
0.916289 0.221546 0.976822
1 0.218204 0.974304
0 0.354253 0.979156
0.10251 0.358144 0.981399
0.226291 0.360235 0.983017
0.35639 0.360967 0.983627
0.491371 0.360739 0.983505
0.630426 0.359823 0.982864
0.7729 0.358328 0.98175
0.918471 0.356374 0.98027
1 0.354025 0.978469
0 0.487282 0.976089
0.0995193 0.491798 0.97937
0.224201 0.494636 0.981796
0.355032 0.496101 0.983124
0.491081 0.497093 0.984207
0.631464 0.497673 0.985061
0.774762 0.497169 0.984833
0.920348 0.495583 0.983474
1 0.493492 0.981643
0 0.624277 0.972473
0.0955825 0.629297 0.976669
0.221149 0.632715 0.979797
0.352667 0.634806 0.981781
0.49012 0.637308 0.984436
0.632395 0.639887 0.987335
0.77734 0.641093 0.988815
0.923674 0.640284 0.988174
1 0.638056 0.986068
0 0.764675 0.968399
0.090959 0.770108 0.973404
0.217319 0.774014 0.977188
0.349477 0.776577 0.979736
0.487785 0.77998 0.983276
0.631922 0.784619 0.98819
0.779202 0.78822 0.992096
0.927214 0.789044 0.993103
1 0.787228 0.991409
0 0.908049 0.963928
0.0857557 0.913802 0.96968
0.212894 0.918135 0.974075
0.345663 0.921126 0.977157
0.483848 0.9243 0.980438
0.628916 0.930068 0.986404
0.778302 0.936034 0.992554
0.928908 0.939498 0.996201
1 0.939025 0.995865
0 1 0.959136
0.0800793 1 0.96556
0.20795 1 0.970535
0.341344 1 0.974136
0.479133 1 0.976822
0.623499 1 0.98201
0.773541 1 0.988983
0.926116 1 0.994751
1 1 0.99646
0 0 1
0.0998093 0 1
0.222065 0 1
0.35108 0 1
0.485267 0 1
0.623652 0 1
0.765606 0 1
0.910674 0 1
1 0 1
0 0.101564 1
0.101396 0.103395 1
0.223575 0.103304 1
0.352438 0.101854 1
0.486397 0.0994888 1
0.624521 0.096437 1
0.766217 0.0928359 1
0.911009 0.0887922 1
1 0.0843824 1
0 0.223957 1
0.101915 0.22707 1
0.224964 0.228275 1
0.354452 0.228122 1
0.488914 0.226993 1
0.627436 0.225132 1
0.769467 0.222705 1
0.914534 0.219791 1
1 0.21648 1
0 0.352499 1
0.100526 0.356466 1
0.224491 0.358618 1
0.354711 0.359411 1
0.489769 0.359228 1
0.628809 0.358312 1
0.771298 0.356802 1
0.916808 0.354833 1
1 0.352438 1
0 0.485817 1
0.0978256 0.490425 1
0.222675 0.493309 1
0.353613 0.49485 1
0.489265 0.495399 1
0.62884 0.495247 1
0.771878 0.494575 1
0.917861 0.493385 1
1 0.491814 1
0 0.623072 1
0.0941787 0.628168 1
0.219867 0.631662 1
0.351476 0.633799 1
0.487709 0.634958 1
0.628382 0.636011 1
0.772854 0.636881 1
0.919661 0.636637 1
1 0.635233 1
0 0.763684 1
0.0897993 0.769192 1
0.216281 0.773175 1
0.348531 0.775814 1
0.485328 0.777508 1
0.627466 0.780133 1
0.773938 0.783108 1
0.92253 0.784649 1
1 0.784009 1
0 0.90724 1
0.0848249 0.913069 1
0.212055 0.917479 1
0.34493 0.920546 1
0.4822 0.922637 1
0.625162 0.926177 1
0.773602 0.931289 1
0.924697 0.935424 1
1 0.936522 1
0 1 1
0.0793622 1 1
0.207324 1 1
0.34078 1 1
0.478553 1 1
0.621195 1 1
0.77055 1 1
0.923888 1 1
1 1 1
