public/filters/konnect/Presets C Medium Skin Tone/Captivate v3_38.Med Skin 1.cube
TITLE "Generated by Resolve"
LUT_3D_SIZE 5
0.00848402 0.00848402 0.00848402
0.210163 0.012726 0.0128939
0.452293 0.0165255 0.0168765
0.817395 0.000442512 0.0012665
1 0 0
0 0.233982 0.00109865
0.223804 0.234333 0.00936904
0.424704 0.226108 0.0174868
0.838849 0.276555 0.0252079
1 0.283742 0.0268101
0 0.489723 0
0.224857 0.494957 0
0.471473 0.488746 0.00549325
0.770428 0.492332 0
1 0.491142 0
0 0.764263 0
0.205447 0.762448 0
0.481437 0.773632 0
0.764416 0.773159 0
1 0.771588 0
0 1 0
0.187518 1 0
0.443687 1 0
0.758221 1 0
1 1 0
0.00581369 0.00605783 0.252735
0.235172 0.000671397 0.249393
0.461662 0 0.233936
0.774594 0 0.233951
1 0 0.226658
0 0.234089 0.247639
0.237308 0.239872 0.25362
0.468101 0.243793 0.259388
0.804929 0.283009 0.296468
1 0.291066 0.306371
0 0.49102 0.237995
0.230259 0.500496 0.248859
0.47718 0.492744 0.242725
0.693553 0.46424 0.22855
1 0.592706 0.328908
0 0.766262 0.227131
0.218067 0.774487 0.238941
0.484428 0.776883 0.243458
0.737774 0.761044 0.232868
1 0.774029 0.241611
0 1 0.214511
0.20412 1 0.227893
0.440162 1 0.22298
0.760571 1 0.239628
1 1 0.239857
0 9.15541e-05 0.526268
0.231586 0 0.529625
0.493248 0 0.524147
0.768627 0 0.515221
1 0 0.499596
0 0.23125 0.527047
0.233402 0.23621 0.531228
0.497017 0.234653 0.530343
0.745815 0.221561 0.513726
1 0.223056 0.520348
0 0.487068 0.516335
0.229587 0.499916 0.529671
0.50074 0.50634 0.5364
0.754681 0.496345 0.537957
1 0.590677 0.621149
0 0.733639 0.484138
0.218997 0.775357 0.521096
0.492607 0.784848 0.530739
0.755489 0.775326 0.516808
1 0.747219 0.497429
0 1 0.463798
0.20827 1 0.513008
0.479057 1 0.519615
0.763272 1 0.522576
1 1 0.496864
0 0 0.832822
0.227176 0 0.829465
0.489601 0 0.824765
0.769528 0 0.818418
1 0 0.807294
0 0.227909 0.826444
0.228977 0.232044 0.828489
0.49247 0.230503 0.827359
0.772885 0.226093 0.824048
1 0.219821 0.819242
0 0.488533 0.820569
0.225513 0.495735 0.826642
0.49456 0.500435 0.831678
0.778027 0.499977 0.832151
1 0.495109 0.826886
0 0.761028 0.807614
0.218112 0.774639 0.821622
0.491005 0.783337 0.830579
0.782757 0.791653 0.839246
1 0.821805 0.874418
0 1 0.776593
0.208347 1 0.814572
0.479774 1 0.821393
0.773342 1 0.83241
1 1 0.812406
0 0 1
0.222065 0 1
0.485267 0 1
0.765606 0 1
1 0 1
0 0.223957 1
0.224964 0.228275 1
0.488914 0.226993 1
0.769467 0.222705 1
1 0.21648 1
0 0.485817 1
0.222675 0.493309 1
0.489265 0.495399 1
0.771878 0.494575 1
1 0.491814 1
0 0.763684 1
0.216281 0.773175 1
0.485328 0.777508 1
0.773938 0.783108 1
1 0.784009 1
0 1 1
0.207324 1 1
0.478553 1 1
0.77055 1 1
1 1 1
