public/filters/konnect/Presets C Medium Skin Tone/Captivate v3_38.Med Skin 1.cube
TITLE "Generated by Resolve"
LUT_3D_SIZE 33
0.00848402 0.00848402 0.00848402
0.0346685 0.00877394 0.00880446
0.061387 0.00851453 0.00859083
0.0892042 0.00819409 0.00828565
0.11725 0.00802625 0.00814832
0.144167 0.00833143 0.00846876
0.168704 0.00924697 0.00939956
0.190494 0.0107729 0.0109255
0.210163 0.012726 0.0128939
0.228611 0.0148928 0.0150759
0.24712 0.0170748 0.017258
0.267124 0.019028 0.0192264
0.290013 0.0205997 0.0208133
0.316045 0.0217441 0.0219577
0.347555 0.0221408 0.022385
0.392584 0.0206302 0.0209201
0.452293 0.0165255 0.0168765
0.52137 0.010605 0.0110475
0.582101 0.00619516 0.00671397
0.630457 0.00378424 0.00440986
0.668376 0.00299077 0.00366217
0.705287 0.00236515 0.00308232
0.742428 0.00173953 0.00248722
0.779812 0.00109865 0.00187686
0.817395 0.000442512 0.0012665
0.855207 0 0.000640879
0.893217 0 0
0.931411 0 0
0.969818 0 0
1 0 0
1 0 0
1 0 0
1 0 0
0.00825513 0.0344091 0.00859083
0.0340887 0.0343328 0.00865187
0.0605325 0.0341802 0.00849927
0.0888228 0.0344854 0.00860609
0.116915 0.0348058 0.00895705
0.143282 0.035523 0.00994888
0.165759 0.03682 0.0118715
0.185916 0.0384833 0.0142367
0.204685 0.0403906 0.0168307
0.224186 0.0422827 0.0192874
0.244724 0.0441291 0.021561
0.267582 0.0457923 0.0234836
0.292988 0.0472419 0.0250553
0.3205 0.0485084 0.0263371
0.349783 0.0495918 0.0273747
0.389334 0.0496834 0.0268864
0.443305 0.0480507 0.0239414
0.511208 0.0439307 0.017792
0.576226 0.0401312 0.0120699
0.629664 0.0377966 0.00846876
0.670314 0.0369573 0.00720226
0.707179 0.0365301 0.00665293
0.744289 0.0360876 0.00608835
0.781613 0.0356298 0.00550851
0.819165 0.0351568 0.00492866
0.856931 0.0346685 0.0043183
0.894896 0.034165 0.00370794
0.933059 0.0336461 0.00308232
0.97142 0.0331121 0.0024567
1 0.0325628 0.00180056
1 0.0320134 0.00115969
1 0.0314488 0.000488289
1 0.030869 0
0.0074464 0.0606851 0.00807202
0.0336919 0.0607767 0.00846876
0.0603189 0.0608225 0.00857557
0.0879072 0.0606394 0.00840772
0.115434 0.0603952 0.00839246
0.142184 0.0617227 0.0101167
0.164828 0.0637827 0.0131838
0.18294 0.0655833 0.0165408
0.201297 0.0674296 0.0196231
0.222232 0.0692607 0.0222171
0.246235 0.0710307 0.0243076
0.271809 0.0727398 0.0261845
0.298741 0.0743725 0.0278782
0.326802 0.0759136 0.0294194
0.355978 0.077348 0.0307774
0.390585 0.0784161 0.0313115
0.439292 0.0785077 0.029572
0.501976 0.0767224 0.0246738
0.570809 0.0737316 0.0180667
0.628763 0.0717784 0.0135348
0.674403 0.0708476 0.0113527
0.711269 0.0705882 0.0108492
0.748379 0.0702983 0.0103456
0.785702 0.0699931 0.00982681
0.823255 0.0696727 0.00927749
0.861021 0.0693217 0.00872816
0.89897 0.0689555 0.00814832
0.937133 0.0685893 0.00756847
0.975494 0.0681926 0.00697337
1 0.0677806 0.00637827
1 0.0673686 0.00575265
1 0.0669261 0.00512703
1 0.0664836 0.00450141
0.00639353 0.087953 0.00727855
0.03299 0.0881819 0.00798047
0.0598459 0.0883955 0.00833143
0.087602 0.0883803 0.00839246
0.11574 0.0881666 0.00834669
0.141726 0.0878614 0.00903334
0.163699 0.0877699 0.0107881
0.182086 0.0889448 0.0141299
0.202792 0.0917525 0.0181735
0.22652 0.0949721 0.0219577
0.252979 0.0975662 0.0246433
0.2795 0.0995956 0.0268406
0.306691 0.10161 0.0289769
0.334783 0.103593 0.0310216
0.363851 0.10547 0.0328985
0.39501 0.107164 0.0343633
0.438422 0.108492 0.033875
0.495888 0.108766 0.030518
0.565072 0.107179 0.0238804
0.626963 0.105913 0.0185855
0.677195 0.105241 0.0155642
0.715679 0.105058 0.0148318
0.752819 0.104921 0.0143893
0.790173 0.104753 0.0139315
0.827756 0.104555 0.0134585
0.865522 0.104341 0.0129549
0.903502 0.104112 0.0124514
0.94168 0.103853 0.0119173
0.980041 0.103593 0.011368
1 0.103304 0.0108186
1 0.102998 0.0102541
1 0.102678 0.00967422
1 0.102342 0.00907912
0.00514229 0.11603 0.00630198
0.0320745 0.116381 0.00726329
0.059144 0.116716 0.00784314
0.087068 0.116838 0.00808728
0.115511 0.116762 0.00817884
0.142931 0.116426 0.00865187
0.167681 0.115999 0.00985733
0.18883 0.115679 0.0118868
0.208957 0.115526 0.0139467
0.230716 0.116197 0.0161135
0.256962 0.119127 0.0193027
0.286107 0.123781 0.0235904
0.31545 0.128023 0.0276188
0.344244 0.131151 0.0307774
0.372976 0.133425 0.0332036
0.403159 0.135485 0.0352483
0.44184 0.137636 0.0359655
0.494347 0.139498 0.0341192
0.559014 0.139849 0.0288548
0.623652 0.139727 0.0232395
0.677455 0.139712 0.0196841
0.719783 0.139773 0.0183719
0.757061 0.139834 0.0180667
0.794537 0.139834 0.0177157
0.832197 0.139788 0.017319
0.870039 0.139727 0.016907
0.90808 0.13962 0.0164645
0.946303 0.139498 0.0160067
0.984695 0.139345 0.0155337
1 0.139178 0.0150301
1 0.138979 0.0145266
1 0.138766 0.0139925
1 0.138537 0.0134585
0.00373846 0.144747 0.00517281
0.0309758 0.145205 0.00636301
0.0582437 0.145663 0.00714122
0.0863203 0.145922 0.00758373
0.115053 0.145968 0.0077821
0.143694 0.145754 0.00802625
0.171145 0.145312 0.00863661
0.196246 0.144732 0.00984207
0.219425 0.144167 0.0114137
0.241733 0.143679 0.0130159
0.264347 0.143252 0.0143893
0.288548 0.143847 0.0161746
0.316121 0.146914 0.0194858
0.347127 0.152361 0.0243687
0.379385 0.15816 0.0295262
0.411734 0.162783 0.0337072
0.447593 0.166278 0.0361639
0.495201 0.169116 0.0356451
0.554635 0.171023 0.0319066
0.620157 0.17232 0.0264744
0.676524 0.173327 0.0227665
0.722332 0.174029 0.021088
0.76025 0.174441 0.0209659
0.798047 0.174762 0.0208286
0.835966 0.17499 0.0206149
0.874037 0.175158 0.0203708
0.912245 0.175265 0.0200656
0.950607 0.175326 0.0197147
0.98912 0.175326 0.0193332
1 0.175296 0.0189364
1 0.175235 0.0185092
1 0.175158 0.0180514
1 0.175036 0.0175784
0.00221256 0.174029 0.00392157
0.0297093 0.174578 0.0053254
0.0571603 0.175143 0.00627146
0.0853895 0.175509 0.00688182
0.114305 0.175677 0.00721752
0.143648 0.175631 0.00740063
0.172778 0.175341 0.00764477
0.200687 0.174792 0.00823987
0.22652 0.17406 0.00933852
0.250233 0.173266 0.0108797
0.27245 0.172473 0.0126192
0.29395 0.17171 0.014374
0.31545 0.170977 0.0159915
0.338781 0.171145 0.0178378
0.366598 0.173754 0.0208591
0.400198 0.179416 0.0254826
0.440558 0.187106 0.0307012
0.491844 0.19501 0.0337987
0.552407 0.200717 0.0327153
0.617685 0.204044 0.028336
0.675166 0.206058 0.0246738
0.722591 0.207431 0.0229496
0.761837 0.20827 0.022858
0.8 0.208957 0.0229496
0.8383 0.209552 0.0229953
0.876738 0.210071 0.0229648
0.915282 0.210513 0.0228885
0.953948 0.210849 0.0227359
0.992752 0.211139 0.0225528
1 0.211353 0.0223087
1 0.21149 0.0220188
1 0.211597 0.0216831
1 0.211643 0.0213169
0.000595102 0.203784 0.00256352
0.0283207 0.20441 0.00415045
0.0559396 0.205081 0.00526436
0.0843061 0.205554 0.00602731
0.113344 0.205814 0.0065156
0.142947 0.205905 0.00677501
0.172152 0.205631 0.007187
0.199908 0.205005 0.00801099
0.224887 0.204013 0.00955215
0.248096 0.202945 0.0113832
0.270176 0.201892 0.0133059
0.2925 0.200946 0.0149844
0.315343 0.200061 0.0163882
0.339422 0.199222 0.01738
0.364813 0.198383 0.0179599
0.392554 0.198444 0.0187686
0.425422 0.201358 0.0209964
0.471305 0.20882 0.0243229
0.532219 0.219745 0.0273747
0.602411 0.229603 0.0272221
0.667048 0.236088 0.025391
0.720119 0.239796 0.0240787
0.762325 0.241611 0.0240482
0.800763 0.242603 0.0243229
0.839323 0.243488 0.0245518
0.87805 0.244297 0.0247196
0.916899 0.245045 0.0248264
0.955901 0.245716 0.0249027
0.995026 0.246326 0.024918
1 0.246845 0.0248722
1 0.247303 0.0247807
1 0.247669 0.0246433
1 0.247974 0.024445
0 0.233982 0.00109865
0.0268101 0.234684 0.0028687
0.0545815 0.235431 0.0041352
0.0830701 0.235996 0.00505074
0.11223 0.236347 0.00567636
0.141955 0.23653 0.00607309
0.17145 0.236362 0.00654612
0.199161 0.235615 0.00756847
0.223804 0.234333 0.00936904
0.246067 0.232853 0.0116274
0.268391 0.231586 0.0136263
0.292012 0.230564 0.0151064
0.317128 0.229694 0.0160525
0.342977 0.22884 0.0167391
0.369436 0.22797 0.0172122
0.396567 0.227039 0.0174868
0.424704 0.226108 0.0174868
0.458869 0.226902 0.0174411
0.50808 0.232395 0.017731
0.573587 0.243153 0.0186618
0.64567 0.255436 0.01944
0.707164 0.264622 0.0205234
0.756939 0.270558 0.0220951
0.798459 0.274128 0.0240024
0.838849 0.276555 0.0252079
0.878431 0.278141 0.025864
0.917571 0.279179 0.0261692
0.956786 0.280095 0.0263828
0.996155 0.280949 0.026566
1 0.281743 0.026688
1 0.282475 0.0267796
1 0.283146 0.0268254
1 0.283742 0.0268101
0 0.264576 0
0.0252079 0.265339 0.00149538
0.0531167 0.266163 0.00291447
0.0817273 0.266804 0.00395209
0.110994 0.267247 0.00469978
0.14081 0.267521 0.00523384
0.17084 0.267521 0.0056611
0.199252 0.26685 0.00662242
0.224964 0.265522 0.00830091
0.24773 0.263752 0.010605
0.271015 0.262303 0.0125277
0.295705 0.261189 0.0138705
0.322164 0.260319 0.0146487
0.348699 0.259388 0.0153353
0.375418 0.258396 0.0158999
0.402594 0.257389 0.0163119
0.430488 0.256352 0.0165103
0.460273 0.255421 0.0162661
0.499001 0.255543 0.0143282
0.551354 0.259525 0.0120394
0.617716 0.268589 0.0104524
0.681804 0.279347 0.0113527
0.738094 0.289235 0.0141299
0.785199 0.296941 0.0180972
0.829984 0.30312 0.0215
0.873243 0.30779 0.0240482
0.915221 0.311208 0.0258488
0.956191 0.313588 0.0269932
0.996445 0.315221 0.0276646
1 0.31635 0.0280003
1 0.317281 0.0282139
1 0.318166 0.028397
1 0.319005 0.0285344
0 0.295583 0
0.0235294 0.296361 6.10361e-05
0.0515602 0.297246 0.0016022
0.0802777 0.297948 0.00276188
0.109651 0.298482 0.00363165
0.139559 0.298833 0.00427253
0.169818 0.298955 0.00477607
0.199268 0.298543 0.00553903
0.226917 0.29752 0.00677501
0.252293 0.295964 0.00852979
0.277211 0.294453 0.0102083
0.302724 0.293172 0.0115511
0.329244 0.292088 0.0125124
0.355947 0.29099 0.0133364
0.382681 0.28983 0.0140688
0.40972 0.288655 0.0146792
0.437263 0.287465 0.0151064
0.466102 0.286366 0.0152132
0.501137 0.286061 0.0140383
0.545937 0.287037 0.010956
0.601175 0.290227 0.00679026
0.659586 0.29633 0.00448615
0.713756 0.303822 0.00497444
0.762539 0.311864 0.00801099
0.809598 0.320211 0.012314
0.856764 0.328344 0.0166476
0.902983 0.335409 0.0205081
0.947875 0.341115 0.023621
0.991409 0.34551 0.0259861
1 0.348775 0.0276493
1 0.351156 0.0287785
1 0.352834 0.0294652
1 0.35404 0.0298314
0 0.32697 0
0.0218051 0.327764 0
0.0499428 0.328695 0.000213626
0.0787671 0.329458 0.00149538
0.108217 0.330037 0.00248722
0.138216 0.330465 0.00323491
0.168673 0.330724 0.0037995
0.199039 0.330632 0.00437934
0.228595 0.330068 0.00517281
0.256626 0.328969 0.00631724
0.283558 0.327611 0.00766003
0.310079 0.326207 0.00894179
0.336858 0.32491 0.0100404
0.363806 0.323629 0.0110018
0.390768 0.322301 0.0118715
0.417807 0.320943 0.0126497
0.445121 0.31957 0.0132906
0.473457 0.318303 0.0136721
0.505776 0.317647 0.0131991
0.546929 0.318395 0.0109712
0.596796 0.320455 0.00712596
0.650202 0.323079 0.00282292
0.69955 0.326329 0.000671397
0.744686 0.33051 0.000915541
0.787839 0.335851 0.0031281
0.833463 0.343038 0.00648508
0.880812 0.351339 0.0106203
0.928695 0.359777 0.0150301
0.97612 0.367559 0.0191958
1 0.374166 0.0227817
1 0.379507 0.0256657
1 0.383658 0.027863
1 0.386816 0.0294499
0 0.358755 0
0.0200656 0.359533 0
0.0482948 0.360494 0
0.0771954 0.361288 0.000167849
0.106737 0.361929 0.0012665
0.136812 0.362417 0.002121
0.167391 0.362768 0.00276188
0.198306 0.362936 0.00328069
0.229206 0.362829 0.00376898
0.25948 0.362325 0.00440986
0.28867 0.361364 0.00529488
0.316838 0.360113 0.00636301
0.344366 0.358694 0.00747692
0.371633 0.357214 0.00854505
0.398764 0.355703 0.00955215
0.425925 0.354177 0.0104829
0.453437 0.352682 0.0112612
0.482017 0.351339 0.0117494
0.513802 0.350576 0.0115358
0.552712 0.35111 0.00987259
0.599176 0.353017 0.00680552
0.649516 0.355535 0.00311284
0.695918 0.357168 0.000259403
0.737011 0.357931 0
0.77586 0.359411 0
0.816388 0.362585 0
0.859586 0.367727 0.00187686
0.905241 0.374655 0.00500496
0.952758 0.382803 0.00895705
1 0.391424 0.0133364
1 0.399695 0.0177005
1 0.407034 0.0216373
1 0.41323 0.0249638
0 0.390967 0
0.0183108 0.391714 0
0.0466316 0.39266 0
0.0756085 0.393484 0
0.105211 0.394171 0
0.135378 0.394705 0.000946059
0.166018 0.395117 0.00169375
0.197101 0.395392 0.00227359
0.228199 0.395377 0.00282292
0.258824 0.394965 0.00347906
0.288319 0.394034 0.0043946
0.31696 0.392798 0.00546273
0.344991 0.391379 0.00656138
0.373022 0.38996 0.00756847
0.401205 0.388556 0.0084535
0.429694 0.387213 0.00920119
0.458396 0.385855 0.00985733
0.487724 0.384573 0.0103151
0.518807 0.383597 0.0103609
0.555108 0.383703 0.00932326
0.598077 0.385214 0.00701915
0.64622 0.387732 0.00383001
0.693172 0.389868 0.000961318
0.735241 0.390799 0
0.772793 0.390616 0
0.809293 0.390463 0
0.847883 0.391882 0
0.888747 0.39501 0
0.932067 0.399954 0.000610361
0.977798 0.406622 0.00352483
1 0.414649 0.00730907
1 0.423301 0.0116121
1 0.431861 0.0160372
0 0.423575 0
0.0165866 0.424292 0
0.0449836 0.425223 0
0.0740215 0.426062 0
0.1037 0.426764 0
0.133913 0.427329 0
0.16463 0.427787 0.000579843
0.195789 0.428122 0.00123598
0.227054 0.428214 0.00184634
0.257786 0.427832 0.00259403
0.287495 0.426902 0.00357061
0.316335 0.425605 0.00468452
0.345083 0.424292 0.00570687
0.374136 0.423087 0.00657664
0.403647 0.421973 0.00727855
0.433341 0.420844 0.00788891
0.463096 0.419638 0.00842298
0.493172 0.418418 0.00881971
0.524224 0.417365 0.00898756
0.558328 0.416983 0.00849927
0.598184 0.41796 0.00689708
0.643351 0.420157 0.00434882
0.690517 0.422736 0.0015259
0.733593 0.424155 0
0.772427 0.424399 0
0.808392 0.423819 0
0.844556 0.423209 0
0.88159 0.423178 0
0.920653 0.424674 0
0.961868 0.427771 0
1 0.432578 0
1 0.439033 0.002121
1 0.446815 0.00569161
0 0.456504 0
0.0148775 0.457237 0
0.0433661 0.458198 0
0.0724804 0.459022 0
0.102205 0.459739 0
0.132494 0.460334 0
0.163272 0.460822 0
0.194491 0.461204 0.000183108
0.226001 0.461433 0.000823987
0.257053 0.461173 0.00158694
0.287282 0.46038 0.00251774
0.316564 0.459144 0.00361639
0.346151 0.458015 0.00456245
0.376165 0.457023 0.00531014
0.406683 0.456123 0.00590524
0.437064 0.45507 0.00645457
0.46743 0.453941 0.00695811
0.498054 0.452781 0.00735485
0.529213 0.451652 0.00759899
0.561807 0.450843 0.00750744
0.599115 0.451255 0.00650034
0.641627 0.453025 0.00453193
0.688136 0.455817 0.00192264
0.731823 0.457664 0
0.771664 0.458335 0
0.807996 0.457893 0
0.84419 0.457313 0
0.880537 0.456718 0
0.917067 0.456092 0
0.95465 0.456214 0
0.994141 0.457755 0
1 0.460838 0
1 0.465507 0
0 0.489723 0
0.013138 0.490471 0
0.0417334 0.491463 0
0.0709392 0.492332 0
0.100755 0.49308 0
0.131106 0.493706 0
0.161944 0.494224 0
0.193225 0.494667 0
0.224857 0.494957 0
0.256352 0.494911 0.000534066
0.287373 0.494423 0.00135805
0.317739 0.493523 0.00228885
0.348135 0.492592 0.0031281
0.378836 0.491707 0.00383001
0.409827 0.490867 0.00442512
0.440711 0.489876 0.00497444
0.471473 0.488746 0.00549325
0.502358 0.487541 0.00593576
0.533516 0.486336 0.00627146
0.565545 0.485283 0.00639353
0.601053 0.485222 0.00581369
0.641428 0.48658 0.00433356
0.686107 0.489143 0.00213626
0.729976 0.491325 0.00015259
0.770428 0.492332 0
0.807553 0.49218 0
0.843763 0.491661 0
0.88014 0.491096 0
0.916701 0.490517 0
0.953414 0.489906 0
0.990326 0.489296 0
1 0.48954 0
1 0.491142 0
0 0.523201 0
0.0113527 0.52398 0
0.0400702 0.525002 0
0.0693675 0.525917 0
0.0992599 0.526696 0
0.129686 0.527367 0
0.160601 0.527932 0
0.191943 0.528405 0
0.223682 0.528771 0
0.255589 0.528939 0
0.287373 0.528801 0.000167849
0.318761 0.528313 0.0009308
0.349966 0.527596 0.00167849
0.381186 0.526802 0.00236515
0.412589 0.525994 0.00294499
0.443976 0.525078 0.00349432
0.475212 0.523995 0.00401312
0.506355 0.522789 0.00450141
0.537591 0.521492 0.00491341
0.569451 0.520317 0.00515755
0.603738 0.519875 0.00489815
0.64239 0.52079 0.00383001
0.685084 0.522972 0.00207523
0.728542 0.525292 0.000244144
0.769238 0.526543 0
0.807004 0.52668 0
0.84329 0.526207 0
0.879698 0.525704 0
0.916289 0.525154 0
0.953017 0.52459 0
0.989914 0.52398 0
1 0.523354 0
1 0.522774 0
0 0.556939 0
0.00956741 0.557748 0
0.0383764 0.558801 0
0.0677653 0.559747 0
0.0977493 0.560555 0
0.128237 0.561273 0
0.159228 0.561868 0
0.190631 0.562387 0
0.222446 0.562814 0
0.254612 0.563149 0
0.286961 0.563317 0
0.319249 0.563226 0
0.351247 0.562814 0.000289921
0.383062 0.562173 0.000946059
0.414816 0.56141 0.00154116
0.446647 0.560555 0.00209049
0.478416 0.559594 0.00259403
0.510048 0.55845 0.00306706
0.541573 0.557168 0.00350958
0.573526 0.555947 0.00383001
0.607187 0.555245 0.00376898
0.644327 0.555718 0.00306706
0.684977 0.557366 0.00177005
0.727199 0.559472 0.000228885
0.767849 0.560876 0
0.806104 0.561273 0
0.842771 0.560983 0
0.87921 0.56051 0
0.915816 0.560006 0
0.95259 0.559472 0
0.989502 0.558907 0
1 0.558328 0
1 0.557717 0
0 0.590936 0
0.00773632 0.59176 0
0.0366522 0.592844 0
0.0661326 0.59382 0
0.0961929 0.594675 0
0.126757 0.595407 0
0.157809 0.596063 0
0.189288 0.596613 0
0.221164 0.59707 0
0.253407 0.597467 0
0.285969 0.597772 0
0.318746 0.59794 0
0.351507 0.597879 0
0.384039 0.597543 0
0.416373 0.596948 0.000228885
0.448631 0.596201 0.00077821
0.480888 0.595361 0.00125124
0.513085 0.594354 0.00170901
0.545113 0.593194 0.00213626
0.577417 0.59202 0.00247196
0.610895 0.591211 0.00254826
0.646876 0.591287 0.00213626
0.685756 0.592386 0.00122072
0.72639 0.594049 4.57771e-05
0.766674 0.595468 0
0.805158 0.596048 0
0.842206 0.595941 0
0.878676 0.595514 0
0.915312 0.595041 0
0.952102 0.594553 0
0.989059 0.594034 0
1 0.593484 0
1 0.592905 0
0 0.625162 0
0.00588998 0.626001 0
0.0349126 0.627115 0
0.0644846 0.628122 0
0.0946059 0.629007 0
0.125246 0.629786 0
0.156359 0.630472 0
0.1879 0.631052 0
0.219837 0.631556 0
0.252125 0.631983 0
0.284764 0.632334 0
0.317723 0.632624 0
0.350881 0.632776 0
0.384054 0.632761 0
0.417075 0.632456 0
0.449897 0.631922 0
0.482612 0.63122 3.0518e-05
0.515312 0.630365 0.000457771
0.547936 0.629374 0.000854505
0.580758 0.628351 0.00117494
0.614267 0.627512 0.00131228
0.649348 0.627222 0.00115969
0.686732 0.627787 0.000579843
0.725948 0.629007 0
0.765774 0.630365 0
0.804303 0.631052 0
0.841596 0.631113 0
0.878096 0.630716 0
0.914748 0.630274 0
0.951583 0.629831 0
0.988556 0.629343 0
1 0.628824 0
1 0.62829 0
0 0.659419 0
0.00399786 0.65977 0
0.0328069 0.659998 0
0.0618143 0.659983 0
0.0910201 0.659831 0
0.120562 0.659785 0
0.150546 0.659892 0
0.181109 0.660243 0
0.212253 0.6607 0
0.24387 0.661158 0
0.275883 0.66157 0
0.309087 0.662455 0
0.343725 0.66389 0
0.379843 0.665797 0
0.415534 0.667079 0
0.450187 0.667506 0
0.483619 0.667094 0
0.516777 0.666423 0
0.549935 0.665614 0
0.583261 0.664759 0
0.616922 0.663951 0.000183108
0.651453 0.663401 0.000183108
0.687755 0.663539 0
0.725887 0.664363 0
0.765148 0.665599 0
0.803555 0.666316 0
0.840925 0.666453 0
0.87747 0.666102 0
0.914153 0.665705 0
0.951003 0.665278 0
0.988006 0.664836 0
1 0.664363 0
1 0.663859 0
0 0.694148 0
0.00210575 0.694255 0
0.0308843 0.693965 0
0.0595712 0.69308 0
0.0884108 0.692485 0
0.117739 0.692439 0
0.147845 0.692958 0
0.178561 0.693629 0
0.209812 0.694301 0
0.241474 0.694881 0
0.273518 0.695384 0
0.306264 0.69604 0
0.340505 0.697353 0
0.376379 0.699306 0
0.413214 0.701411 0
0.449149 0.702632 0
0.483848 0.702907 0
0.51754 0.702464 0
0.551141 0.701823 0
0.584787 0.701091 0
0.618616 0.700313 0
0.652934 0.699641 0
0.68867 0.699535 0
0.72607 0.700099 0
0.764736 0.701137 0
0.802869 0.701808 0
0.840192 0.701976 0
0.876799 0.701671 0
0.913527 0.701305 0
0.950393 0.700923 0
0.987427 0.700511 0
1 0.700069 0
1 0.699596 0
0 0.729168 0
0.000198367 0.729351 0
0.0290837 0.728862 0
0.0576638 0.727352 0
0.086244 0.726146 0
0.115358 0.725841 0
0.145418 0.726467 0
0.176196 0.727337 0
0.207462 0.72813 0
0.23917 0.728832 0
0.271244 0.729427 0
0.3037 0.729931 0
0.337423 0.730999 0
0.372839 0.73283 0
0.410086 0.735378 0
0.447135 0.737392 0
0.483085 0.73843 0
0.517617 0.73843 0
0.551675 0.738018 0
0.585657 0.737423 0
0.619684 0.736706 0
0.654032 0.736034 0
0.689555 0.735821 0
0.726467 0.736187 0
0.764523 0.737011 0
0.802289 0.73756 0
0.83946 0.737682 0
0.876097 0.737423 0
0.91284 0.737087 0
0.949752 0.736736 0
0.986801 0.736355 0
1 0.735943 0
1 0.735515 0
0 0.764263 0
0 0.764843 0
0.0273747 0.764614 0
0.0562142 0.763256 0
0.0847181 0.761379 0
0.113664 0.760555 0
0.143435 0.760739 0
0.174166 0.761593 0
0.205447 0.762448 0
0.23711 0.763149 0
0.2692 0.76379 0
0.301656 0.764355 0
0.334844 0.765103 0
0.369741 0.766705 0
0.406531 0.769146 0
0.444495 0.771908 0
0.481437 0.773632 0
0.517082 0.774319 0
0.551598 0.774136 0
0.586023 0.773754 0
0.620371 0.77319 0
0.654917 0.77261 0
0.690364 0.772366 0
0.72694 0.772595 0
0.764416 0.773159 0
0.801755 0.773541 0
0.838712 0.773587 0
0.875349 0.773342 0
0.912123 0.773037 0
0.94905 0.772717 0
0.986145 0.772366 0
1 0.772 0
1 0.771588 0
0 0.799542 0
0 0.800336 0
0.0256199 0.800549 0
0.0548104 0.799664 0
0.08365 0.797909 0
0.112673 0.796765 0
0.142321 0.796445 0
0.172869 0.796933 0
0.203967 0.797528 0
0.235538 0.798123 0
0.267552 0.798688 0
0.299962 0.799222 0
0.332769 0.799695 0
0.367041 0.800946 0
0.403235 0.803128 0
0.441444 0.806241 0
0.47924 0.808667 0
0.515846 0.809995 0
0.550988 0.810193 0
0.585824 0.81004 0
0.620569 0.809689 0
0.655451 0.809262 0
0.690944 0.809049 0
0.727275 0.809171 0
0.764248 0.809506 0
0.801175 0.809689 0
0.837934 0.809659 0
0.874571 0.80943 0
0.911376 0.809155 0
0.948333 0.808865 0
0.985443 0.808545 0
1 0.808209 0
1 0.807828 0
0 0.835019 0
0 0.835874 0
0.0238346 0.836484 0
0.0533608 0.83624 0
0.0827192 0.835142 0
0.112123 0.834089 0
0.141894 0.833478 0
0.17229 0.833432 0
0.20322 0.833646 0
0.234638 0.833967 0
0.266499 0.834333 0
0.298787 0.834714 0
0.331487 0.835096 0
0.365148 0.835904 0
0.400717 0.837751 0
0.438346 0.84065 0
0.476799 0.843641 0
0.514092 0.845518 0
0.550042 0.84625 0
0.585138 0.846265 0
0.620264 0.846143 0
0.655528 0.84593 0
0.691142 0.845792 0
0.727306 0.845823 0
0.763851 0.845945 0
0.800473 0.845975 0
0.837095 0.845869 0
0.873762 0.84567 0
0.910597 0.845441 0
0.94757 0.845182 0
0.98471 0.844892 0
1 0.844572 0
1 0.844236 0
0 0.87068 0
0 0.871595 0
0.0219272 0.872099 0
0.0513466 0.871275 0
0.0801099 0.868681 0
0.108125 0.865263 0
0.135622 0.861723 0
0.163256 0.858915 0
0.19147 0.857023 0
