public/filters/konnect/Presets C Medium Skin Tone/Contrast v3_38.Med Skin 1.cube
TITLE "Generated by Resolve"
LUT_3D_SIZE 9
0 0 0.0244907
0.0453498 0.00444038 0.034287
0.117586 0.00602731 0.0285496
0.219684 0.0018616 0.0170748
0.348226 0 0.0203708
0.491905 0 0.0107881
0.628092 0 0.000579843
0.735103 0 0.000534066
0.830854 0 0.00645457
0.0185855 0.0717479 0.0513924
0.0704967 0.0818952 0.0612955
0.140444 0.088716 0.0609445
0.246738 0.08748 0.0496071
0.379858 0.0813153 0.0455634
0.529122 0.0740368 0.045243
0.671473 0.0718853 0.0429694
0.785733 0.0807813 0.0514076
0.890394 0.0956741 0.0659495
0.0294499 0.163302 0.0633555
0.0904555 0.177676 0.078294
0.167712 0.190951 0.0849622
0.279103 0.197086 0.0793774
0.420172 0.199512 0.0823224
0.579309 0.202914 0.0912795
0.727993 0.209918 0.0977951
0.846891 0.225818 0.112444
0.955047 0.244953 0.130571
0.0309606 0.291173 0.0656443
0.102556 0.313985 0.0885176
0.190814 0.335149 0.107256
0.310246 0.345449 0.109026
0.451865 0.348501 0.104784
0.615686 0.361822 0.121813
0.764645 0.372625 0.131945
0.881071 0.388891 0.146014
0.988464 0.408286 0.163561
0.0419928 0.453117 0.0768444
0.119554 0.479454 0.103243
0.212894 0.502083 0.124849
0.336339 0.512917 0.132815
0.479011 0.512261 0.128298
0.63624 0.522591 0.136065
0.787778 0.540825 0.151873
0.902983 0.558343 0.166766
1 0.575753 0.181827
0.0588388 0.623392 0.0945602
0.136843 0.647456 0.119493
0.232044 0.666026 0.138155
0.359777 0.679194 0.150072
0.505165 0.679591 0.149584
0.660456 0.687358 0.154406
0.805554 0.703487 0.166079
0.914916 0.717311 0.177066
1 0.729229 0.186725
0.0967117 0.786313 0.13286
0.1738 0.807675 0.155337
0.267216 0.820569 0.169039
0.395438 0.833021 0.181109
0.540551 0.833097 0.180667
0.684672 0.825757 0.173053
0.82324 0.836286 0.180285
0.926452 0.84506 0.186633
1 0.850492 0.190265
0.150332 0.930632 0.186877
0.220874 0.945754 0.201648
0.305516 0.947936 0.20209
0.428168 0.950912 0.206195
0.574655 0.953063 0.210269
0.716075 0.942382 0.198962
0.842496 0.940078 0.196185
0.940566 0.943465 0.198611
1 0.944793 0.198535
0.188388 1 0.225467
0.254948 1 0.237842
0.332631 1 0.230442
0.443122 1 0.214374
0.588632 1 0.219181
0.732906 1 0.211109
0.853605 1 0.204181
0.948959 1 0.204852
1 1 0.204318
0 0 0.0822309
0.0481422 0.00674449 0.0936446
0.118303 0.00810254 0.100526
0.220569 0.00277714 0.0964065
0.349554 0 0.0883345
0.491691 0 0.0780499
0.627527 0 0.0691539
0.737316 0 0.0704356
0.83447 0 0.0778821
0.0207828 0.0743267 0.110597
0.0731365 0.0846876 0.121248
0.139849 0.0925612 0.128298
0.245518 0.0918746 0.125261
0.381186 0.0858625 0.119051
0.530404 0.0797131 0.115846
0.674311 0.0782483 0.115023
0.790524 0.0877699 0.124788
0.896696 0.103517 0.140932
0.0337835 0.166842 0.129885
0.0975814 0.181247 0.148302
0.172656 0.195941 0.159579
0.2822 0.203113 0.155978
0.420096 0.204562 0.152041
0.577142 0.209476 0.160998
0.733043 0.21857 0.173159
0.853071 0.23447 0.188296
0.961761 0.253727 0.207065
0.0382239 0.297505 0.138003
0.112016 0.320729 0.163699
0.200931 0.342321 0.185473
0.317571 0.35227 0.188373
0.452003 0.350271 0.178317
0.606775 0.360784 0.187625
0.767666 0.379782 0.20708
0.887297 0.397726 0.223239
0.994919 0.417182 0.241001
0.0511177 0.461433 0.153231
0.129396 0.487129 0.180926
0.223178 0.508888 0.203525
0.345663 0.519097 0.212421
0.484047 0.51603 0.207218
0.630854 0.51873 0.207065
0.789441 0.545129 0.227359
0.909087 0.566705 0.245167
1 0.584131 0.260243
0.0677043 0.631403 0.17174
0.146685 0.656428 0.199054
0.24303 0.677226 0.221302
0.370062 0.68632 0.231296
0.511162 0.682109 0.228687
0.653727 0.677562 0.224537
0.801495 0.699001 0.237964
0.919188 0.722927 0.254704
1 0.73489 0.26389
0.105333 0.794095 0.210864
0.182361 0.814755 0.234485
0.276081 0.827588 0.250095
0.401984 0.833921 0.257557
0.544182 0.832441 0.256535
0.68127 0.820081 0.246143
0.815625 0.827695 0.249973
0.928038 0.846723 0.262425
1 0.853422 0.266377
0.157321 0.936828 0.264164
0.228428 0.952514 0.281498
0.311147 0.951232 0.281239
0.429252 0.946929 0.278202
0.572412 0.947692 0.279988
0.714656 0.940246 0.272648
0.834913 0.934279 0.266041
0.9402 0.943069 0.273091
1 0.946349 0.274571
0.192584 1 0.300572
0.259007 1 0.313359
0.338842 1 0.311742
0.450843 1 0.298558
0.587304 1 0.291173
0.73228 1 0.285176
0.849409 1 0.276783
0.947692 1 0.279026
1 1 0.281086
0 0 0.166293
0.0511025 0.00691234 0.175448
0.118639 0.010605 0.183871
0.217914 0.00585946 0.184741
0.349569 0 0.176989
0.49131 0 0.167346
0.627375 0 0.160479
0.737545 0 0.163012
0.836881 0 0.172198
0.0193484 0.0758831 0.192218
0.0746624 0.0863661 0.19826
0.141161 0.0948501 0.208255
0.245502 0.0946517 0.213413
0.382147 0.0886854 0.209491
0.52871 0.0836805 0.207462
0.675441 0.0830091 0.209934
0.792447 0.0927291 0.220676
0.900786 0.109178 0.238834
0.0346685 0.169863 0.215702
0.100862 0.185092 0.231312
0.176577 0.201007 0.247593
0.281392 0.211734 0.257389
0.425116 0.213062 0.256138
0.577722 0.21529 0.257954
0.737163 0.225742 0.272847
0.856428 0.240742 0.287495
0.965621 0.259602 0.306661
0.042771 0.302876 0.231586
0.118959 0.326497 0.258717
0.211444 0.347601 0.285832
0.324834 0.3617 0.297444
0.460105 0.362875 0.289265
0.603265 0.362783 0.28481
0.759869 0.379492 0.301015
0.890501 0.403967 0.324956
0.99884 0.423575 0.343374
0.0578622 0.468391 0.252674
0.137438 0.494789 0.282673
0.232731 0.515999 0.308263
0.356695 0.528511 0.322942
0.491234 0.52401 0.316136
0.623804 0.513527 0.303655
0.773709 0.533181 0.317891
0.910246 0.570031 0.347677
1 0.590417 0.365072
0.0743725 0.637842 0.273732
0.154406 0.6636 0.30309
0.251652 0.683055 0.326802
0.380758 0.695064 0.341405
0.524178 0.69662 0.344015
0.659937 0.684138 0.333547
0.788235 0.684474 0.332296
0.92137 0.727184 0.36083
1 0.73814 0.368627
0.111818 0.800198 0.314778
0.190646 0.824353 0.342245
0.285664 0.839887 0.361761
0.41268 0.845029 0.370169
0.553552 0.840253 0.367895
0.687724 0.82533 0.355566
0.80502 0.816068 0.34728
0.920851 0.836805 0.36083
1 0.853666 0.37116
0.161227 0.940139 0.367178
0.234211 0.95787 0.387991
0.321538 0.963882 0.397055
0.440116 0.957321 0.393149
0.576654 0.948699 0.386603
0.714275 0.938125 0.376898
0.8262 0.927077 0.365362
0.930785 0.933532 0.37052
1 0.944472 0.379416
0.192737 1 0.401236
0.261097 1 0.416892
0.343877 1 0.420706
0.454078 1 0.404288
0.584802 1 0.391638
0.728634 1 0.387396
0.84773 1 0.382101
0.941024 1 0.380102
1 1 0.388708
0 0 0.282536
0.0505074 0.00468452 0.291035
0.118563 0.00949111 0.297963
0.216617 0.00622568 0.299275
0.348989 0 0.292729
0.491829 0 0.284428
0.627726 0 0.279179
0.737392 0 0.283131
0.837797 0 0.293736
0.0164187 0.0747234 0.307439
0.0734874 0.0852064 0.314824
0.144015 0.0935988 0.32221
0.24622 0.0953841 0.328008
0.383581 0.0903792 0.32752
0.531365 0.0856794 0.326619
0.675502 0.0858015 0.330617
0.793942 0.0959793 0.343313
0.902495 0.111528 0.361196
0.0326696 0.171176 0.330846
0.0992294 0.187778 0.3449
0.179599 0.204257 0.355383
0.285573 0.216403 0.368307
0.427787 0.218219 0.374014
0.576883 0.218799 0.375006
0.727733 0.22649 0.38735
0.857038 0.244312 0.410758
0.965866 0.261463 0.428916
0.0442054 0.306722 0.351003
0.121294 0.331456 0.375982
0.216358 0.353246 0.397803
0.331594 0.370306 0.414252
0.4663 0.378561 0.420768
0.614694 0.376623 0.416403
0.757977 0.3823 0.421622
0.889128 0.405921 0.44773
0.999939 0.426749 0.469032
0.061326 0.472923 0.376211
0.141604 0.499641 0.405249
0.238987 0.520165 0.429831
0.368017 0.532525 0.44918
0.502068 0.538003 0.453315
0.636881 0.53106 0.438865
0.766995 0.529961 0.434501
0.900694 0.560739 0.462272
1 0.59295 0.491936
0.0783856 0.642161 0.399832
0.159457 0.668894 0.429587
0.258717 0.689921 0.454871
0.390692 0.701213 0.471305
0.535409 0.705684 0.478843
0.665492 0.690272 0.463127
0.775448 0.671077 0.444099
0.898924 0.694759 0.461631
1 0.734859 0.4925
0.114214 0.80145 0.440391
0.194751 0.827893 0.469673
0.290776 0.843778 0.489754
0.418433 0.846632 0.497307
0.561624 0.844968 0.499214
0.699474 0.835538 0.49102
0.804623 0.81561 0.471351
0.902785 0.811612 0.46595
1 0.845243 0.492195
0.155627 0.933684 0.485084
0.236118 0.959045 0.514748
0.326162 0.968307 0.527733
0.447959 0.9635 0.526345
0.585611 0.953552 0.519509
0.72134 0.940658 0.507881
0.827543 0.926833 0.4916
0.915877 0.918425 0.479408
1 0.932494 0.494606
0.181842 1 0.514427
0.260227 1 0.541741
0.345556 1 0.548882
0.46273 1 0.540154
0.594293 1 0.525032
0.730022 1 0.513283
0.844694 1 0.506035
0.933318 1 0.498329
1 1 0.502571
0 0 0.410269
0.0485389 0.00177005 0.418204
0.118029 0.00640879 0.423697
0.217288 0.00347906 0.423362
0.349813 0 0.416052
0.492561 0 0.408331
0.629236 0 0.404669
0.739071 0 0.410452
0.838941 0 0.421332
0.0134279 0.0728313 0.432776
0.0717784 0.0834363 0.441703
0.144976 0.0919203 0.449195
0.249424 0.0945144 0.453285
0.387335 0.0909285 0.453498
0.537102 0.0872663 0.454017
0.68101 0.0885786 0.459022
0.798093 0.0997024 0.472419
0.905516 0.114931 0.489235
0.0313878 0.171862 0.456321
0.0983597 0.189364 0.47071
0.181537 0.206226 0.484062
0.294423 0.218265 0.494011
0.436957 0.223697 0.501961
0.58938 0.226322 0.507485
0.735729 0.232578 0.517113
0.85832 0.247562 0.536233
0.967269 0.263981 0.554726
0.0451667 0.310399 0.476738
0.121859 0.335363 0.499062
0.216052 0.358953 0.519249
0.337011 0.37586 0.52871
0.473228 0.386099 0.538048
0.618769 0.383429 0.539437
0.755535 0.383856 0.540825
0.88307 0.402853 0.563989
1 0.428061 0.593423
0.0636606 0.476997 0.502922
0.143297 0.502953 0.528771
0.241062 0.524788 0.55053
0.373449 0.538079 0.563653
0.511467 0.549203 0.573968
0.649927 0.553658 0.577386
0.78204 0.549432 0.572457
0.897978 0.560098 0.582895
1 0.591959 0.615198
0.0795605 0.64152 0.524086
0.162432 0.67187 0.555245
0.262577 0.693126 0.578836
0.397665 0.704738 0.594446
0.546746 0.709117 0.606012
0.679179 0.706355 0.603235
0.789242 0.690532 0.582391
0.88809 0.680552 0.571176
1 0.713024 0.598856
0.111696 0.795041 0.56025
0.197757 0.831067 0.597452
0.294423 0.84712 0.616861
0.424796 0.851057 0.62536
0.569955 0.848203 0.628183
0.709773 0.841856 0.625574
0.807889 0.819135 0.600381
0.887861 0.79086 0.56936
1 0.814557 0.589975
0.134874 0.909529 0.581567
0.235019 0.956924 0.638132
0.327398 0.968383 0.653788
0.451362 0.964157 0.653468
0.588815 0.952071 0.645121
0.727398 0.941176 0.63801
0.836042 0.931121 0.626612
0.909102 0.911559 0.595193
1 0.90573 0.583978
0.157412 1 0.60795
0.253346 1 0.657786
0.345098 1 0.674479
0.466224 1 0.670146
0.601755 1 0.657771
0.738354 1 0.646067
0.850614 1 0.638834
0.9337 1 0.626368
1 1 0.602426
0 0 0.538659
0.0462806 0 0.546288
0.116915 0.00340276 0.551095
0.217838 0.000549325 0.549569
0.351034 0 0.541878
0.494545 0 0.534112
0.631434 0 0.531106
0.74078 0 0.537423
0.840848 0 0.54818
0.0113222 0.0708171 0.561837
0.0700236 0.0818341 0.570703
0.145266 0.0906539 0.578027
0.252674 0.0936294 0.581109
0.392004 0.0910353 0.580484
0.542077 0.0886091 0.580591
0.686015 0.09131 0.58677
0.804471 0.104143 0.603601
0.911147 0.120851 0.622171
0.0308995 0.17258 0.584558
0.0985428 0.190982 0.599786
0.183688 0.208423 0.614862
0.300832 0.220447 0.624598
0.446326 0.227054 0.631632
0.601205 0.231907 0.639048
0.747478 0.239338 0.64976
0.867369 0.254826 0.669245
0.972778 0.270176 0.685481
0.0470436 0.314626 0.60531
0.12372 0.340291 0.627573
0.21767 0.364233 0.648142
0.341268 0.380148 0.658885
0.484642 0.389425 0.664515
0.633631 0.393622 0.670192
0.773053 0.397971 0.677241
0.895186 0.415717 0.699657
1 0.434943 0.72195
0.066392 0.482277 0.630716
0.14493 0.507469 0.654093
0.241947 0.530282 0.67451
0.372137 0.544961 0.684886
0.517128 0.554894 0.687083
0.658656 0.562966 0.693935
0.787381 0.557824 0.694636
0.900496 0.565362 0.705089
1 0.595956 0.738338
0.0845502 0.650996 0.654673
0.165209 0.676707 0.680339
0.264775 0.697917 0.701366
0.399573 0.710002 0.713085
0.551522 0.71368 0.716518
0.690028 0.718547 0.720531
0.805814 0.718044 0.720012
0.906523 0.714855 0.717815
1 0.735286 0.736767
0.116457 0.802258 0.688792
0.200229 0.834699 0.721828
0.296376 0.849989 0.738674
0.427161 0.853071 0.744076
0.574533 0.84889 0.743709
0.718517 0.84271 0.74406
0.821515 0.833875 0.735195
0.900267 0.812711 0.708461
1 0.83151 0.724697
0.146014 0.922774 0.718379
0.236789 0.959579 0.762371
0.327749 0.968612 0.773968
0.453147 0.964614 0.772961
0.594888 0.954055 0.76643
0.73547 0.942153 0.759487
0.845899 0.935103 0.754772
0.912779 0.915282 0.720531
1 0.908293 0.706035
0.173663 1 0.751751
0.256077 1 0.784512
0.344121 1 0.793484
0.466346 1 0.788174
0.604517 1 0.776822
0.740826 1 0.763668
0.855619 1 0.761303
0.940429 1 0.756329
1 1 0.740932
0 0 0.65066
0.0451209 0 0.658289
0.116716 0.00177005 0.66273
0.219287 0 0.660288
0.353582 0 0.651667
0.497841 0 0.643275
0.634775 0 0.640223
0.744701 0 0.64773
0.844892 0 0.660533
0.0102541 0.0701915 0.673091
0.06981 0.081651 0.682811
0.146654 0.0910048 0.690791
0.256565 0.0944533 0.693629
0.397787 0.0926528 0.692332
0.549599 0.0914015 0.692622
0.693965 0.0955215 0.698924
0.811505 0.109468 0.715312
0.917967 0.126787 0.733974
0.0323186 0.174746 0.697169
0.100755 0.194141 0.713954
0.187411 0.212253 0.729549
0.307332 0.224445 0.739467
0.455222 0.231205 0.745174
0.611276 0.236744 0.751247
0.755901 0.244739 0.760464
0.874662 0.260746 0.779324
0.98146 0.278782 0.799695
0.0510414 0.320592 0.718349
0.127626 0.346609 0.740978
0.221637 0.370474 0.7617
0.34667 0.385595 0.772839
0.493599 0.393561 0.777234
0.646571 0.399893 0.782345
0.789303 0.409262 0.793042
0.906203 0.426047 0.812253
1 0.443275 0.83151
0.0707866 0.489342 0.74139
0.148577 0.514412 0.764218
0.244907 0.537362 0.784115
0.374411 0.551919 0.794491
0.522866 0.560632 0.797925
0.672312 0.568276 0.801541
0.80589 0.574533 0.809094
0.917693 0.587304 0.824918
1 0.606134 0.845792
0.0891737 0.657862 0.762951
0.168719 0.681895 0.786404
0.26775 0.704814 0.807279
0.400565 0.716777 0.816571
0.550195 0.720653 0.816648
0.695155 0.723507 0.812848
0.814054 0.727871 0.815976
0.910597 0.723583 0.819455
1 0.738384 0.834516
0.125658 0.816754 0.802976
0.203479 0.839612 0.825681
0.298528 0.854383 0.840391
0.428183 0.857069 0.843
0.575219 0.85243 0.838285
0.721874 0.845396 0.831113
0.832547 0.845502 0.830808
0.918532 0.848783 0.833951
1 0.852247 0.837095
0.157794 0.936782 0.836011
0.238972 0.963043 0.864134
0.328573 0.970489 0.872404
0.453742 0.965942 0.869001
0.596231 0.954803 0.859556
0.73901 0.942061 0.849622
0.853025 0.935729 0.848035
0.92781 0.930526 0.840635
1 0.930571 0.836072
0.180117 1 0.861112
0.256733 1 0.883757
0.344015 1 0.889723
0.466682 1 0.88275
0.606912 1 0.870924
0.747906 1 0.859342
0.861753 1 0.855802
0.947066 1 0.857008
1 1 0.845258
0 0 0.736675
0.0458686 0 0.744411
0.118273 0.00222782 0.748791
0.222324 0 0.745983
0.357839 0 0.73698
0.503105 0 0.728374
0.640208 0 0.725429
0.750439 0 0.733288
0.851637 0 0.747143
0.0113527 0.0716106 0.758968
0.0717327 0.0836042 0.769528
0.150011 0.0936141 0.778271
0.262028 0.0976272 0.78143
0.405127 0.0965744 0.780102
0.558343 0.0962844 0.780209
0.7028 0.101503 0.786419
0.82005 0.116304 0.802594
0.927275 0.135103 0.822919
0.0358129 0.17908 0.784344
0.105257 0.199344 0.802472
0.193317 0.218204 0.81912
0.315251 0.230701 0.829587
0.465064 0.237537 0.834928
0.62237 0.243244 0.840055
0.76762 0.252186 0.849363
0.884016 0.268009 0.866224
0.990387 0.286625 0.886229
0.0570687 0.328222 0.80676
0.134157 0.355276 0.831174
0.228 0.378485 0.851331
0.353841 0.392782 0.862287
0.502846 0.399985 0.866316
0.657923 0.406165 0.870283
0.800214 0.416205 0.879591
0.915496 0.433356 0.897337
1 0.452384 0.917571
0.0766918 0.497307 0.827863
0.154665 0.52369 0.851957
0.250477 0.546242 0.871641
0.379828 0.560082 0.881987
0.530221 0.568002 0.885863
0.683284 0.57435 0.888487
0.819715 0.583658 0.895903
0.929259 0.598047 0.910658
1 0.612314 0.926345
0.0957809 0.666957 0.848722
0.175479 0.693248 0.873564
0.272663 0.713848 0.892271
0.403662 0.724605 0.900114
0.55259 0.72784 0.899779
0.700481 0.728771 0.896101
0.825406 0.733135 0.896712
0.924392 0.741543 0.905226
1 0.748928 0.914672
0.13138 0.824155 0.886275
0.207935 0.845945 0.907347
0.30164 0.860212 0.92076
0.429557 0.862547 0.92195
0.574975 0.857618 0.915343
0.719768 0.850477 0.90544
0.836103 0.84889 0.899016
0.922225 0.8533 0.902281
1 0.85568 0.90811
0.171283 0.952621 0.928176
0.241535 0.966949 0.942473
0.330144 0.973907 0.949386
0.454307 0.969039 0.944472
0.596307 0.957671 0.933028
0.739239 0.944717 0.919997
0.855695 0.938003 0.913161
0.937407 0.940139 0.914855
1 0.943008 0.917281
0.193973 1 0.95285
0.259388 1 0.961944
0.344762 1 0.964553
0.467292 1 0.956436
0.607904 1 0.943175
0.749996 1 0.929854
0.865629 1 0.924773
0.954528 1 0.929259
1 1 0.931853
0 0 0.807065
0.047776 0 0.814939
0.120943 0.00399786 0.81944
0.226337 0.00158694 0.816709
0.363088 0 0.807858
0.509499 0 0.799588
0.646967 0 0.797223
0.757534 0 0.805768
0.859525 0.00199893 0.820325
0.0137942 0.0743267 0.829984
0.0750591 0.0869612 0.841352
0.15465 0.097673 0.850919
0.268513 0.102342 0.854673
0.413352 0.102037 0.853834
0.568032 0.102571 0.854322
0.712673 0.108675 0.860868
0.82974 0.124147 0.877165
0.936919 0.143221 0.897337
0.0407568 0.184726 0.857496
0.111284 0.205921 0.876799
0.20058 0.225483 0.894423
0.324056 0.238315 0.905394
0.475349 0.245212 0.910765
0.6336 0.250828 0.915389
0.778286 0.259754 0.924041
0.893828 0.2757 0.940322
1 0.294759 0.960189
0.06421 0.336675 0.881651
0.141527 0.363958 0.906493
0.235569 0.387106 0.926925
0.361913 0.4009 0.937835
0.512459 0.407736 0.941878
0.6692 0.413733 0.945541
0.811475 0.423865 0.954238
0.925872 0.44123 0.971206
1 0.460182 0.99057
0.0834974 0.505776 0.901884
0.161578 0.532509 0.926345
0.257343 0.5552 0.946365
0.386847 0.568933 0.957
0.53846 0.576242 0.960937
0.693431 0.581628 0.963058
0.83032 0.59028 0.969284
0.938567 0.604364 0.982406
1 0.618158 0.996506
0.102937 0.675883 0.922545
0.182193 0.702296 0.947188
0.278584 0.722911 0.965682
0.408347 0.732738 0.9729
0.557107 0.735134 0.972091
0.706401 0.734661 0.967956
0.833463 0.737484 0.967422
0.931884 0.745296 0.973617
1 0.752483 0.981231
0.137514 0.8318 0.958572
0.212955 0.852811 0.978607
0.305318 0.866514 0.991119
0.431632 0.868437 0.991485
0.575891 0.862989 0.983993
0.720272 0.855131 0.973373
0.839261 0.852018 0.966766
0.928893 0.855055 0.967269
1 0.857862 0.970916
0.175113 0.957595 0.997772
0.244465 0.971359 1
0.33193 0.977874 1
0.454841 0.972778 1
0.595865 0.961242 0.998917
0.737987 0.948272 0.984558
0.854032 0.941619 0.97557
0.940154 0.942763 0.972656
1 0.945647 0.975006
0.195987 1 1
0.260884 1 1
0.345678 1 1
0.467597 1 1
0.607996 1 1
0.75021 1 0.993561
0.86659 1 0.986465
0.957382 1 0.986969
1 1 0.989563
