public/filters/konnect/Presets C Medium Skin Tone/Contrast v3_38.Med Skin 1.cube
TITLE "Generated by Resolve"
LUT_3D_SIZE 33
0 0 0.0244907
0.0039826 0 0.0280919
0.0165408 0.000503548 0.0307012
0.030457 0.00263981 0.0327916
0.0453498 0.00444038 0.034287
0.0613107 0.00576791 0.0348974
0.0784924 0.00653086 0.0342565
0.0970779 0.00662242 0.032105
0.117586 0.00602731 0.0285496
0.140291 0.00491341 0.0242618
0.165042 0.00370794 0.0204776
0.191546 0.00268559 0.0180056
0.219684 0.0018616 0.0170748
0.24947 0.00102235 0.0176089
0.28098 0 0.0189364
0.314076 0 0.0200809
0.348226 0 0.0203708
0.382788 0 0.0194553
0.418555 0 0.017258
0.455161 0 0.0141909
0.491905 0 0.0107881
0.528176 0 0.00746166
0.563348 0 0.00453193
0.59675 0 0.00221256
0.628092 0 0.000579843
0.657435 0 0
0.68484 0 0
0.710552 0 0
0.735103 0 0.000534066
0.758938 0 0.00175479
0.782513 0 0.00323491
0.806317 0 0.00485237
0.830854 0 0.00645457
0.00456245 0.0124971 0.0357214
0.0134585 0.0159609 0.0392462
0.0245823 0.0189975 0.0401923
0.0378424 0.0213321 0.0411383
0.0523842 0.0232547 0.0419165
0.0680858 0.0247959 0.042237
0.085069 0.0259251 0.0418708
0.103655 0.026566 0.040589
0.124117 0.0266423 0.0383459
0.146761 0.0261692 0.0352941
0.171527 0.0252232 0.0316167
0.198138 0.0239719 0.0256962
0.226383 0.0224918 0.0239872
0.256321 0.020737 0.0240635
0.288014 0.0185855 0.0249638
0.321233 0.0160525 0.0260319
0.355459 0.0132296 0.0265812
0.390158 0.0102998 0.0259251
0.426139 0.00709544 0.0240177
0.462943 0.00375372 0.0213321
0.499947 0.000488289 0.0182956
0.536477 0 0.015259
0.571878 0 0.0126802
0.605539 0 0.0107271
0.637201 0 0.00949111
0.666896 0 0.0089723
0.694697 0 0.00917067
0.720836 0 0.0100099
0.745846 0 0.0113527
0.770153 0 0.0130922
0.794232 0 0.0150759
0.81857 0 0.0171969
0.843656 0.00172427 0.0193332
0.00996414 0.0319829 0.0418555
0.0206302 0.0348516 0.0456092
0.0317998 0.0377203 0.0475929
0.0443885 0.0402533 0.0484169
0.0584573 0.0423743 0.0488289
0.0738537 0.0440833 0.0488746
0.0907149 0.0453803 0.0483558
0.10927 0.0462043 0.0471046
0.129671 0.0465705 0.0454108
0.152148 0.0464485 0.0434882
0.176791 0.0458686 0.041413
0.203479 0.0448463 0.0394598
0.232044 0.0434882 0.0381628
0.262516 0.0417487 0.0373083
0.294774 0.0395819 0.0364538
0.328405 0.0371405 0.0355993
0.362844 0.0345312 0.034699
0.397772 0.0319066 0.0333562
0.434043 0.0290227 0.031281
0.471183 0.0260624 0.028748
0.508537 0.0231937 0.0261997
0.545419 0.0206455 0.0236667
0.581201 0.0185702 0.0215457
0.615244 0.0171664 0.0200809
0.647288 0.016495 0.0193484
0.677394 0.016556 0.0193637
0.705623 0.017319 0.0200809
0.732235 0.0187228 0.0214389
0.757717 0.0206302 0.0233158
0.782559 0.0229343 0.0255894
0.807172 0.0254978 0.0281071
0.832059 0.0281987 0.0307774
0.857954 0.0308537 0.033402
0.0145418 0.051667 0.0469368
0.0260471 0.0543221 0.0504616
0.038056 0.0569467 0.0530709
0.050721 0.0594949 0.0546731
0.0644999 0.061799 0.0554818
0.0796216 0.0637827 0.0557565
0.0962081 0.0653849 0.0555428
0.114504 0.0665599 0.0546883
0.134798 0.0672618 0.0532387
0.157259 0.0674754 0.0515755
0.181994 0.0671855 0.0496834
0.20911 0.0663615 0.0475319
0.238514 0.0650797 0.0454108
0.269764 0.0634012 0.0436866
0.302586 0.0614328 0.0421912
0.336492 0.0592813 0.0410468
0.371054 0.057084 0.0403906
0.406149 0.0548867 0.0398871
0.442756 0.0524758 0.0387121
0.480354 0.0499886 0.0370794
0.518242 0.0476387 0.0351873
0.555642 0.045594 0.0332799
0.591821 0.0440833 0.0316625
0.626261 0.0432441 0.0307317
0.658732 0.0431525 0.0305333
0.689281 0.0437781 0.0310826
0.717968 0.0451209 0.0323491
0.745052 0.0471046 0.0342718
0.771054 0.0496071 0.0366979
0.796414 0.052491 0.0395209
0.821576 0.0556497 0.0426032
0.847044 0.0589456 0.0458534
0.873533 0.0621958 0.0490425
0.0185855 0.0717479 0.0513924
0.0306554 0.0743725 0.0547799
0.0433509 0.0769207 0.0576181
0.0565347 0.0794537 0.0597848
0.0704967 0.0818952 0.0612955
0.0855573 0.084123 0.0621653
0.102022 0.0860609 0.0624552
0.120195 0.0876326 0.0621042
0.140444 0.088716 0.0609445
0.163226 0.0892348 0.0588693
0.188571 0.089189 0.0561837
0.216464 0.0885786 0.0529641
0.246738 0.08748 0.0496071
0.278569 0.0860914 0.0470436
0.311498 0.0845655 0.0455329
0.345327 0.082948 0.0450446
0.379858 0.0813153 0.0455634
0.415274 0.0796674 0.0465858
0.452384 0.0778058 0.0467842
0.490608 0.0758526 0.0462501
0.529122 0.0740368 0.045243
0.567086 0.0725719 0.0440375
0.603708 0.0716259 0.0429694
0.63856 0.071397 0.0425879
0.671473 0.0718853 0.0429694
0.702464 0.0731212 0.0440681
0.731609 0.0750744 0.0458991
0.759213 0.0776684 0.0484016
0.785733 0.0807813 0.0514076
0.811658 0.0842908 0.0548257
0.837385 0.0880293 0.0584726
0.863401 0.0918898 0.0622568
0.890394 0.0956741 0.0659495
0.0221714 0.092546 0.0552987
0.0347143 0.0952621 0.0587015
0.0479896 0.0978866 0.0616922
0.0617838 0.100496 0.0642252
0.0761883 0.10309 0.0662699
0.0915236 0.105577 0.0677806
0.108156 0.107836 0.0685893
0.126497 0.109773 0.0684977
0.147005 0.111254 0.0673075
0.170214 0.112139 0.0647288
0.196323 0.112383 0.0607767
0.225086 0.112078 0.0561532
0.256001 0.111315 0.051606
0.28806 0.110369 0.0483558
0.32079 0.109377 0.0470588
0.354299 0.108385 0.0477455
0.38883 0.107408 0.0499275
0.424704 0.106401 0.0528725
0.462547 0.105135 0.0549325
0.501549 0.103792 0.0558633
0.540841 0.102586 0.0559854
0.579477 0.101732 0.0556497
0.616632 0.101396 0.0552682
0.651926 0.101793 0.0554665
0.685267 0.102922 0.0564126
0.716731 0.104784 0.0581064
0.74638 0.107362 0.0605478
0.774441 0.110567 0.0635996
0.801465 0.11426 0.067155
0.827832 0.118273 0.071046
0.854002 0.122499 0.0751507
0.880446 0.126787 0.0793164
0.90782 0.130968 0.0833906
0.0252689 0.114458 0.0586862
0.0382696 0.117357 0.0621958
0.052079 0.12015 0.0653544
0.0664378 0.122972 0.0681926
0.0814374 0.125795 0.070634
0.0972763 0.128557 0.0725872
0.114305 0.131182 0.0739757
0.132967 0.133532 0.0745556
0.153704 0.135515 0.0741588
0.176989 0.136965 0.0726635
0.202991 0.137835 0.0700084
0.231601 0.138109 0.0666819
0.26244 0.137926 0.0636301
0.294896 0.137469 0.0616312
0.328603 0.136889 0.0610971
0.36347 0.136278 0.0620432
0.399344 0.135775 0.0639506
0.43624 0.135302 0.0659648
0.474784 0.134676 0.0673838
0.514229 0.133989 0.0679942
0.55378 0.133471 0.0680858
0.592691 0.133272 0.0680552
0.630304 0.133608 0.0682689
0.66601 0.134615 0.0690318
0.699794 0.13637 0.0705425
0.731655 0.138811 0.0727703
0.761654 0.141924 0.0756847
0.790082 0.145602 0.0791791
0.817456 0.149722 0.0831159
0.844144 0.154147 0.0873579
0.870619 0.158724 0.091783
0.897337 0.163317 0.0962234
0.924956 0.167773 0.100542
0.0277562 0.137881 0.0614328
0.0412299 0.14107 0.0651408
0.0555886 0.144183 0.0685893
0.070573 0.147326 0.0717327
0.0861982 0.1505 0.074464
0.102708 0.153658 0.0766918
0.120394 0.156695 0.0783246
0.139666 0.159503 0.0791791
0.160967 0.161944 0.079118
0.184695 0.163851 0.0780041
0.210986 0.165194 0.0759136
0.23978 0.165942 0.0732586
0.270848 0.166201 0.0706493
0.303609 0.166186 0.0689403
0.337728 0.16614 0.0688945
0.373175 0.166155 0.0704051
0.409628 0.166339 0.0728161
0.447257 0.166613 0.0755474
0.48658 0.166751 0.0778515
0.526696 0.166812 0.0792248
0.566796 0.166979 0.0800031
0.606226 0.167437 0.0806439
0.644251 0.168368 0.0814374
0.680262 0.169909 0.0826734
0.714305 0.172152 0.0846265
0.746426 0.175036 0.0872358
0.776654 0.178561 0.0905013
0.80531 0.182605 0.0943008
0.832868 0.18703 0.098497
0.859739 0.191714 0.102953
0.886381 0.196506 0.107546
0.913252 0.201297 0.112139
0.940963 0.205875 0.116533
0.0294499 0.163302 0.0633555
0.0434882 0.166903 0.0673838
0.0584726 0.170459 0.0712291
0.0741131 0.17406 0.0749065
0.0904555 0.177676 0.078294
0.107637 0.181277 0.081117
0.125978 0.184787 0.0832685
0.145846 0.188067 0.0846265
0.167712 0.190951 0.0849622
0.191943 0.193286 0.0841382
0.218601 0.195071 0.0826886
0.2477 0.196323 0.0810407
0.279103 0.197086 0.0793774
0.312352 0.197559 0.078233
0.347112 0.198047 0.0785382
0.383215 0.198672 0.0800793
0.420172 0.199512 0.0823224
0.458289 0.200473 0.0850538
0.498146 0.201358 0.0878157
0.538766 0.202136 0.0898451
0.579309 0.202914 0.0912795
0.619181 0.203952 0.0925612
0.657572 0.205371 0.0939345
0.693812 0.207324 0.0955673
0.727993 0.209918 0.0977951
0.76022 0.213138 0.100679
0.790539 0.216922 0.104143
0.819272 0.221195 0.108125
0.846891 0.225818 0.112444
0.873808 0.230625 0.116991
0.900496 0.235523 0.12163
0.927367 0.240345 0.126207
0.955047 0.244953 0.130571
0.0305333 0.191196 0.0646525
0.0451667 0.195285 0.0691081
0.0607919 0.199344 0.0733806
0.0771038 0.203418 0.0775311
0.0941329 0.207538 0.0815137
0.112032 0.211643 0.0851911
0.131044 0.215641 0.0882124
0.151553 0.219425 0.0904707
0.173983 0.222827 0.0917983
0.198703 0.225681 0.0920119
0.225864 0.227924 0.0912642
0.255482 0.229648 0.0902571
0.287465 0.230869 0.0891127
0.321324 0.231754 0.0879988
0.356558 0.232532 0.0875563
0.392889 0.233509 0.0882429
0.429816 0.234745 0.0897688
0.467933 0.236179 0.0921035
0.507912 0.23769 0.0951095
0.54905 0.2392 0.0981613
0.590219 0.240665 0.100664
0.630701 0.242283 0.102892
0.669566 0.244175 0.104997
0.706065 0.246494 0.107118
0.740246 0.249332 0.109514
0.772442 0.252735 0.112505
0.802701 0.256672 0.11606
0.831388 0.261036 0.120058
0.85893 0.265705 0.124376
0.885786 0.270542 0.128893
0.912337 0.275395 0.133425
0.939116 0.28014 0.137881
0.966613 0.284627 0.142077
0.0309758 0.221775 0.0653086
0.0462501 0.226398 0.0702068
0.062501 0.230976 0.0749676
0.0794842 0.235584 0.0796216
0.0972152 0.240223 0.084123
0.115831 0.244862 0.0884413
0.135592 0.249409 0.0924086
0.156786 0.253758 0.0957046
0.179889 0.257725 0.0981003
0.205249 0.261143 0.0994278
0.233005 0.263859 0.0995041
0.263203 0.265782 0.0983291
0.295659 0.267033 0.0964828
0.329686 0.267796 0.0942855
0.364721 0.26836 0.0923629
0.400565 0.269245 0.0918288
0.437079 0.270726 0.093019
0.47512 0.272663 0.0957198
0.515419 0.274968 0.0997024
0.557366 0.27747 0.104326
0.599374 0.279789 0.108186
0.640497 0.282048 0.111437
0.679774 0.284413 0.114199
0.716442 0.287037 0.116686
0.750484 0.289967 0.119142
0.782513 0.293431 0.122118
0.812589 0.297398 0.125628
0.841062 0.301732 0.129534
0.868406 0.306325 0.133715
0.895033 0.31104 0.138033
0.92137 0.315724 0.142367
0.947906 0.320302 0.146578
0.975311 0.324727 0.150668
0.0309148 0.255161 0.0654154
0.0468147 0.260319 0.0708171
0.0637217 0.265461 0.0760815
0.0813764 0.270619 0.0812543
0.0998245 0.275807 0.086305
0.119188 0.28098 0.0911727
0.139712 0.286091 0.0957961
0.161654 0.29099 0.0999466
0.185473 0.295445 0.103182
0.21146 0.299229 0.10518
0.239765 0.302159 0.105653
0.27042 0.304006 0.104295
0.303014 0.304723 0.101183
0.336767 0.304692 0.0973373
0.371084 0.304448 0.0938125
0.405951 0.304784 0.0920424
0.441718 0.306249 0.0928817
0.479759 0.308873 0.0963607
0.520531 0.312276 0.101717
0.563302 0.316045 0.107942
0.606287 0.319493 0.11339
0.648112 0.322545 0.117723
0.687785 0.325414 0.121157
0.724575 0.328298 0.123995
0.758556 0.331304 0.126558
0.79028 0.334707 0.129396
0.82002 0.338537 0.132723
0.848188 0.342733 0.136416
0.875288 0.347189 0.140429
0.901808 0.351904 0.144701
0.928176 0.356695 0.149065
0.954894 0.361471 0.153429
0.982406 0.366079 0.157656
0.0309606 0.291173 0.0656443
0.0475319 0.29691 0.0715953
0.0651102 0.302617 0.077409
0.0834669 0.308354 0.0831464
0.102556 0.313985 0.0885176
0.122606 0.319631 0.0938582
0.143786 0.325124 0.0988479
0.166369 0.330358 0.103395
0.190814 0.335149 0.107256
0.21735 0.339254 0.109987
0.246143 0.342428 0.111284
0.277226 0.344518 0.110964
0.310246 0.345449 0.109026
0.344472 0.345571 0.106188
0.379492 0.345693 0.103899
0.415244 0.346517 0.103243
0.451865 0.348501 0.104784
0.490639 0.351568 0.108415
0.531594 0.355154 0.113146
0.573663 0.358663 0.117815
0.615686 0.361822 0.121813
0.656428 0.364569 0.124895
0.695048 0.367117 0.127367
0.731075 0.369741 0.12961
0.764645 0.372625 0.131945
0.796094 0.375967 0.134691
0.825711 0.379873 0.138033
0.853895 0.384222 0.141848
0.881071 0.388891 0.146014
0.907668 0.393774 0.150393
0.934142 0.398718 0.154879
0.960922 0.403601 0.159304
0.988464 0.408286 0.163561
0.0318608 0.329564 0.0666972
0.0490578 0.335836 0.0731212
0.067216 0.342016 0.0793469
0.0861219 0.348135 0.08542
0.105791 0.354177 0.0912642
0.126375 0.360067 0.096788
0.148058 0.365713 0.1019
0.17116 0.371008 0.106447
0.196078 0.375784 0.110292
0.223056 0.379873 0.113191
0.252201 0.383062 0.114839
0.283558 0.385092 0.114961
0.316777 0.385992 0.11368
0.351186 0.386145 0.11162
0.386297 0.386114 0.109651
0.422004 0.386725 0.108904
0.45864 0.388785 0.110445
0.497383 0.392004 0.113863
0.538064 0.395697 0.11812
0.579889 0.399405 0.122499
0.621729 0.402823 0.126406
0.662165 0.405676 0.12932
0.700526 0.408331 0.131701
0.736507 0.411185 0.134096
0.770153 0.414359 0.136706
0.801587 0.417899 0.13962
0.83122 0.422004 0.143114
0.859403 0.426505 0.147036
0.886595 0.431296 0.151293
0.913207 0.436271 0.155734
0.939681 0.44126 0.160235
0.966461 0.446143 0.164614
0.993927 0.450782 0.168765
0.0340887 0.369818 0.0690013
0.0517433 0.376425 0.0757458
0.0703593 0.382895 0.0822461
0.0896925 0.389258 0.0885481
0.109789 0.395499 0.0946212
0.13077 0.401572 0.100404
0.15285 0.407385 0.105837
0.176349 0.412772 0.110658
0.201617 0.417548 0.114656
0.228916 0.421592 0.117723
0.258335 0.424689 0.119615
0.289906 0.426535 0.119936
0.323354 0.427466 0.11928
0.358129 0.427955 0.118257
0.393652 0.428244 0.117189
0.429618 0.42887 0.116716
0.4663 0.430793 0.118044
0.504768 0.433585 0.120592
0.544762 0.436667 0.123613
0.585901 0.440055 0.127001
0.62742 0.44361 0.130587
0.667811 0.446799 0.133577
0.706203 0.449821 0.136202
0.74229 0.45304 0.138918
0.776043 0.456504 0.141817
0.807492 0.460243 0.144915
0.837018 0.464424 0.14847
0.865141 0.468986 0.152438
0.892271 0.473808 0.156695
0.918807 0.478767 0.161089
0.945174 0.48368 0.165469
0.971847 0.488411 0.16968
0.999146 0.492851 0.173587
0.0378271 0.411032 0.0727245
0.0558328 0.417853 0.0796674
0.0747539 0.424475 0.0863203
0.094377 0.430945 0.0927596
0.114748 0.437278 0.09897
0.136004 0.443381 0.104875
0.158358 0.449287 0.110506
0.182116 0.454871 0.115724
0.207645 0.4598 0.120134
0.235157 0.463935 0.123568
0.26482 0.46717 0.125948
0.296666 0.4692 0.126909
0.330343 0.470146 0.12665
0.365362 0.470665 0.126009
0.40119 0.470985 0.125246
0.437324 0.471397 0.124666
0.473762 0.472618 0.125048
0.511742 0.474586 0.126406
0.551049 0.476951 0.128252
0.59144 0.479896 0.130755
0.632486 0.483436 0.133974
0.67306 0.487221 0.137392
0.711818 0.490883 0.140612
0.748272 0.494697 0.143893
0.782269 0.498589 0.147219
0.813794 0.502571 0.150561
0.843168 0.506783 0.154116
0.871138 0.511345 0.158053
0.898116 0.516121 0.162234
0.924468 0.520958 0.166476
0.950637 0.525689 0.170642
0.977096 0.530159 0.174548
1 0.534295 0.178088
0.0419928 0.453117 0.0768444
0.0601968 0.459998 0.0838331
0.0792706 0.466636 0.0905318
0.0990616 0.473136 0.0970016
0.119554 0.479454 0.103243
0.140932 0.485557 0.109209
0.163409 0.491447 0.114855
0.187259 0.497017 0.120134
0.212894 0.502083 0.124849
0.240528 0.506355 0.128618
0.270298 0.509667 0.131304
0.302358 0.511879 0.132723
0.336339 0.512917 0.132815
0.371557 0.512993 0.131884
0.407416 0.512673 0.130556
0.44329 0.512261 0.129183
0.479011 0.512261 0.128298
0.516152 0.513176 0.128466
0.55491 0.515221 0.12987
0.595056 0.518364 0.132403
0.63624 0.522591 0.136065
0.677409 0.527413 0.140337
0.716747 0.532036 0.144366
0.753597 0.536507 0.148211
0.787778 0.540825 0.151873
0.819287 0.544991 0.155367
0.848447 0.549187 0.158877
0.876204 0.553658 0.162707
0.902983 0.558343 0.166766
0.929152 0.563073 0.170886
0.955108 0.567651 0.174868
0.981338 0.571908 0.178561
1 0.575753 0.181827
0.0460822 0.495949 0.0810559
0.0643168 0.502724 0.087953
0.0834363 0.509255 0.0945602
0.103227 0.515618 0.100938
0.12372 0.521798 0.107073
0.145068 0.527749 0.112902
0.167483 0.533394 0.118364
0.191302 0.538705 0.123415
0.217014 0.543664 0.128038
0.244877 0.548089 0.132082
0.275029 0.551705 0.13518
0.307546 0.554223 0.137087
0.341939 0.555383 0.137514
0.377356 0.555123 0.136477
0.412924 0.553643 0.134234
0.448066 0.551736 0.13164
0.482872 0.550225 0.129534
0.51902 0.54995 0.128679
0.557107 0.551598 0.129686
0.597253 0.555367 0.132662
0.638849 0.560678 0.137118
0.680674 0.566766 0.14229
0.720745 0.572564 0.147219
0.758053 0.577844 0.151659
0.792432 0.582635 0.155673
0.823926 0.58703 0.159319
0.852934 0.591211 0.162814
0.8804 0.595514 0.166445
0.906874 0.6 0.170291
0.932769 0.604547 0.174197
0.958511 0.608957 0.178027
0.984497 0.613031 0.181521
1 0.616678 0.184619
0.0501106 0.53901 0.0853742
0.0683146 0.545647 0.0921798
0.0873121 0.551934 0.0985733
0.10695 0.557992 0.104707
0.127321 0.563882 0.110597
0.148669 0.569665 0.116304
0.17116 0.574731 0.121233
0.195254 0.580011 0.126284
0.221286 0.584909 0.130892
0.24947 0.589364 0.134981
0.279973 0.59324 0.138415
0.312871 0.596201 0.140887
0.347646 0.597803 0.14197
0.383505 0.598093 0.141726
0.419562 0.597147 0.140307
0.455161 0.595575 0.138323
0.490578 0.594507 0.136858
0.527428 0.59472 0.136568
0.566064 0.596689 0.13785
0.6065 0.600565 0.140795
0.647852 0.605615 0.144747
0.688685 0.610849 0.148867
0.727657 0.615839 0.152804
0.763882 0.620371 0.156374
0.797314 0.624491 0.159655
0.828168 0.628443 0.162844
0.856825 0.632441 0.16611
0.883909 0.6365 0.169497
0.910033 0.640711 0.173053
0.935546 0.644907 0.176638
0.960952 0.649027 0.180133
0.986648 0.652857 0.183398
1 0.656275 0.186252
0.0540627 0.58146 0.089601
0.0721904 0.587961 0.0962997
0.0911879 0.594156 0.102663
0.110903 0.600061 0.108705
0.131441 0.605753 0.114473
0.152956 0.61117 0.119921
0.175692 0.616281 0.124971
0.199954 0.621057 0.129641
0.226169 0.625544 0.133913
0.254536 0.629633 0.137728
0.285191 0.633295 0.141024
0.318273 0.636301 0.143618
0.353246 0.638285 0.14519
0.389288 0.638941 0.145464
0.42562 0.638453 0.144717
0.461524 0.637385 0.143435
0.497108 0.636378 0.142229
0.533913 0.63624 0.141756
0.572503 0.638071 0.142901
0.612711 0.641749 0.145556
0.653574 0.646418 0.149004
0.694011 0.651499 0.152804
0.732692 0.656535 0.156603
0.768521 0.660929 0.159945
0.801526 0.664836 0.162951
0.832029 0.668635 0.165942
0.860304 0.672389 0.168978
0.886961 0.676127 0.172045
0.912627 0.679942 0.175235
0.937728 0.683772 0.178439
0.962676 0.687449 0.181506
0.987976 0.690867 0.184344
1 0.693935 0.186847
0.0588388 0.623392 0.0945602
0.0771801 0.63003 0.101411
0.0963607 0.636271 0.107881
0.116213 0.642069 0.113909
0.136843 0.647456 0.119493
0.158434 0.652461 0.124651
0.181262 0.65716 0.129427
0.205661 0.661631 0.133898
0.232044 0.666026 0.138155
0.260563 0.67013 0.142046
0.291402 0.673808 0.145434
0.324636 0.676951 0.148211
0.359777 0.679194 0.150072
0.395987 0.680034 0.150652
0.432578 0.680095 0.150484
0.469001 0.679896 0.150088
0.505165 0.679591 0.149584
0.542275 0.679561 0.149248
0.580865 0.681056 0.150118
0.620569 0.683894 0.152026
0.660456 0.687358 0.154406
0.699825 0.691402 0.157244
0.737743 0.695827 0.160433
0.773007 0.699855 0.163363
0.805554 0.703487 0.166079
0.835676 0.707073 0.168841
0.863539 0.710567 0.171603
0.889738 0.713924 0.174304
0.914916 0.717311 0.177066
0.939529 0.720668 0.179828
0.964004 0.723857 0.182437
0.988815 0.726726 0.184741
1 0.729229 0.186725
0.0653849 0.664897 0.101137
0.0838483 0.671489 0.107988
0.10309 0.677577 0.114382
0.123003 0.683207 0.120302
0.143664 0.688334 0.125719
0.16527 0.692988 0.130632
0.188144 0.697368 0.13521
0.212604 0.701595 0.139513
0.239078 0.705913 0.143771
0.267765 0.710323 0.147951
0.298817 0.714427 0.151736
0.332265 0.717906 0.154864
0.367681 0.720592 0.157168
0.404211 0.722011 0.158282
0.441062 0.722347 0.158419
0.477745 0.722454 0.158328
0.514229 0.722393 0.158053
0.551446 0.722118 0.157549
0.589517 0.72253 0.157549
0.628275 0.723934 0.158282
0.667002 0.725963 0.159487
0.705196 0.728756 0.161303
0.742184 0.732357 0.16376
0.77705 0.736126 0.16643
0.809369 0.739696 0.169039
0.839216 0.743175 0.171633
0.866773 0.746487 0.174197
0.892576 0.749538 0.176608
0.917266 0.752483 0.178958
0.941421 0.755398 0.181308
0.965469 0.758114 0.183459
0.989822 0.760418 0.18526
1 0.76228 0.186679
0.0739147 0.705699 0.109575
0.0923323 0.712032 0.116243
0.111559 0.717876 0.122438
0.131441 0.723278 0.128176
0.152102 0.728237 0.133455
0.173709 0.732799 0.138308
0.196567 0.737072 0.142794
0.221027 0.741253 0.147082
0.247547 0.745495 0.151293
0.27631 0.74992 0.15552
0.307515 0.754299 0.159609
0.341176 0.758099 0.163027
0.376761 0.760983 0.16556
0.413504 0.762753 0.16701
0.450477 0.763195 0.167239
0.486854 0.762646 0.166613
0.522927 0.761669 0.165591
0.559518 0.760311 0.164218
0.596582 0.759258 0.163043
0.634211 0.759274 0.162676
0.67216 0.760479 0.163256
0.709804 0.762814 0.164691
0.746426 0.766186 0.166964
0.781201 0.770016 0.169665
0.813443 0.773648 0.172259
0.843076 0.777066 0.174762
0.870329 0.780179 0.177111
0.89575 0.78294 0.179232
0.919997 0.785458 0.181201
0.943709 0.787945 0.183139
0.967361 0.79028 0.184955
0.991394 0.792279 0.18645
1 0.79379 0.187533
0.0844892 0.746365 0.120348
0.102846 0.75256 0.126879
0.121935 0.75816 0.132815
0.141619 0.763195 0.138201
0.162127 0.767895 0.143236
0.183642 0.77232 0.147921
0.206409 0.776501 0.1523
0.230793 0.780499 0.15642
0.257206 0.78439 0.160357
0.285878 0.788388 0.164248
0.317021 0.792355 0.168032
0.350652 0.795911 0.171328
0.386236 0.798733 0.173846
0.423026 0.800595 0.175418
0.459922 0.800992 0.175616
0.49601 0.800046 0.174624
0.531365 0.79794 0.172625
0.566995 0.795239 0.170092
0.60293 0.792767 0.167758
0.63946 0.791547 0.166415
0.6766 0.791989 0.166415
0.713954 0.794171 0.167773
0.75053 0.797604 0.170123
0.785336 0.801541 0.172915
0.817609 0.805295 0.175601
0.84712 0.808667 0.178042
0.874098 0.811597 0.180224
0.899199 0.814099 0.182101
0.923064 0.816281 0.183764
0.946365 0.818341 0.185321
0.969619 0.820264 0.18674
0.993317 0.821912 0.1879
1 0.82327 0.1888
0.0967117 0.786313 0.13286
0.115023 0.792538 0.139376
0.134005 0.798184 0.145296
0.153552 0.80322 0.150607
0.1738 0.807675 0.155337
0.195087 0.811933 0.159823
0.217685 0.816022 0.16408
0.241917 0.819883 0.168063
0.267216 0.820569 0.169039
0.29572 0.824155 0.172625
0.326635 0.827497 0.175891
0.360006 0.830442 0.178714
0.395438 0.833021 0.181109
0.432181 0.835019 0.182879
0.469078 0.83563 0.183322
0.50515 0.835004 0.182574
0.540551 0.833097 0.180667
0.576043 0.830243 0.177905
0.611688 0.827436 0.175174
0.647913 0.825803 0.173465
0.684672 0.825757 0.173053
0.721614 0.82739 0.174029
0.757641 0.830167 0.175937
0.791684 0.83328 0.178134
0.82324 0.836286 0.180285
0.852049 0.838956 0.182208
0.878401 0.841245 0.183871
0.902983 0.843244 0.185321
0.926452 0.84506 0.186633
0.94934 0.846708 0.187823
0.972229 0.848219 0.188876
0.995575 0.849454 0.189654
1 0.850492 0.190265
0.110079 0.824903 0.146441
0.128313 0.831174 0.152972
0.147189 0.836851 0.158877
0.166552 0.841886 0.164111
0.186481 0.846143 0.168566
0.207218 0.849607 0.172198
0.229175 0.852552 0.17528
0.252705 0.854917 0.177768
0.278141 0.856657 0.179629
0.305837 0.858259 0.181323
0.336065 0.859983 0.183124
0.368795 0.861662 0.184833
0.403708 0.863447 0.186603
0.440162 0.865232 0.188312
0.477073 0.866255 0.189227
0.513207 0.866056 0.188922
0.548821 0.864668 0.187457
0.584512 0.862272 0.185031
0.620081 0.859464 0.182208
0.655863 0.857343 0.180026
0.692226 0.856825 0.179248
0.728649 0.857816 0.179782
0.763973 0.859785 0.181125
0.797467 0.862242 0.18291
0.828595 0.864759 0.184756
0.856916 0.866926 0.186313
0.882795 0.868757 0.18761
0.907012 0.87039 0.188754
0.930098 0.871839 0.189761
0.952621 0.873121 0.1906
0.975158 0.87425 0.191302
0.998199 0.87512 0.19176
1 0.875853 0.192081
0.123903 0.861845 0.160403
0.142 0.868009 0.166812
0.160632 0.873533 0.172534
0.17966 0.878294 0.177447
0.199161 0.882185 0.181415
0.219333 0.885039 0.184268
0.240513 0.886839 0.186023
0.263233 0.887907 0.187045
0.287938 0.888426 0.187564
0.314946 0.888884 0.188067
0.344686 0.889891 0.189166
0.377157 0.891279 0.190707
0.411902 0.892943 0.192508
0.44831 0.894774 0.194461
0.485328 0.896086 0.195834
0.521523 0.896132 0.19585
0.557397 0.895155 0.194797
0.59353 0.893339 0.192889
0.62948 0.890944 0.190387
0.665202 0.88867 0.188006
0.701228 0.887648 0.186786
0.736873 0.887709 0.186572
0.771069 0.888472 0.186984
0.80351 0.889815 0.187915
0.833906 0.891539 0.189181
0.861631 0.89308 0.19028
0.887083 0.894469 0.191226
