public/filters/konnect/Presets C Medium Skin Tone/Contrast v3_38.Med Skin 1.cube
TITLE "Generated by Resolve"
LUT_3D_SIZE 5
0 0 0.0244907
0.117586 0.00602731 0.0285496
0.348226 0 0.0203708
0.628092 0 0.000579843
0.830854 0 0.00645457
0.0294499 0.163302 0.0633555
0.167712 0.190951 0.0849622
0.420172 0.199512 0.0823224
0.727993 0.209918 0.0977951
0.955047 0.244953 0.130571
0.0419928 0.453117 0.0768444
0.212894 0.502083 0.124849
0.479011 0.512261 0.128298
0.787778 0.540825 0.151873
1 0.575753 0.181827
0.0967117 0.786313 0.13286
0.267216 0.820569 0.169039
0.540551 0.833097 0.180667
0.82324 0.836286 0.180285
1 0.850492 0.190265
0.188388 1 0.225467
0.332631 1 0.230442
0.588632 1 0.219181
0.853605 1 0.204181
1 1 0.204318
0 0 0.166293
0.118639 0.010605 0.183871
0.349569 0 0.176989
0.627375 0 0.160479
0.836881 0 0.172198
0.0346685 0.169863 0.215702
0.176577 0.201007 0.247593
0.425116 0.213062 0.256138
0.737163 0.225742 0.272847
0.965621 0.259602 0.306661
0.0578622 0.468391 0.252674
0.232731 0.515999 0.308263
0.491234 0.52401 0.316136
0.773709 0.533181 0.317891
1 0.590417 0.365072
0.111818 0.800198 0.314778
0.285664 0.839887 0.361761
0.553552 0.840253 0.367895
0.80502 0.816068 0.34728
1 0.853666 0.37116
0.192737 1 0.401236
0.343877 1 0.420706
0.584802 1 0.391638
0.84773 1 0.382101
1 1 0.388708
0 0 0.410269
0.118029 0.00640879 0.423697
0.349813 0 0.416052
0.629236 0 0.404669
0.838941 0 0.421332
0.0313878 0.171862 0.456321
0.181537 0.206226 0.484062
0.436957 0.223697 0.501961
0.735729 0.232578 0.517113
0.967269 0.263981 0.554726
0.0636606 0.476997 0.502922
0.241062 0.524788 0.55053
0.511467 0.549203 0.573968
0.78204 0.549432 0.572457
1 0.591959 0.615198
0.111696 0.795041 0.56025
0.294423 0.84712 0.616861
0.569955 0.848203 0.628183
0.807889 0.819135 0.600381
1 0.814557 0.589975
0.157412 1 0.60795
0.345098 1 0.674479
0.601755 1 0.657771
0.850614 1 0.638834
1 1 0.602426
0 0 0.65066
0.116716 0.00177005 0.66273
0.353582 0 0.651667
0.634775 0 0.640223
0.844892 0 0.660533
0.0323186 0.174746 0.697169
0.187411 0.212253 0.729549
0.455222 0.231205 0.745174
0.755901 0.244739 0.760464
0.98146 0.278782 0.799695
0.0707866 0.489342 0.74139
0.244907 0.537362 0.784115
0.522866 0.560632 0.797925
0.80589 0.574533 0.809094
1 0.606134 0.845792
0.125658 0.816754 0.802976
0.298528 0.854383 0.840391
0.575219 0.85243 0.838285
0.832547 0.845502 0.830808
1 0.852247 0.837095
0.180117 1 0.861112
0.344015 1 0.889723
0.606912 1 0.870924
0.861753 1 0.855802
1 1 0.845258
0 0 0.807065
0.120943 0.00399786 0.81944
0.363088 0 0.807858
0.646967 0 0.797223
0.859525 0.00199893 0.820325
0.0407568 0.184726 0.857496
0.20058 0.225483 0.894423
0.475349 0.245212 0.910765
0.778286 0.259754 0.924041
1 0.294759 0.960189
0.0834974 0.505776 0.901884
0.257343 0.5552 0.946365
0.53846 0.576242 0.960937
0.83032 0.59028 0.969284
1 0.618158 0.996506
0.137514 0.8318 0.958572
0.305318 0.866514 0.991119
0.575891 0.862989 0.983993
0.839261 0.852018 0.966766
1 0.857862 0.970916
0.195987 1 1
0.345678 1 1
0.607996 1 1
0.86659 1 0.986465
1 1 0.989563
