public/filters/konnect/Presets C Medium Skin Tone/Cool v3_38.Med Skin 1.cube
TITLE "Generated by Resolve"
LUT_3D_SIZE 5
0.0349126 0.0431373 0.0784619
0.144244 0.03888 0.0692149
0.318975 0.0119783 0.0278019
0.56907 0.0135348 0.0427863
0.774029 0.00823987 0.0354314
0.0332189 0.189776 0.0838331
0.162387 0.206302 0.0982986
0.354299 0.197314 0.0559243
0.623545 0.214252 0.103151
0.855039 0.236378 0.133608
0.0414435 0.425147 0.0942245
0.190143 0.467353 0.128985
0.416556 0.487007 0.122194
0.685618 0.505089 0.132647
0.939544 0.549233 0.228336
0.102052 0.737346 0.168261
0.239612 0.787778 0.181216
0.489311 0.816266 0.179126
0.765209 0.84033 0.208774
1 0.875425 0.31284
0.206134 1 0.292744
0.328954 1 0.292271
0.53991 1 0.170718
0.855161 1 0.32491
1 1 0.393729
0.0205386 0.0283513 0.290257
0.145266 0.0390478 0.300755
0.308614 0.00784314 0.26363
0.556023 0.00364691 0.250431
0.779355 0.0034638 0.245075
0.0277714 0.18558 0.305791
0.165042 0.208103 0.330037
0.360113 0.203449 0.319951
0.610025 0.188205 0.298268
0.866392 0.238834 0.358236
0.0476081 0.432212 0.334051
0.201312 0.477562 0.377722
0.432135 0.500603 0.397467
0.664561 0.479408 0.347616
0.953414 0.557671 0.457252
0.0858778 0.744884 0.397009
0.276158 0.803616 0.465278
0.496529 0.827298 0.469429
0.750134 0.835187 0.451377
1 0.866453 0.500572
0.108873 1 0.466407
0.379278 1 0.580102
0.549004 1 0.527535
0.836988 1 0.553124
1 1 0.545922
0.0184024 0.0249638 0.505547
0.141573 0.0346532 0.512596
0.333196 0.0218967 0.50132
0.558526 0.0053254 0.481239
0.781857 0.00355535 0.471244
0.0268711 0.184955 0.52369
0.16611 0.210422 0.548257
0.385122 0.220661 0.558587
0.62295 0.205554 0.552087
0.878355 0.243137 0.582666
0.0429999 0.437797 0.556344
0.211612 0.489342 0.605402
0.452964 0.517815 0.633677
0.69192 0.511574 0.628107
0.970855 0.551232 0.667124
0.0460517 0.747112 0.610086
0.290761 0.818021 0.695476
0.532738 0.847333 0.723018
0.780285 0.859464 0.726986
1 0.845426 0.690898
0.0419776 1 0.667857
0.388861 1 0.803265
0.617685 1 0.81532
0.856199 1 0.81001
1 1 0.735256
0.0229343 0.0290684 0.681147
0.140993 0.0338445 0.687266
0.33817 0.0249485 0.679423
0.566445 0.0116732 0.668818
0.782086 0.0115511 0.668528
0.0327764 0.19086 0.702754
0.172412 0.217823 0.726864
0.396048 0.231556 0.740169
0.646799 0.23917 0.755657
0.888304 0.265141 0.778241
0.0586862 0.454185 0.743664
0.223148 0.504509 0.787594
0.468284 0.534707 0.816434
0.729625 0.555947 0.843305
0.98204 0.58056 0.87306
0.0809796 0.770626 0.820203
0.303929 0.835264 0.876066
0.553994 0.865309 0.906111
0.810987 0.885451 0.9281
1 0.874876 0.929854
0.08542 1 0.905501
0.401511 1 0.976257
0.641154 1 0.995743
0.884321 1 1
1 1 0.995026
0.0233768 0.0294957 0.80911
0.144762 0.0373846 0.817609
0.344259 0.0297551 0.811627
0.575402 0.0203861 0.803662
0.789685 0.0249485 0.80827
0.0422217 0.201495 0.835889
0.183383 0.230182 0.862669
0.409979 0.246174 0.878828
0.665705 0.262287 0.895888
0.903059 0.289311 0.921248
0.0805524 0.475502 0.883665
0.24126 0.524559 0.927794
0.485969 0.554879 0.957671
0.751369 0.581827 0.986221
0.996979 0.613642 1
0.151171 0.80206 0.969573
0.325444 0.856321 1
0.571359 0.883864 1
0.827283 0.903426 1
1 0.922835 1
0.238895 1 1
0.415763 1 1
0.656596 1 1
0.907469 1 1
1 1 1
