public/filters/konnect/Presets C Medium Skin Tone/Cool v3_38.Med Skin 1.cube
TITLE "Generated by Resolve"
LUT_3D_SIZE 9
0.0349126 0.0431373 0.0784619
0.0859236 0.046067 0.0817121
0.144244 0.03888 0.0692149
0.214786 0.0204318 0.0399786
0.318975 0.0119783 0.0278019
0.453285 0.0165408 0.04271
0.56907 0.0135348 0.0427863
0.670146 0.0103914 0.0385748
0.774029 0.00823987 0.0354314
0.0330053 0.108034 0.0806287
0.0870069 0.11368 0.0869612
0.154101 0.115511 0.0864271
0.229709 0.104097 0.0564126
0.312978 0.0780957 0.0145113
0.457588 0.0835737 0.031342
0.591714 0.101183 0.0701762
0.698253 0.104707 0.0742809
0.808469 0.108721 0.078294
0.0332189 0.189776 0.0838331
0.0905318 0.199741 0.0941482
0.162387 0.206302 0.0982986
0.250538 0.205142 0.0831769
0.354299 0.197314 0.0559243
0.485237 0.196918 0.0552377
0.623545 0.214252 0.103151
0.737804 0.225971 0.122057
0.855039 0.236378 0.133608
0.0328374 0.293919 0.0840772
0.0940414 0.310201 0.0995956
0.172244 0.323522 0.109865
0.269551 0.330388 0.103731
0.379965 0.329976 0.0798962
0.513329 0.333379 0.076936
0.658274 0.355047 0.134951
0.778485 0.372702 0.169207
0.899397 0.385687 0.184207
0.0414435 0.425147 0.0942245
0.103685 0.4477 0.112108
0.190143 0.467353 0.128985
0.298817 0.481209 0.137819
0.416556 0.487007 0.122194
0.536339 0.484199 0.0835431
0.685618 0.505089 0.132647
0.815564 0.53315 0.208576
0.939544 0.549233 0.228336
0.065095 0.577661 0.123201
0.128908 0.603403 0.142031
0.209323 0.62356 0.145785
0.321813 0.638834 0.149233
0.453696 0.651759 0.160357
0.58674 0.659907 0.151064
0.724361 0.674952 0.173526
0.855344 0.700694 0.246387
0.979553 0.717433 0.272541
0.102052 0.737346 0.168261
0.170062 0.766125 0.190661
0.239612 0.787778 0.181216
0.354467 0.803006 0.168841
0.489311 0.816266 0.179126
0.633448 0.828489 0.199924
0.765209 0.84033 0.208774
0.895216 0.860945 0.279896
1 0.875425 0.31284
0.154742 0.900053 0.232639
0.223407 0.928756 0.25359
0.268193 0.949371 0.225422
0.394247 0.962768 0.196658
0.529946 0.973449 0.203738
0.685542 0.984482 0.261326
0.810681 0.993454 0.260746
0.935531 1 0.309529
1 1 0.353857
0.206134 1 0.292744
0.278904 1 0.316701
0.328954 1 0.292271
0.420401 1 0.205097
0.53991 1 0.170718
0.718166 1 0.271077
0.855161 1 0.32491
0.974975 1 0.35024
1 1 0.393729
0.0292668 0.0373693 0.192248
0.0839399 0.0433356 0.19884
0.145708 0.0398871 0.195422
0.21561 0.0219425 0.174319
0.309545 0.0080415 0.148608
0.43241 0.00488289 0.137682
0.561593 0.00714122 0.147036
0.668208 0.00523384 0.127642
0.774655 0.00581369 0.141161
0.0279698 0.103487 0.194095
0.0848859 0.111345 0.203357
0.153796 0.114717 0.206806
0.232593 0.106294 0.193835
0.322286 0.0857252 0.164431
0.445747 0.074464 0.152163
0.586603 0.0884108 0.176333
0.699153 0.0940261 0.18793
0.811719 0.100282 0.191867
0.0306554 0.187411 0.199786
0.0899825 0.198856 0.212207
0.164233 0.207095 0.220645
0.255802 0.208667 0.219532
0.351171 0.197009 0.195773
0.467063 0.184298 0.172976
0.616403 0.200397 0.199588
0.741115 0.227146 0.23975
0.859785 0.238163 0.251362
0.0333562 0.294087 0.204257
0.0953536 0.311452 0.221195
0.174914 0.325902 0.234821
0.276219 0.335348 0.24242
0.379751 0.332097 0.226261
0.497734 0.32398 0.204593
0.645716 0.335439 0.220722
0.783154 0.372656 0.281758
0.904891 0.390082 0.304372
0.0455177 0.428397 0.219532
0.112383 0.452293 0.242176
0.195056 0.471778 0.259266
0.301808 0.485466 0.270542
0.417151 0.49012 0.266316
0.531548 0.483268 0.24007
0.670848 0.486702 0.23769
0.819806 0.528038 0.308797
0.945693 0.555489 0.350973
0.070222 0.582208 0.24947
0.138689 0.60885 0.274128
0.216052 0.628916 0.286412
0.32726 0.644556 0.298177
0.455833 0.656443 0.307256
0.580209 0.659419 0.295064
0.706493 0.658671 0.275639
0.855711 0.688716 0.328893
0.985611 0.722362 0.392096
0.105608 0.742702 0.292515
0.181292 0.77261 0.323095
0.256916 0.794965 0.334615
0.354055 0.807584 0.327169
0.482155 0.818586 0.33138
0.624079 0.828702 0.34078
0.751934 0.834012 0.33138
0.89044 0.849454 0.356252
1 0.877302 0.423896
0.14844 0.904952 0.345418
0.235676 0.934905 0.386175
0.308278 0.956741 0.39794
0.396277 0.96762 0.372412
0.508232 0.974456 0.353857
0.661463 0.983886 0.37554
0.800549 0.993469 0.391394
0.926833 1 0.39086
1 1 0.453208
0.183932 1 0.378164
0.284825 1 0.442679
0.360601 1 0.453758
0.424384 1 0.401556
0.523644 1 0.363775
0.681483 1 0.386709
0.845411 1 0.446342
0.969055 1 0.452262
1 1 0.487724
0.0205386 0.0283513 0.290257
0.0803998 0.0400549 0.301595
0.145266 0.0390478 0.300755
0.223072 0.0277714 0.290486
0.308614 0.00784314 0.26363
0.422263 0.00190738 0.244633
0.556023 0.00364691 0.250431
0.667811 0.00387579 0.249836
0.779355 0.0034638 0.245075
0.0212253 0.0973526 0.295079
0.0805219 0.108827 0.307851
0.153338 0.114092 0.313512
0.240574 0.111208 0.310262
0.330526 0.0913405 0.28806
0.442084 0.0711833 0.267018
0.581003 0.0724193 0.274342
0.701534 0.0851148 0.294118
0.818418 0.085771 0.295552
0.0277714 0.18558 0.305791
0.0869001 0.198245 0.3196
0.165042 0.208103 0.330037
0.261662 0.21265 0.334371
0.360113 0.203449 0.319951
0.46537 0.183978 0.29221
0.610025 0.188205 0.298268
0.745708 0.222629 0.340948
0.866392 0.238834 0.358236
0.032929 0.295064 0.314549
0.0952926 0.313634 0.333165
0.179416 0.329976 0.34966
0.283772 0.341344 0.360739
0.397162 0.343908 0.359442
0.500648 0.327886 0.330236
0.635721 0.320989 0.317784
0.787121 0.361013 0.372061
0.911574 0.393469 0.413016
0.0476081 0.432212 0.334051
0.115129 0.456901 0.358068
0.201312 0.477562 0.377722
0.308476 0.491691 0.390402
0.432135 0.500603 0.397467
0.540658 0.491707 0.373816
0.664561 0.479408 0.347616
0.82063 0.506767 0.384924
0.953414 0.557671 0.457252
0.0673533 0.585809 0.362524
0.145129 0.614801 0.393378
0.231983 0.637537 0.414237
0.338903 0.652903 0.425696
0.467552 0.665354 0.436439
0.589441 0.667765 0.427375
0.702327 0.655863 0.391577
0.851362 0.665385 0.400275
0.993957 0.717006 0.485054
0.0858778 0.744884 0.397009
0.187976 0.779293 0.443473
0.276158 0.803616 0.465278
0.374258 0.817441 0.467552
0.496529 0.827298 0.469429
0.633722 0.836225 0.475044
0.750134 0.835187 0.451377
0.881575 0.831693 0.427619
1 0.866453 0.500572
0.0933852 0.904875 0.430457
0.239292 0.940902 0.505165
0.330556 0.963439 0.526513
0.420005 0.975357 0.519112
0.520165 0.98056 0.496345
0.663905 0.988235 0.505043
0.798032 0.995956 0.509453
0.917815 0.99588 0.474937
1 1 0.51046
0.108873 1 0.466407
0.274525 1 0.555718
0.379278 1 0.580102
0.47071 1 0.572946
0.549004 1 0.527535
0.67863 1 0.516884
0.836988 1 0.553124
0.965881 1 0.556771
1 1 0.545922
0.0180972 0.0251774 0.40032
0.0760357 0.0359808 0.409644
0.143206 0.0365911 0.410101
0.22858 0.0318914 0.40589
0.32398 0.0159457 0.390799
0.431556 0.00469978 0.372473
0.555306 0.00340276 0.367391
0.667369 0.00363165 0.365759
0.781643 0.00262455 0.357961
0.0202945 0.0952316 0.407004
0.0749523 0.105547 0.417517
0.152285 0.112902 0.424491
0.243763 0.112856 0.424552
0.345769 0.101915 0.415137
0.45156 0.0793469 0.396689
0.580621 0.0690013 0.39234
0.703944 0.0751202 0.406241
0.823346 0.0789349 0.4094
0.0266117 0.184604 0.418051
0.0815747 0.196979 0.4309
0.165087 0.208774 0.442832
0.264317 0.214908 0.449042
0.377127 0.214481 0.448402
0.483604 0.198993 0.431891
0.612253 0.190311 0.423072
0.749874 0.216739 0.450263
0.872541 0.239628 0.472221
0.0323491 0.296132 0.42858
0.0906233 0.314946 0.44683
0.18146 0.333303 0.465202
0.289067 0.346349 0.478294
0.411917 0.354299 0.486046
0.521859 0.345037 0.472984
0.641215 0.32781 0.45127
0.790127 0.349004 0.475273
0.919234 0.392721 0.523186
0.0442206 0.434287 0.447959
0.111437 0.460472 0.473625
0.206638 0.483192 0.496193
0.318029 0.499138 0.512001
0.444709 0.510018 0.522728
0.564935 0.510246 0.518715
0.673365 0.48986 0.487037
0.821729 0.493538 0.489235
0.962921 0.551186 0.559365
0.0518654 0.585824 0.471214
0.145769 0.620142 0.51075
0.238285 0.644068 0.533745
0.351553 0.661738 0.550591
0.479103 0.674266 0.561913
0.61033 0.682597 0.567361
0.714153 0.668208 0.534768
0.84979 0.653178 0.50634
1 0.693721 0.56257
0.049012 0.742077 0.494133
0.188296 0.785443 0.560845
0.284855 0.810742 0.585779
0.396048 0.827726 0.600259
0.516182 0.837568 0.604501
0.651698 0.846891 0.612222
0.761334 0.844709 0.591028
0.878492 0.824353 0.536797
1 0.842878 0.56846
0.03093 0.899016 0.504479
0.21677 0.945281 0.614191
0.338903 0.969451 0.645487
0.446799 0.983413 0.655619
0.551736 0.989578 0.645655
0.680613 0.995178 0.644129
0.80647 1 0.642954
0.915801 0.995865 0.590265
1 0.99263 0.568246
0.0459907 1 0.54403
0.223941 1 0.65388
0.38439 1 0.696361
0.493309 1 0.704997
0.589441 1 0.686793
0.699367 1 0.665049
0.841932 1 0.681193
0.9664 1 0.674113
1 1 0.614054
0.0184024 0.0249638 0.505547
0.0719615 0.0319982 0.510719
0.141573 0.0346532 0.512596
0.228824 0.0314488 0.509606
0.333196 0.0218967 0.50132
0.442374 0.00961318 0.489067
0.558526 0.0053254 0.481239
0.667765 0.0053254 0.478889
0.781857 0.00355535 0.471244
0.0198978 0.0936904 0.512139
0.0726482 0.103899 0.521614
0.15169 0.112322 0.528161
0.244724 0.113298 0.529076
0.354955 0.108751 0.525628
0.466423 0.0937362 0.517647
0.586374 0.0787366 0.512352
0.706462 0.0798505 0.518929
0.826673 0.0819715 0.522042
0.0268711 0.184955 0.52369
0.081178 0.197772 0.53666
0.16611 0.210422 0.548257
0.26688 0.217563 0.555154
0.385122 0.220661 0.558587
0.502541 0.215106 0.556558
0.62295 0.205554 0.552087
0.754253 0.222431 0.565942
0.878355 0.243137 0.582666
0.0330053 0.298466 0.535744
0.0913558 0.318318 0.554742
0.184771 0.337789 0.573022
0.294133 0.351812 0.586572
0.419547 0.361349 0.596246
0.543816 0.363119 0.599603
0.65687 0.348058 0.58909
0.795178 0.357748 0.59881
0.925872 0.396689 0.633021
0.0429999 0.437797 0.556344
0.11548 0.46627 0.583383
0.211612 0.489342 0.605402
0.325078 0.506065 0.621775
0.452964 0.517815 0.633677
0.584283 0.525856 0.641978
0.69192 0.511574 0.628107
0.827787 0.504082 0.62089
0.970855 0.551232 0.667124
0.0509957 0.590524 0.582834
0.148882 0.626657 0.62034
0.24419 0.651209 0.643809
0.361624 0.670298 0.662669
0.490562 0.68368 0.675853
0.625925 0.694926 0.687007
0.735454 0.689647 0.67686
0.856107 0.663218 0.64239
1 0.695735 0.679515
0.0460517 0.747112 0.610086
0.187274 0.792111 0.669657
0.290761 0.818021 0.695476
0.407492 0.836011 0.713146
0.532738 0.847333 0.723018
0.665675 0.856367 0.731167
0.780285 0.859464 0.726986
0.884581 0.83241 0.672831
1 0.845426 0.690898
0.0273136 0.903746 0.627131
0.209064 0.951049 0.721813
0.344747 0.975799 0.753933
0.458366 0.990005 0.767773
0.57583 0.997803 0.770916
0.697902 1 0.768994
0.82295 1 0.773999
0.922011 1 0.722988
1 0.994339 0.691493
0.0419776 1 0.667857
0.218433 1 0.763424
0.388861 1 0.803265
0.50251 1 0.814817
0.617685 1 0.81532
0.726253 1 0.802121
0.856199 1 0.81001
0.975509 1 0.803967
1 1 0.735256
0.0213169 0.0276341 0.601648
0.0712902 0.0307622 0.60499
0.140581 0.0335699 0.606897
0.228855 0.0308843 0.60444
0.336141 0.023621 0.597879
0.448203 0.0129397 0.589624
0.562234 0.00801099 0.58349
0.669154 0.00860609 0.582086
0.781353 0.00642405 0.577935
0.0228733 0.0960098 0.609033
0.0741283 0.104356 0.617746
0.1523 0.11284 0.623377
0.246174 0.114336 0.624689
0.358816 0.111818 0.622751
0.477226 0.105074 0.620386
0.59379 0.0921492 0.619776
0.709636 0.0963455 0.624537
0.828779 0.0954604 0.628794
0.0295109 0.18732 0.620783
0.082887 0.199954 0.633844
0.168475 0.213306 0.644831
0.270375 0.22121 0.652094
0.390433 0.225711 0.656825
0.516167 0.227481 0.661128
0.635279 0.223255 0.665507
0.759533 0.234531 0.675242
0.883238 0.251865 0.687755
0.0370031 0.303151 0.634562
0.0936141 0.322957 0.653605
0.18909 0.343404 0.671214
0.299535 0.358007 0.684672
0.425574 0.368032 0.694926
0.55726 0.375418 0.703777
0.668482 0.362692 0.705226
0.801938 0.37464 0.716472
0.931502 0.406622 0.738613
0.0481422 0.444511 0.65771
0.119463 0.472908 0.68275
0.216968 0.496315 0.704021
0.331548 0.513375 0.720104
0.460365 0.525765 0.732784
0.595819 0.536767 0.744488
0.712825 0.536065 0.750362
0.836957 0.525383 0.749126
0.976272 0.563577 0.777966
0.0580911 0.598581 0.687572
0.151934 0.634089 0.719158
0.249973 0.659113 0.742535
0.369451 0.678767 0.761395
0.50013 0.692882 0.775784
0.636759 0.705104 0.788556
0.75642 0.710918 0.796368
0.867002 0.684474 0.7776
1 0.707439 0.798306
0.057847 0.757107 0.723247
0.193988 0.800488 0.768887
0.297154 0.826123 0.793408
0.416007 0.844236 0.811307
0.544762 0.856352 0.823667
0.677058 0.865354 0.833036
0.798917 0.874311 0.841627
0.886152 0.833021 0.789624
1 0.855863 0.815946
0.0359045 0.912642 0.750408
0.213642 0.95845 0.821347
0.351278 0.982956 0.849912
0.465736 0.996811 0.863905
0.589731 1 0.872007
0.713893 1 0.875303
0.837232 1 0.883406
0.936828 1 0.85919
1 1 0.821668
0.0502632 1 0.790402
0.22678 1 0.864591
0.394171 1 0.897261
0.508339 1 0.908843
0.632105 1 0.915679
0.749615 1 0.914839
0.87071 1 0.920714
0.989166 1 0.925109
1 1 0.864408
0.0229343 0.0290684 0.681147
0.0728618 0.0314336 0.685206
0.140993 0.0338445 0.687266
0.229969 0.0314641 0.685222
0.33817 0.0249485 0.679423
0.454154 0.0171054 0.672892
0.566445 0.0116732 0.668818
0.671855 0.0125734 0.668238
0.782086 0.0115511 0.668528
0.0273442 0.100908 0.689586
0.0788434 0.10724 0.69897
0.154314 0.114839 0.70428
0.248875 0.116701 0.706035
0.362493 0.115068 0.705013
0.484184 0.112322 0.704265
0.601389 0.10425 0.707286
0.714427 0.112093 0.71284
0.831632 0.115587 0.719814
0.0327764 0.19086 0.702754
0.0876783 0.204181 0.716396
0.172412 0.217823 0.726864
0.275135 0.226291 0.734508
0.396048 0.231556 0.740169
0.524971 0.236194 0.746105
0.646799 0.23917 0.755657
0.766232 0.248875 0.766781
0.888304 0.265141 0.778241
0.0438544 0.310124 0.717891
0.100221 0.32987 0.737926
0.194751 0.35053 0.754635
0.30602 0.365545 0.767849
0.432532 0.375875 0.778607
0.566293 0.384924 0.788479
0.68893 0.389822 0.800671
0.810422 0.395102 0.81387
0.937377 0.421347 0.829511
0.0586862 0.454185 0.743664
0.126268 0.481254 0.767285
0.223148 0.504509 0.787594
0.338918 0.52195 0.80325
0.468284 0.534707 0.816434
0.604776 0.546548 0.828946
0.729625 0.555947 0.843305
0.848844 0.553368 0.855634
0.98204 0.58056 0.87306
0.0749676 0.610544 0.776913
0.161685 0.643763 0.803449
0.257633 0.668559 0.826352
0.377707 0.688258 0.844526
0.508949 0.702525 0.85922
0.645777 0.71487 0.872404
0.77084 0.726299 0.886336
0.882429 0.71577 0.892546
1 0.728313 0.904265
0.0809796 0.770626 0.820203
0.204105 0.810361 0.852934
0.303929 0.835264 0.876066
0.424247 0.853223 0.893385
0.553994 0.865309 0.906111
0.687282 0.874617 0.916533
0.810987 0.885451 0.9281
0.916579 0.879774 0.929717
1 0.874876 0.929854
0.0699626 0.927657 0.864027
0.233448 0.967956 0.907408
0.358618 0.991165 0.930495
0.473121 1 0.944137
0.599908 1 0.953567
0.727871 1 0.960433
0.848692 1 0.969467
0.957824 1 0.973495
1 1 0.956252
0.08542 1 0.905501
0.251392 1 0.952193
0.401511 1 0.976257
0.515099 1 0.987594
0.641154 1 0.995743
0.765652 1 1
0.884321 1 1
1 1 1
1 1 0.995026
0.0225834 0.0285496 0.747539
0.0750591 0.0331273 0.752499
0.142657 0.0353552 0.755093
0.232166 0.0331731 0.75346
0.340917 0.0270695 0.748257
0.458 0.0202182 0.742351
0.570962 0.0160525 0.739284
0.675792 0.0172427 0.739879
0.784909 0.0184024 0.742382
0.0290837 0.103029 0.757671
0.0837568 0.111101 0.76704
0.157443 0.118074 0.772885
0.252674 0.120256 0.775219
0.367086 0.11931 0.775006
0.490227 0.118303 0.774945
0.608804 0.117937 0.778912
0.720653 0.125261 0.78616
0.836835 0.1337 0.794553
0.0381323 0.196384 0.771389
0.0955825 0.2103 0.785885
0.17763 0.223682 0.796872
0.28098 0.232609 0.805127
0.402731 0.238575 0.811582
0.532967 0.244495 0.818097
0.656855 0.251972 0.82858
0.774182 0.263188 0.841505
0.895003 0.27837 0.853132
0.0508278 0.318013 0.788434
0.111711 0.338979 0.809262
0.201892 0.359014 0.826291
0.313405 0.374136 0.83949
0.440375 0.384741 0.850568
0.574441 0.394064 0.860716
0.700328 0.40412 0.874083
0.82005 0.415381 0.890471
0.944976 0.435142 0.904631
0.0704204 0.464973 0.816007
0.140032 0.49189 0.839445
0.231632 0.514168 0.859739
0.347127 0.531548 0.875242
0.476967 0.54461 0.888777
0.613642 0.55668 0.90164
0.741756 0.570367 0.91722
0.86128 0.579614 0.935744
0.989029 0.598215 0.950744
0.0941939 0.623652 0.851194
0.175662 0.655024 0.876158
0.267781 0.679408 0.899184
0.386648 0.698619 0.916838
0.518059 0.71281 0.931548
0.654826 0.725078 0.944732
0.78204 0.738903 0.959426
0.897856 0.745357 0.975799
1 0.753719 0.988617
0.118837 0.787167 0.89984
0.219745 0.821591 0.926085
0.315908 0.845975 0.948547
0.43299 0.862852 0.965072
0.562676 0.874571 0.977539
0.696239 0.883818 0.988006
0.81944 0.894606 0.999664
0.932036 0.901518 1
1 0.903304 1
0.130556 0.945235 0.954452
0.258289 0.978424 0.981506
0.366461 1 1
0.481025 1 1
0.608087 1 1
0.738201 1 1
0.858137 1 1
0.971283 1 1
1 1 1
0.180758 1 1
0.284611 1 1
0.40853 1 1
0.522454 1 1
0.648875 1 1
0.777722 1 1
0.896849 1 1
1 1 1
1 1 1
0.0233768 0.0294957 0.80911
0.0763561 0.0347448 0.814679
0.144762 0.0373846 0.817609
0.234943 0.0354467 0.816342
0.344259 0.0297551 0.811627
0.461921 0.0234989 0.806241
0.575402 0.0203861 0.803662
0.680446 0.0221408 0.805173
0.789685 0.0249485 0.80827
0.0311742 0.105577 0.820768
0.0875257 0.11487 0.830152
0.160983 0.121843 0.836698
0.257084 0.124453 0.839658
0.37232 0.124193 0.840146
0.496315 0.124132 0.840711
0.615824 0.127535 0.844862
0.727672 0.136049 0.853071
0.843976 0.145724 0.862226
0.0422217 0.201495 0.835889
0.102876 0.216754 0.850538
0.183383 0.230182 0.862669
0.287388 0.239536 0.871717
0.409979 0.246174 0.878828
0.540825 0.252735 0.885893
0.665705 0.262287 0.895888
0.78262 0.275456 0.908949
0.903059 0.289311 0.921248
0.0569619 0.325948 0.854978
0.122301 0.348348 0.875837
0.21004 0.368261 0.893629
0.321157 0.383169 0.907347
0.448554 0.393988 0.918654
0.582742 0.403433 0.928923
0.709911 0.415732 0.942
0.829526 0.430762 0.958328
0.953628 0.447166 0.973342
0.0805524 0.475502 0.883665
0.151583 0.502403 0.907271
0.24126 0.524559 0.927794
0.355688 0.541573 0.943908
0.485969 0.554879 0.957671
0.622797 0.567163 0.970718
0.751369 0.581827 0.986221
0.871839 0.596841 1
0.996979 0.613642 1
0.109789 0.635996 0.919799
0.185229 0.665888 0.94548
0.277852 0.690471 0.96849
0.395804 0.709194 0.986084
0.527306 0.723278 1
0.663844 0.735363 1
0.7906 0.749081 1
0.908568 0.762005 1
1 0.773358 1
0.151171 0.80206 0.969573
0.230961 0.832471 0.995743
0.325444 0.856321 1
0.441855 0.872557 1
0.571359 0.883864 1
0.704631 0.892836 1
0.827283 0.903426 1
0.942199 0.914504 1
1 0.922835 1
0.182834 0.960021 1
0.27779 0.988571 1
0.37435 1 1
0.489006 1 1
0.615961 1 1
0.746349 1 1
0.866209 1 1
0.979873 1 1
1 1 1
0.238895 1 1
0.316228 1 1
0.415763 1 1
0.529992 1 1
0.656596 1 1
0.786801 1 1
0.907469 1 1
1 1 1
1 1 1
