public/filters/konnect/Presets C Medium Skin Tone/Cool v3_38.Med Skin 1.cube
TITLE "Generated by Resolve"
LUT_3D_SIZE 33
0.0349126 0.0431373 0.0784619
0.0478676 0.0440528 0.0796063
0.0609293 0.044892 0.0806287
0.0726635 0.0458686 0.0817121
0.0859236 0.046067 0.0817121
0.100298 0.0456092 0.0806744
0.114687 0.0443427 0.0783703
0.12929 0.0421302 0.0745708
0.144244 0.03888 0.0692149
0.159335 0.0341192 0.0618296
0.176028 0.0293889 0.0542763
0.194446 0.0247501 0.0468605
0.214786 0.0204318 0.0399786
0.237034 0.0166629 0.0339818
0.261616 0.0138552 0.0296178
0.289006 0.012314 0.0275578
0.318975 0.0119783 0.0278019
0.351354 0.012604 0.0300755
0.385595 0.0140383 0.0342412
0.420081 0.0156252 0.0390478
0.453285 0.0165408 0.04271
0.484749 0.0165713 0.0446784
0.514397 0.0159304 0.0451362
0.542367 0.0148013 0.0442969
0.56907 0.0135348 0.0427863
0.594888 0.0124514 0.0413825
0.620157 0.0116121 0.0402686
0.645136 0.010956 0.0393683
0.670146 0.0103914 0.0385748
0.695476 0.00985733 0.0378119
0.721553 0.00923171 0.0369116
0.747646 0.0087129 0.0361486
0.774029 0.00823987 0.0354314
0.0342107 0.0598611 0.0790265
0.0472267 0.0607614 0.0801862
0.0602884 0.0615854 0.0811933
0.0720073 0.062501 0.0821851
0.0852064 0.0625467 0.0819257
0.0992294 0.0619211 0.0803998
0.11284 0.0593271 0.0769513
0.127428 0.056611 0.0729992
0.142794 0.0531624 0.0680858
0.159258 0.0489662 0.0623331
0.177111 0.0442359 0.0560311
0.196612 0.0393378 0.0496834
0.217945 0.0345464 0.0436255
0.240879 0.0299535 0.0379187
0.265461 0.0260014 0.0330816
0.291798 0.0229953 0.0295109
0.320516 0.0216678 0.0281834
0.351766 0.0218967 0.0289158
0.385306 0.0237736 0.0318761
0.419883 0.0268406 0.0364538
0.454215 0.0304265 0.0417334
0.486656 0.0329137 0.0454108
0.517113 0.0343328 0.0475624
0.545724 0.034699 0.048188
0.572854 0.0343175 0.047715
0.598871 0.0335241 0.0466163
0.624353 0.03299 0.0458076
0.649592 0.0326238 0.0452277
0.674876 0.0323644 0.0447547
0.700511 0.0321508 0.0443275
0.726894 0.0318456 0.0437781
0.753307 0.0316777 0.0433967
0.780026 0.0315557 0.043061
0.0350042 0.0757458 0.0814527
0.0478828 0.0764172 0.0823682
0.0605936 0.0767834 0.0828717
0.0719768 0.0770275 0.0831922
0.0856947 0.0773938 0.0834363
0.100389 0.0774853 0.0831006
0.11574 0.0772564 0.0819562
0.131548 0.0765087 0.0797284
0.148028 0.0751507 0.0762798
0.165484 0.0730907 0.0716716
0.184146 0.0702678 0.0660563
0.20412 0.0665751 0.0596475
0.225406 0.0618296 0.0526284
0.247654 0.0549172 0.0451057
0.270878 0.042359 0.037705
0.294987 0.0349737 0.0308843
0.321736 0.0304112 0.0269017
0.351797 0.0286717 0.0258183
0.385183 0.0301213 0.0280003
0.420645 0.0344396 0.0331426
0.45687 0.041474 0.0411231
0.490791 0.0473945 0.0476844
0.522286 0.0517891 0.0523842
0.551583 0.0543679 0.054963
0.579126 0.055375 0.0557412
0.605341 0.0549325 0.0549477
0.631006 0.0547646 0.0543832
0.656245 0.0548562 0.0538033
0.681758 0.0549935 0.0536049
0.707698 0.0551614 0.0534676
0.734386 0.0552682 0.0532692
0.76112 0.0555276 0.053254
0.78819 0.0558328 0.053315
0.0335241 0.0906539 0.0803693
0.0465095 0.0915541 0.0814374
0.0596475 0.092607 0.0826581
0.0719921 0.0940108 0.0842756
0.0863661 0.0949111 0.0852369
0.101534 0.095552 0.0857252
0.117647 0.0958877 0.0855726
0.13431 0.0958267 0.0845502
0.151659 0.0952316 0.0823529
0.169879 0.0939345 0.0787518
0.189014 0.0917983 0.0735027
0.208957 0.0886854 0.0664836
0.229541 0.0844282 0.0576791
0.250401 0.0790112 0.047425
0.271611 0.0726635 0.0368811
0.293416 0.0656748 0.0271305
0.318257 0.0598611 0.0210117
0.347631 0.0559854 0.0188144
0.381582 0.0545052 0.0205844
0.418738 0.0547036 0.0262913
0.457435 0.0529793 0.0365911
0.493706 0.0613413 0.0468605
0.526802 0.0688792 0.0549935
0.557153 0.0742657 0.0603799
0.585382 0.0773175 0.0632181
0.612085 0.0778058 0.063508
0.638193 0.0779583 0.0635233
0.664118 0.0783246 0.0637827
0.69015 0.0788128 0.0641947
0.716579 0.0793469 0.064622
0.74377 0.0798199 0.0650034
0.770993 0.0804608 0.0655375
0.798535 0.0811627 0.0661631
0.0330053 0.108034 0.0806287
0.0462654 0.109361 0.0821088
0.059617 0.11078 0.0836957
0.0722362 0.112474 0.0856336
0.0870069 0.11368 0.0869612
0.102663 0.114656 0.0879377
0.119173 0.115389 0.0884413
0.136324 0.11574 0.0881208
0.154101 0.115511 0.0864271
0.172488 0.114443 0.0827802
0.191363 0.112322 0.0766613
0.210483 0.108919 0.0677806
0.229709 0.104097 0.0564126
0.24889 0.0979934 0.0436561
0.268482 0.0911116 0.031342
0.289052 0.0839399 0.0209354
0.312978 0.0780957 0.0145113
0.342641 0.0749981 0.0124666
0.377737 0.0749371 0.0142367
0.416709 0.0778363 0.0201114
0.457588 0.0835737 0.031342
0.496391 0.0898756 0.0450141
0.531197 0.0948501 0.0565652
0.562692 0.098558 0.0649729
0.591714 0.101183 0.0701762
0.618952 0.10248 0.0721141
0.645457 0.103044 0.0726329
0.671794 0.103807 0.0733806
0.698253 0.104707 0.0742809
0.725139 0.105638 0.075227
0.752773 0.106538 0.076112
0.780453 0.107591 0.0771649
0.808469 0.108721 0.078294
0.032929 0.126787 0.0814221
0.0463722 0.128405 0.0831617
0.0598459 0.130098 0.0850233
0.0727245 0.132036 0.0871748
0.0877394 0.133471 0.0887312
0.103563 0.134661 0.0898756
0.120119 0.135531 0.0902876
0.137148 0.135927 0.0894484
0.154543 0.135592 0.0867323
0.172244 0.134264 0.0814527
0.190112 0.131701 0.0732128
0.208087 0.127779 0.0622416
0.226154 0.122515 0.0493782
0.244541 0.116243 0.0362554
0.263981 0.10959 0.0248264
0.285267 0.103182 0.016144
0.310292 0.0982376 0.0111086
0.341344 0.0961471 0.00994888
0.377722 0.0969711 0.0120699
0.418021 0.100649 0.0182498
0.460136 0.106874 0.0299382
0.500679 0.114092 0.0459297
0.53669 0.119692 0.059968
0.56907 0.123873 0.0706645
0.598749 0.126909 0.0778515
0.626535 0.128801 0.0814374
0.653437 0.129809 0.0825055
0.680186 0.130999 0.0837568
0.707088 0.132326 0.0851606
0.734447 0.133684 0.0865949
0.762539 0.135012 0.0879988
0.790692 0.136507 0.0895705
0.819165 0.138079 0.0912337
0.0330205 0.146639 0.0823529
0.0466316 0.148501 0.0843366
0.0602274 0.150469 0.0864424
0.0733654 0.152651 0.0888075
0.0885481 0.154299 0.0905165
0.104402 0.155688 0.0917067
0.121187 0.156786 0.092195
0.138567 0.157473 0.0916609
0.156603 0.157626 0.0897383
0.175479 0.157092 0.0861677
0.195361 0.155871 0.0810559
0.216327 0.153918 0.0745403
0.238483 0.151354 0.0670481
0.261891 0.148409 0.0593881
0.28661 0.145388 0.0522469
0.312642 0.142504 0.0460822
0.340658 0.140291 0.0419623
0.371679 0.139239 0.0408942
0.405371 0.139483 0.0429694
0.440879 0.140978 0.0481422
0.477241 0.143725 0.0565805
0.512764 0.147021 0.0665904
0.54612 0.150057 0.0756085
0.57734 0.152667 0.0827497
0.60676 0.15491 0.088014
0.634806 0.156741 0.091249
0.662181 0.158312 0.0931868
0.689372 0.159945 0.0949721
0.716731 0.161715 0.0968795
0.744579 0.163516 0.0988327
0.773129 0.165301 0.100755
0.80174 0.167224 0.102831
0.830686 0.169223 0.104982
0.0331731 0.16759 0.0832227
0.0469368 0.169726 0.0854353
0.0606241 0.171984 0.0878157
0.074052 0.174411 0.0904097
0.0895399 0.176333 0.0923934
0.105638 0.178012 0.093843
0.122591 0.179385 0.0945449
0.140276 0.180362 0.0941939
0.158602 0.180835 0.0924392
0.177829 0.180667 0.0890822
0.198184 0.179889 0.0843671
0.219821 0.178515 0.0785534
0.242817 0.176638 0.0720531
0.26717 0.174487 0.0654765
0.292805 0.172259 0.0592508
0.319478 0.170047 0.0535286
0.347585 0.16817 0.0490883
0.377935 0.166873 0.0465705
0.410849 0.16669 0.0470436
0.445777 0.167727 0.0506447
0.481987 0.170123 0.0578927
0.517968 0.173449 0.0677653
0.552483 0.177218 0.0788434
0.584695 0.180606 0.0882582
0.614969 0.183673 0.0957656
0.643687 0.186328 0.101061
0.671595 0.188678 0.104585
0.699245 0.190753 0.106889
0.727077 0.19295 0.1093
0.755383 0.195178 0.111742
0.784375 0.19736 0.114137
0.813413 0.199664 0.11667
0.842771 0.202029 0.119249
0.0332189 0.189776 0.0838331
0.0471504 0.192218 0.0862898
0.0609445 0.194797 0.0889601
0.0747082 0.197498 0.0917983
0.0905318 0.199741 0.0941482
0.107225 0.201801 0.0961929
0.12462 0.203632 0.0977646
0.14313 0.205173 0.0985733
0.162387 0.206302 0.0982986
0.182681 0.206897 0.0965896
0.204089 0.206897 0.0934005
0.226703 0.206302 0.088838
0.250538 0.205142 0.0831769
0.275395 0.203555 0.0767529
0.301045 0.201648 0.0698558
0.327214 0.199496 0.0626535
0.354299 0.197314 0.0559243
0.382986 0.195224 0.0501259
0.414557 0.194217 0.047715
0.448814 0.194675 0.0491646
0.485237 0.196918 0.0552377
0.522271 0.200641 0.0655222
0.558556 0.2056 0.0797131
0.592203 0.210147 0.0925002
0.623545 0.214252 0.103151
0.65304 0.217838 0.11107
0.681483 0.22092 0.116411
0.70956 0.223407 0.119188
0.737804 0.225971 0.122057
0.766537 0.22855 0.124926
0.795911 0.231067 0.127718
0.82533 0.233707 0.130648
0.855039 0.236378 0.133608
0.0331121 0.213352 0.0840772
0.0472114 0.216129 0.0868238
0.0611124 0.219074 0.0898299
0.0752575 0.22208 0.092958
0.0914015 0.224674 0.0956436
0.108553 0.227131 0.0981765
0.126558 0.229419 0.10045
0.145617 0.231479 0.102174
0.165682 0.233204 0.10312
0.186938 0.234485 0.102907
0.209339 0.235203 0.101228
0.232883 0.235309 0.0979477
0.257435 0.234791 0.093019
0.282521 0.233631 0.0863661
0.30782 0.231861 0.0780804
0.333028 0.229511 0.0684977
0.358709 0.226795 0.0586709
0.385641 0.223819 0.0493935
0.415763 0.221912 0.0439765
0.449561 0.221881 0.0434882
0.48658 0.22414 0.0486305
0.525139 0.228489 0.0594034
0.563607 0.23476 0.0764324
0.599252 0.240818 0.0935988
0.631952 0.246204 0.108324
0.662379 0.250843 0.119646
0.691447 0.254749 0.127474
0.719921 0.257786 0.131441
0.748531 0.26067 0.134691
0.777646 0.263539 0.137911
0.80734 0.266346 0.14107
0.837079 0.26923 0.14432
0.867094 0.272129 0.14757
0.0328985 0.238453 0.084062
0.0472114 0.241627 0.087129
0.0611124 0.245029 0.0905928
0.0758373 0.248371 0.0940108
0.0923323 0.251362 0.0970932
0.109834 0.254231 0.100023
0.128252 0.256947 0.102754
0.147799 0.259464 0.105074
0.16846 0.261692 0.106752
0.190356 0.263493 0.107408
0.213428 0.264744 0.106554
0.237476 0.265339 0.103685
0.262196 0.265156 0.098497
0.287068 0.264164 0.0907149
0.31162 0.262318 0.0804456
0.335805 0.259693 0.0684825
0.360357 0.25655 0.0563973
0.386297 0.253086 0.0453651
0.415579 0.250614 0.0383459
0.449516 0.250446 0.0371252
0.48748 0.252979 0.0419776
0.527626 0.258 0.0531319
0.568124 0.265339 0.071809
0.605951 0.272999 0.0932784
0.640131 0.279652 0.112093
0.671534 0.285313 0.12694
0.701228 0.290043 0.13756
0.730114 0.293706 0.143343
0.75903 0.296849 0.146914
0.788449 0.299947 0.150423
0.818418 0.302953 0.153857
0.848402 0.306035 0.157351
0.87866 0.309102 0.16083
0.0327306 0.265278 0.0839399
0.0472877 0.268894 0.0874189
0.0612192 0.272816 0.0913558
0.076524 0.276493 0.0950637
0.0932937 0.279911 0.0984817
0.110994 0.283177 0.101686
0.129549 0.28629 0.104616
0.149538 0.289174 0.107042
0.170367 0.291707 0.108522
0.192355 0.293782 0.108736
0.215366 0.295262 0.107118
0.23917 0.295964 0.103059
0.263432 0.295811 0.0963149
0.287785 0.294804 0.0870985
0.311803 0.292882 0.0755932
0.335637 0.290227 0.0630808
0.360296 0.28719 0.0513008
0.386816 0.284077 0.0413062
0.416617 0.281865 0.0349126
0.451545 0.282216 0.0345006
0.490669 0.285328 0.0400244
0.532036 0.290974 0.0518654
0.573709 0.298894 0.0712749
0.613062 0.307622 0.0955978
0.648295 0.315114 0.117128
0.680446 0.321462 0.134432
0.710658 0.326772 0.147097
0.739895 0.330953 0.154604
0.76907 0.334279 0.158465
0.798718 0.33753 0.162188
0.828885 0.340688 0.16582
0.859052 0.343877 0.169482
0.889464 0.347036 0.173129
0.0328374 0.293919 0.0840772
0.0476844 0.297978 0.0879835
0.0618601 0.302388 0.0923934
0.0776532 0.306508 0.0965591
0.0940414 0.310201 0.0995956
0.111833 0.313878 0.103044
0.130373 0.317372 0.106081
0.151034 0.320623 0.108431
0.172244 0.323522 0.109865
0.194705 0.326024 0.110353
0.218448 0.328038 0.10956
0.243442 0.329488 0.107317
0.269551 0.330388 0.103731
0.296483 0.330816 0.0989853
0.323796 0.330785 0.0929427
0.351461 0.330449 0.0863355
0.379965 0.329976 0.0798962
0.409888 0.329427 0.0740826
0.441886 0.329412 0.070634
0.47657 0.330663 0.0714885
0.513329 0.333379 0.076936
0.551064 0.337545 0.0869917
0.588724 0.343114 0.102022
0.624735 0.349248 0.119219
0.658274 0.355047 0.134951
0.689708 0.360357 0.148013
0.719768 0.365103 0.158083
0.749126 0.369146 0.164752
0.778485 0.372702 0.169207
0.80853 0.375967 0.172992
0.83856 0.379248 0.176791
0.868833 0.382467 0.180529
0.899397 0.385687 0.184207
0.0334783 0.324269 0.0847334
0.0484779 0.328771 0.0888991
0.0626383 0.333593 0.0934462
0.0783856 0.338033 0.0975204
0.0952316 0.342245 0.101213
0.11284 0.346319 0.104662
0.13135 0.350225 0.107836
0.153048 0.353902 0.11043
0.174914 0.357244 0.1122
0.197879 0.360143 0.112978
0.222156 0.362585 0.112596
0.247715 0.364446 0.110887
0.274495 0.365835 0.108095
0.30222 0.366827 0.104463
0.330571 0.367468 0.100038
0.359304 0.36788 0.0951095
0.388754 0.368093 0.0900435
0.419272 0.368093 0.0849622
0.451331 0.368338 0.0813611
0.485237 0.369299 0.0805676
0.52108 0.371527 0.0839399
0.558083 0.375158 0.0918593
0.595392 0.380316 0.104982
0.631571 0.386282 0.121233
0.665766 0.392508 0.138415
0.697749 0.39826 0.153216
0.728222 0.403418 0.165118
0.757839 0.407858 0.173495
0.787335 0.411719 0.179217
0.817533 0.415091 0.183124
0.847761 0.41854 0.187121
0.878294 0.421973 0.191028
0.909148 0.425361 0.194751
0.0348821 0.356283 0.0862593
0.0499733 0.361212 0.0906081
0.0640879 0.36643 0.0952316
0.0798505 0.371283 0.0993515
0.0966201 0.375891 0.103166
0.114214 0.380377 0.106828
0.132998 0.384726 0.110414
0.156024 0.388891 0.113817
0.179095 0.392767 0.116762
0.203098 0.396246 0.118975
0.228489 0.399298 0.120409
0.255192 0.401831 0.120638
0.283024 0.403876 0.119585
0.311666 0.405463 0.117403
0.340825 0.406714 0.114244
0.370016 0.407599 0.109834
0.399527 0.408087 0.104387
0.429679 0.408133 0.098085
0.460822 0.408072 0.0922408
0.493141 0.40824 0.0877394
0.527596 0.409598 0.0876631
0.563729 0.412497 0.0926986
0.600824 0.417182 0.103761
0.637446 0.423133 0.119554
0.672618 0.429999 0.139178
0.705348 0.436362 0.156664
0.73637 0.442161 0.171145
0.766415 0.447211 0.181842
0.796246 0.451591 0.189212
0.826688 0.455192 0.193378
0.85716 0.458854 0.19762
0.887907 0.462501 0.201801
0.918975 0.466056 0.205585
0.0375372 0.38996 0.0894331
0.0527657 0.395315 0.0940414
0.0669261 0.400946 0.0987716
0.0826276 0.406119 0.102815
0.099321 0.411093 0.106691
0.116991 0.415961 0.110582
0.136049 0.420691 0.114534
0.159823 0.425254 0.118593
0.184268 0.429557 0.122499
0.209079 0.433478 0.12575
0.235279 0.436988 0.128374
0.262867 0.440009 0.130053
0.291539 0.442542 0.130449
0.320897 0.444617 0.129488
0.350652 0.446296 0.12726
0.380056 0.447486 0.123003
0.409308 0.448035 0.116472
0.438697 0.447868 0.107973
0.46865 0.447303 0.0990311
0.499352 0.446586 0.0906081
0.532372 0.446952 0.0867475
0.567788 0.449104 0.0890364
0.60499 0.453437 0.0984512
0.642435 0.459556 0.114153
0.67895 0.467231 0.136156
0.712947 0.474662 0.157519
0.744839 0.481361 0.175586
0.775448 0.48716 0.189303
0.805615 0.492134 0.198932
0.836286 0.496086 0.204074
0.866926 0.499931 0.208499
0.897841 0.503746 0.212833
0.929061 0.507439 0.216678
0.0414435 0.425147 0.0942245
0.0568246 0.4309 0.0990616
0.0710765 0.436896 0.10396
0.0869001 0.442405 0.10808
0.103685 0.4477 0.112108
0.121538 0.452888 0.116243
0.140856 0.457938 0.120485
0.163088 0.462791 0.124804
0.190143 0.467353 0.128985
0.215351 0.471504 0.132433
0.24184 0.475212 0.135119
0.26978 0.478447 0.137041
0.298817 0.481209 0.137819
0.328481 0.483482 0.137102
0.358328 0.485298 0.134798
0.387717 0.48658 0.130129
0.416556 0.487007 0.122194
0.445258 0.486564 0.111696
0.474342 0.485588 0.100496
0.504189 0.484413 0.0898451
0.536339 0.484199 0.0835431
0.571679 0.486091 0.0844892
0.609369 0.49041 0.0931868
0.647807 0.496803 0.109087
0.685618 0.505089 0.132647
0.721004 0.513558 0.157977
0.753811 0.521096 0.179629
0.785016 0.527611 0.19649
0.815564 0.53315 0.208576
0.846418 0.53753 0.21532
0.877195 0.541497 0.219867
0.908232 0.545419 0.224308
0.939544 0.549233 0.228336
0.0462501 0.46183 0.100175
0.0619516 0.467979 0.105486
0.076585 0.474342 0.110826
0.0928969 0.480171 0.115373
0.110018 0.485756 0.119646
0.127977 0.491173 0.123796
0.147066 0.496376 0.127794
0.168383 0.501335 0.131563
0.19585 0.505943 0.134905
0.220905 0.510079 0.137316
0.246967 0.513664 0.138445
0.27454 0.516777 0.138903
0.303212 0.519387 0.138277
0.332479 0.521492 0.136187
0.361944 0.52314 0.13257
0.391318 0.524407 0.127535
0.420188 0.524865 0.119234
0.449058 0.524575 0.108843
0.478523 0.523888 0.0982071
0.508949 0.52311 0.0885634
0.541375 0.523064 0.0824445
0.577264 0.525246 0.0839551
0.615579 0.529793 0.0931563
0.654688 0.536416 0.109575
0.693217 0.544884 0.1337
0.729564 0.553933 0.161563
0.763043 0.561944 0.185489
0.79472 0.568856 0.204425
0.825574 0.574762 0.218296
0.856596 0.579461 0.226535
0.887465 0.583505 0.231205
0.918578 0.587488 0.235721
0.949935 0.591363 0.239963
0.0518502 0.499687 0.107088
0.0678874 0.506172 0.112871
0.0830091 0.512856 0.118761
0.0999619 0.518975 0.123888
0.117937 0.524865 0.128893
0.13695 0.530571 0.133913
0.150759 0.535164 0.132662
0.171939 0.54023 0.13637
0.200565 0.544839 0.138918
0.225452 0.548852 0.140017
0.25124 0.5523 0.139773
0.278706 0.555322 0.139345
0.307729 0.558068 0.138918
0.337942 0.560586 0.13846
0.369024 0.562997 0.138109
0.400671 0.565393 0.137957
0.432242 0.567269 0.135607
0.464012 0.568658 0.131533
0.496178 0.569787 0.126772
0.528771 0.570825 0.121996
0.562371 0.57229 0.119417
0.597742 0.575113 0.122423
0.63418 0.579355 0.13106
0.670756 0.584909 0.1449
0.706706 0.591684 0.163989
0.741039 0.598856 0.184863
0.773526 0.605585 0.203296
0.804807 0.611673 0.218296
0.835599 0.617075 0.229725
0.866682 0.621622 0.237171
0.897581 0.625772 0.242298
0.92871 0.629755 0.246876
0.960067 0.633646 0.25127
0.0581979 0.53843 0.114855
0.074464 0.545159 0.120989
0.0897688 0.552026 0.127001
0.1066 0.558236 0.131807
0.123568 0.56408 0.135637
0.140444 0.569589 0.138506
0.157519 0.574746 0.140475
0.176089 0.579538 0.141695
0.204913 0.583932 0.142336
0.229892 0.587915 0.142351
0.255909 0.59147 0.141665
0.283635 0.594675 0.140963
0.313085 0.597665 0.14078
0.343877 0.600488 0.141009
0.375738 0.603296 0.141878
0.408286 0.606165 0.14342
0.44126 0.608728 0.143999
0.474327 0.610849 0.142824
0.5075 0.61265 0.140368
0.540688 0.614237 0.137026
0.57435 0.616037 0.134798
0.608911 0.618601 0.136034
0.644404 0.622339 0.142214
0.680217 0.627329 0.153521
0.715755 0.633555 0.170352
0.750057 0.64036 0.189807
0.782895 0.64715 0.209079
0.814481 0.653407 0.225391
0.845487 0.658991 0.238285
0.876661 0.663737 0.247089
0.907576 0.668009 0.253193
0.938659 0.671931 0.25771
0.96994 0.675761 0.262104
0.065095 0.577661 0.123201
0.0813153 0.584512 0.12929
0.0964675 0.591424 0.135012
0.112856 0.59762 0.139208
0.128908 0.603403 0.142031
0.144686 0.608865 0.143816
0.160693 0.614054 0.144823
0.17847 0.618967 0.145357
0.209323 0.62356 0.145785
0.235462 0.627848 0.146334
0.262531 0.631785 0.146853
0.291249 0.635386 0.147509
0.321813 0.638834 0.149233
0.353719 0.642161 0.151568
0.386496 0.645426 0.154345
0.419791 0.648692 0.157534
0.453696 0.651759 0.160357
0.487343 0.654307 0.160601
0.520699 0.656413 0.158648
0.553735 0.658183 0.15494
0.58674 0.659907 0.151064
0.619928 0.661921 0.148501
0.654185 0.664973 0.150958
0.689189 0.669291 0.159106
0.724361 0.674952 0.173526
0.758816 0.681483 0.192096
0.792157 0.688457 0.213245
0.824125 0.694926 0.231617
0.855344 0.700694 0.246387
0.88658 0.705577 0.256764
0.917433 0.709926 0.263905
0.948409 0.713741 0.268284
0.979553 0.717433 0.272541
0.0727398 0.61709 0.132448
0.0888991 0.624018 0.138521
0.10396 0.630991 0.143969
0.120058 0.637278 0.147738
0.135531 0.643214 0.14992
0.150256 0.648798 0.150637
0.165469 0.654139 0.150896
0.182864 0.659236 0.151125
0.215305 0.664057 0.151675
0.24271 0.668605 0.15288
0.270832 0.672877 0.15462
0.300298 0.676768 0.156252
0.331502 0.680476 0.158877
0.36405 0.684077 0.162341
0.397406 0.687617 0.166247
0.431205 0.691127 0.170565
0.465736 0.694499 0.17496
0.49984 0.697322 0.176379
0.533211 0.69958 0.174441
0.565835 0.70135 0.169604
0.598062 0.702892 0.1635
0.630045 0.704402 0.157305
0.663203 0.706844 0.156085
0.697581 0.710582 0.161425
0.732631 0.715816 0.17409
0.76733 0.722087 0.192233
0.801236 0.729168 0.215076
0.833661 0.735836 0.236057
0.865125 0.741756 0.253086
0.896406 0.746746 0.265385
0.927169 0.751141 0.273899
0.957961 0.754864 0.278599
0.988922 0.758358 0.282628
0.0812238 0.656703 0.142733
0.0974746 0.663874 0.148989
0.112627 0.671061 0.154406
0.128634 0.677546 0.157977
0.143908 0.683665 0.159869
0.158282 0.689433 0.160189
0.173373 0.694957 0.16025
0.190829 0.700252 0.160555
0.223682 0.705272 0.161288
0.252003 0.709987 0.16257
0.280446 0.714351 0.164172
0.309895 0.718288 0.165194
0.340764 0.721935 0.166537
0.373114 0.72549 0.16907
0.406485 0.729015 0.172595
0.440482 0.732586 0.177005
0.475425 0.736049 0.18204
0.51017 0.739101 0.184985
0.54377 0.741482 0.183566
0.576349 0.743313 0.1785
0.60827 0.744823 0.171511
0.63975 0.746197 0.16379
0.67216 0.748226 0.160067
0.706188 0.751614 0.163806
0.741161 0.756466 0.175326
0.776043 0.762448 0.193042
0.810315 0.769329 0.216587
0.843183 0.776059 0.239963
0.874861 0.78201 0.259129
0.906188 0.78703 0.27332
0.936858 0.791424 0.283314
0.967468 0.795087 0.288823
0.99823 0.798398 0.292622
0.0910048 0.696834 0.154711
0.107515 0.704265 0.161349
0.123201 0.711666 0.167254
0.139879 0.71841 0.171481
0.155978 0.724788 0.174075
0.171359 0.730816 0.175174
0.18703 0.736553 0.175555
0.204227 0.741955 0.175509
0.234806 0.74699 0.175174
0.262928 0.751614 0.174594
0.290394 0.755779 0.173602
0.318791 0.759441 0.17171
0.348241 0.762722 0.169299
0.379614 0.765957 0.168917
0.412451 0.769268 0.17052
0.446418 0.772702 0.174029
0.481727 0.776135 0.179156
0.517723 0.779446 0.184771
0.552285 0.782101 0.185657
0.585611 0.784192 0.18265
0.618097 0.785962 0.177356
0.649927 0.787579 0.170901
0.682109 0.789532 0.166613
0.715999 0.792752 0.170092
0.750805 0.797299 0.18114
0.785626 0.802869 0.198428
0.819959 0.809323 0.221698
0.85301 0.815839 0.246357
0.884794 0.821591 0.266575
0.916091 0.826474 0.281895
0.946654 0.830747 0.292836
0.977081 0.834318 0.299107
1 0.83743 0.302678
0.102052 0.737346 0.168261
0.118822 0.744991 0.175341
0.135149 0.75256 0.181842
0.152667 0.759503 0.186862
0.170062 0.766125 0.190661
0.187335 0.772442 0.193423
0.205768 0.778515 0.196246
0.226337 0.784329 0.199374
0.239612 0.787778 0.181216
0.27126 0.792554 0.18143
0.298711 0.796643 0.179141
0.326146 0.800046 0.174395
0.354467 0.803006 0.168841
0.385046 0.805966 0.166049
0.417838 0.809155 0.166812
0.452552 0.812619 0.171221
0.489311 0.816266 0.179126
0.527382 0.82002 0.189685
0.564141 0.82327 0.196643
0.599451 0.826047 0.199786
0.633448 0.828489 0.199924
0.666209 0.830747 0.197711
0.698543 0.833097 0.195773
0.731685 0.836286 0.19942
0.765209 0.84033 0.208774
0.798657 0.845106 0.223148
0.831739 0.850507 0.242374
0.86392 0.855985 0.262638
0.895216 0.860945 0.279896
0.926223 0.865278 0.293339
0.956573 0.869154 0.303212
0.986801 0.87248 0.309178
1 0.875425 0.31284
0.114229 0.778088 0.183246
0.131243 0.78587 0.190753
0.148241 0.793545 0.197787
0.166415 0.800626 0.203387
0.184115 0.807309 0.207279
0.200626 0.813596 0.208957
0.215671 0.819425 0.208118
0.229908 0.824735 0.204776
0.248295 0.82945 0.199268
0.281971 0.833616 0.192233
0.307103 0.837217 0.184436
0.33341 0.840345 0.176547
0.361303 0.843168 0.169467
0.391592 0.845975 0.165469
0.424613 0.849073 0.16611
0.459953 0.852491 0.171267
0.497597 0.856107 0.180621
0.536675 0.859846 0.193194
0.575113 0.863325 0.204654
0.611734 0.866346 0.211948
0.646571 0.869017 0.215351
0.679728 0.871443 0.215351
0.711986 0.873884 0.214343
0.744259 0.876722 0.216098
0.776867 0.880232 0.222919
0.809567 0.884398 0.23476
0.842161 0.889143 0.251682
0.874098 0.894026 0.27039
0.905379 0.89865 0.287846
0.936324 0.902708 0.301869
0.966552 0.906386 0.312383
0.996612 0.90956 0.31899
1 0.912352 0.323095
0.127275 0.818845 0.199237
0.144244 0.826764 0.207019
0.161608 0.834409 0.213962
0.179644 0.841459 0.219211
0.196796 0.848112 0.222339
0.212146 0.854337 0.222644
0.225116 0.860029 0.219516
0.237003 0.865171 0.213687
0.252476 0.869734 0.205798
0.289235 0.873762 0.196857
0.314672 0.877287 0.188067
0.341634 0.880446 0.180545
0.370474 0.88336 0.174762
0.40148 0.886213 0.171786
0.435431 0.889342 0.174136
0.471717 0.89276 0.181201
