public/filters/konnect/Presets C Medium Skin Tone/Highlite v3_39.Med Skin 3.cube
TITLE "Generated by Resolve"
LUT_3D_SIZE 9
0.0226139 0.0226139 0.0226139
0.133349 0.0244755 0.0242313
0.253681 0.0237583 0.0220035
0.371267 0.0239414 0.0214237
0.478386 0.0272831 0.0250553
0.5523 0.040528 0.0405127
0.657359 0.0442817 0.0442817
0.762585 0.0479438 0.0479438
0.868101 0.0514992 0.0514992
0.0340887 0.137148 0.0340887
0.140414 0.140566 0.037705
0.249683 0.144121 0.0221256
0.362295 0.145556 0.024094
0.480308 0.145663 0.0193332
0.566857 0.153841 0.0471046
0.666529 0.158953 0.0551614
0.77142 0.162661 0.0586404
0.8766 0.166262 0.0620279
0.0459297 0.251255 0.0459297
0.151751 0.254765 0.0485847
0.253285 0.260594 0.0348363
0.363668 0.262882 0.0335546
0.477485 0.264424 0.026154
0.581857 0.267231 0.0468147
0.678004 0.272618 0.067216
0.782788 0.276295 0.0706645
0.887831 0.279896 0.0740215
0.0577401 0.365026 0.0577401
0.164599 0.368093 0.0614481
0.268681 0.372137 0.0626993
0.371389 0.377249 0.053315
0.479683 0.38024 0.0502632
0.589593 0.382422 0.0516823
0.689845 0.386023 0.0789807
0.794461 0.389685 0.0826886
0.899428 0.393256 0.0860609
0.0695201 0.478569 0.0695201
0.176577 0.481544 0.0732128
0.281926 0.485008 0.0767529
0.384085 0.489845 0.0734722
0.489998 0.493278 0.0746319
0.59649 0.497139 0.0654612
0.702098 0.499275 0.0884718
0.806256 0.502907 0.094667
0.911177 0.506447 0.0980392
0.0812848 0.591974 0.0812848
0.18854 0.594842 0.0849622
0.29398 0.598215 0.0886854
0.3991 0.601709 0.0923629
0.50312 0.605631 0.0937819
0.607279 0.609796 0.090898
0.713512 0.61265 0.0988022
0.818128 0.616007 0.106584
0.923018 0.619532 0.109941
0.0911574 0.705959 0.0906539
0.193408 0.710613 0.0887312
0.299336 0.713863 0.0920272
0.405463 0.717037 0.0952926
0.514931 0.71873 0.105791
0.620706 0.721874 0.111147
0.725048 0.725673 0.112413
0.830014 0.729 0.118456
0.934874 0.732509 0.121889
0.104234 0.818601 0.104082
0.199512 0.825833 0.0940414
0.297444 0.83209 0.0869001
0.403983 0.835264 0.0878004
0.519036 0.834974 0.102998
0.63267 0.834806 0.12314
0.737331 0.838346 0.126741
0.841917 0.841917 0.130297
0.946761 0.845411 0.133745
0.116197 0.931579 0.116182
0.221866 0.935027 0.117052
0.314244 0.94313 0.10573
0.418936 0.946883 0.105989
0.523674 0.950713 0.104372
0.643885 0.948013 0.133455
0.748974 0.951324 0.138216
0.853529 0.954879 0.141802
0.958358 0.958343 0.145266
0.0238193 0.0238193 0.126818
0.130953 0.0272068 0.131518
0.242863 0.0282139 0.142596
0.351415 0.0310521 0.145647
0.461418 0.0332799 0.149508
0.561791 0.0389563 0.149538
0.658595 0.045655 0.150378
0.763775 0.0492866 0.154253
0.869261 0.0528267 0.158022
0.0356451 0.138613 0.138613
0.142046 0.142046 0.142046
0.250706 0.144244 0.147585
0.363302 0.145357 0.15169
0.475151 0.146929 0.154437
0.582376 0.150118 0.156756
0.668009 0.160311 0.160357
0.772717 0.16405 0.16405
0.877867 0.167636 0.167636
0.0474861 0.252659 0.150729
0.154055 0.255909 0.154055
0.259373 0.25951 0.157488
0.365805 0.262852 0.155245
0.476326 0.264744 0.158038
0.591684 0.265171 0.158236
0.682857 0.272969 0.170535
0.7841 0.277699 0.175723
0.889128 0.28127 0.179263
0.0592966 0.366369 0.162768
0.166064 0.369512 0.166064
0.270817 0.373236 0.168994
0.372702 0.378149 0.164904
0.481468 0.380713 0.165286
0.59443 0.382101 0.16141
0.699016 0.385382 0.174533
0.795804 0.391073 0.187564
0.90074 0.394644 0.191073
0.0710613 0.479896 0.174777
0.178042 0.482918 0.178027
0.283452 0.486366 0.181567
0.385672 0.490974 0.181216
0.489204 0.495384 0.176837
0.597925 0.497963 0.176562
0.70811 0.499931 0.178805
0.807691 0.504265 0.199313
0.912505 0.507836 0.202945
0.082826 0.59324 0.186755
0.189975 0.596185 0.189975
0.295415 0.599588 0.1935
0.400427 0.603113 0.196963
0.502312 0.607874 0.195117
0.608194 0.611185 0.196857
0.714961 0.614649 0.191028
0.820096 0.617304 0.209064
0.924346 0.620905 0.214832
0.0945754 0.706477 0.198703
0.201907 0.709331 0.201907
0.30724 0.712749 0.205325
0.41088 0.716716 0.20737
0.515648 0.720317 0.210086
0.621271 0.723583 0.214145
0.725475 0.727565 0.212726
0.831556 0.73051 0.219654
0.936202 0.733883 0.226719
0.10631 0.819608 0.210636
0.211734 0.823072 0.212406
0.311528 0.828351 0.211353
0.417487 0.831586 0.214313
0.523629 0.83473 0.21735
0.633066 0.836561 0.226215
0.738659 0.839719 0.231418
0.843015 0.843473 0.232853
0.948089 0.846769 0.23859
0.117708 0.932784 0.222217
0.224811 0.935668 0.224994
0.315587 0.943969 0.217273
0.414649 0.94963 0.213107
0.521614 0.952651 0.214008
0.636957 0.952514 0.22623
0.750332 0.952667 0.243137
0.854887 0.956207 0.246693
0.959701 0.959686 0.250172
0.025452 0.0254368 0.230854
0.132357 0.0289769 0.234318
0.238331 0.0325933 0.238407
0.346761 0.0349279 0.246921
0.455116 0.0374762 0.25272
0.564279 0.0397955 0.258076
0.661585 0.0466011 0.255131
0.76527 0.0507973 0.258122
0.870741 0.0543221 0.261936
0.0371557 0.1402 0.242084
0.143603 0.143603 0.245441
0.249226 0.147082 0.250004
0.359426 0.148318 0.261677
0.467521 0.15111 0.26453
0.577096 0.153307 0.268376
0.677378 0.158953 0.26743
0.774197 0.16556 0.267628
0.879332 0.169146 0.27126
0.0490272 0.254185 0.254185
0.155596 0.25745 0.25745
0.261006 0.261006 0.261006
0.368704 0.263203 0.268574
0.481224 0.264088 0.274311
0.593454 0.265415 0.277577
0.700221 0.268742 0.279164
0.785748 0.279149 0.27921
0.890593 0.282765 0.28278
0.0608377 0.36788 0.266255
0.16759 0.371023 0.269459
0.272984 0.374517 0.272984
0.377966 0.378119 0.276463
0.484092 0.381247 0.276783
0.595285 0.382788 0.280324
0.711604 0.382712 0.282353
0.801221 0.391302 0.290166
0.902205 0.396124 0.29453
0.0726177 0.481361 0.278294
0.179553 0.484413 0.281453
0.284962 0.487861 0.284962
0.389364 0.491615 0.28809
0.490959 0.496376 0.286137
0.59997 0.498711 0.287541
0.713664 0.499657 0.286046
0.817853 0.503227 0.296315
0.91397 0.509316 0.306371
0.0843977 0.594705 0.290318
0.191501 0.59765 0.293431
0.296925 0.601068 0.296925
0.401999 0.604562 0.30045
0.503975 0.60911 0.30106
0.60763 0.613291 0.298528
0.716701 0.615641 0.299153
0.827176 0.617456 0.301869
0.925887 0.622354 0.318135
0.0960403 0.707942 0.302296
0.203418 0.710796 0.305394
0.308858 0.714168 0.308858
0.413962 0.717632 0.312383
0.518761 0.721172 0.315862
0.620584 0.725795 0.31519
0.726543 0.729046 0.317266
0.83386 0.732128 0.31339
0.938445 0.73518 0.328313
0.106188 0.821546 0.313848
0.21532 0.823835 0.317342
0.320806 0.827176 0.32079
0.425757 0.830655 0.324239
0.529183 0.834638 0.326619
0.63386 0.838224 0.329473
0.739391 0.841474 0.333394
0.843763 0.845304 0.332937
0.94995 0.848234 0.339101
0.116762 0.934966 0.325124
0.226886 0.936919 0.328954
0.330159 0.940932 0.331426
0.42945 0.946227 0.331472
0.535424 0.949416 0.334386
0.641596 0.952544 0.337407
0.750866 0.954467 0.345144
0.856321 0.957687 0.350027
0.961013 0.961288 0.351644
0.0267185 0.0265812 0.340871
0.134081 0.0305486 0.337728
0.239994 0.034165 0.34165
0.347585 0.0366979 0.350896
0.454765 0.0396887 0.356039
0.560983 0.043122 0.359319
0.665965 0.0469825 0.361669
0.766918 0.0522927 0.361593
0.876356 0.0543526 0.367803
0.0386206 0.141802 0.345388
0.145174 0.145174 0.348577
0.250645 0.148791 0.352193
0.355917 0.152407 0.355993
0.463371 0.154894 0.364202
0.571145 0.157519 0.369726
0.67985 0.159869 0.374853
0.777096 0.166583 0.371695
0.880858 0.170657 0.374487
0.0505379 0.255756 0.357336
0.157153 0.258991 0.36054
0.262547 0.262547 0.36408
0.367819 0.266011 0.368688
0.477638 0.267201 0.381186
0.585794 0.269886 0.38407
0.695506 0.271946 0.388083
0.795529 0.277638 0.386496
0.892103 0.284291 0.385931
0.0623636 0.369406 0.369406
0.169131 0.372549 0.372549
0.27451 0.376059 0.376059
0.379614 0.379614 0.379614
0.487236 0.381613 0.388922
0.600534 0.382116 0.395789
0.713542 0.383124 0.399313
0.821149 0.38616 0.400427
0.903899 0.397574 0.397681
0.0739452 0.482933 0.381552
0.181079 0.485924 0.384558
0.286488 0.489372 0.388022
0.391562 0.492912 0.391562
0.496361 0.496513 0.395087
0.602716 0.499352 0.39733
0.714351 0.500694 0.401312
0.831647 0.500206 0.404471
0.919814 0.509392 0.409155
0.080354 0.597696 0.394537
0.193027 0.599161 0.396551
0.298436 0.602579 0.4
0.403525 0.606073 0.403525
0.507713 0.609827 0.40676
0.609445 0.614404 0.406195
0.718837 0.616541 0.408209
0.833616 0.616999 0.408148
0.938415 0.620478 0.416022
0.0808728 0.714107 0.406149
0.204944 0.712291 0.40853
0.310384 0.715663 0.411963
0.415473 0.719127 0.415473
0.520348 0.722637 0.418997
0.622278 0.727108 0.420218
0.726314 0.731044 0.418814
0.835843 0.733196 0.419974
0.947433 0.734646 0.422217
0.0882582 0.828611 0.416083
0.216754 0.825345 0.420478
0.322316 0.828656 0.423911
0.427405 0.83209 0.427405
0.53228 0.835584 0.43093
0.636942 0.839139 0.434409
0.738888 0.843641 0.434455
0.844923 0.846815 0.436637
0.95375 0.849409 0.43209
0.111818 0.938308 0.427848
0.226688 0.938903 0.431876
0.333928 0.941695 0.435554
0.439033 0.945098 0.439033
0.543786 0.948608 0.442496
0.647105 0.952575 0.445075
0.75172 0.956146 0.44802
0.85716 0.959411 0.451865
0.962097 0.963012 0.451606
0.028336 0.0281834 0.444892
0.135821 0.0321202 0.440925
0.241703 0.0357366 0.444831
0.347326 0.039353 0.448798
0.452766 0.0429847 0.452766
0.558083 0.0466011 0.456748
0.66331 0.0502327 0.460731
0.76997 0.0532387 0.466224
0.879469 0.0552529 0.472984
0.0398413 0.143404 0.449516
0.146761 0.146761 0.451545
0.252232 0.150362 0.455146
0.357473 0.153994 0.458839
0.464179 0.156664 0.467658
0.57084 0.159716 0.472465
0.676661 0.163165 0.475471
0.780789 0.167239 0.477119
0.88249 0.172168 0.477546
0.0520485 0.257328 0.460319
0.158694 0.260563 0.463462
0.264103 0.264103 0.466987
0.369253 0.267704 0.470588
0.474266 0.271305 0.474342
0.581552 0.273747 0.482658
0.689281 0.276295 0.488212
0.796582 0.279133 0.492103
0.89395 0.285695 0.489067
0.0638895 0.370962 0.472374
0.170672 0.374105 0.475456
0.276051 0.3776 0.478935
0.381155 0.381155 0.48249
0.486213 0.384604 0.487144
0.596124 0.385672 0.500206
0.704417 0.388251 0.50312
0.813062 0.390692 0.506249
0.906661 0.398657 0.501259
0.0709697 0.485435 0.488319
0.18262 0.487465 0.487465
0.288014 0.490913 0.490913
0.393088 0.494438 0.494438
0.498009 0.498009 0.498009
0.605859 0.499809 0.508293
0.719875 0.500023 0.515892
0.833432 0.500832 0.519539
0.929824 0.507805 0.516472
0.0799115 0.599542 0.500389
0.194553 0.600687 0.499458
0.299962 0.604105 0.502876
0.405035 0.607599 0.506386
0.509926 0.611124 0.509926
0.614588 0.614725 0.513466
0.721645 0.617243 0.517021
0.83386 0.618341 0.521279
0.943389 0.620462 0.524697
0.0784772 0.716289 0.51516
0.206455 0.713802 0.511437
0.31191 0.717174 0.514855
0.416983 0.720638 0.518334
0.521859 0.724147 0.521859
0.62594 0.727901 0.5252
0.728084 0.73225 0.525551
0.838026 0.734173 0.527886
0.952621 0.734615 0.529702
0.0884108 0.830106 0.524636
0.215869 0.827497 0.523781
0.323827 0.830167 0.526802
0.428916 0.8336 0.530282
0.533791 0.837095 0.533791
0.638544 0.84062 0.537331
0.740566 0.844999 0.538964
0.844968 0.848753 0.53785
0.956024 0.850416 0.538521
0.104341 0.942168 0.533608
0.22681 0.940764 0.535256
0.335439 0.943191 0.53846
0.440543 0.946609 0.541924
0.545434 0.950072 0.545434
0.650172 0.953567 0.548959
0.754711 0.957122 0.552453
0.856916 0.961486 0.552987
0.963012 0.96463 0.55465
0.0299382 0.0297704 0.549065
0.13756 0.0337072 0.544015
0.243427 0.0372931 0.547875
0.34902 0.0409094 0.551812
0.454444 0.0445258 0.555779
0.559747 0.0481575 0.559747
0.664958 0.0517739 0.563729
0.773861 0.0538186 0.572381
0.881544 0.0565347 0.577508
0.0408637 0.144961 0.554818
0.148348 0.148348 0.554391
0.253834 0.151934 0.557992
0.359075 0.155566 0.561669
0.464164 0.159213 0.565393
0.569131 0.16286 0.569131
0.674037 0.166522 0.5729
0.778866 0.170184 0.576669
0.885435 0.173159 0.581735
0.0535439 0.258915 0.56318
0.16025 0.262135 0.566278
0.265675 0.265675 0.569772
0.370809 0.269261 0.573373
0.475792 0.272877 0.577005
0.58233 0.275532 0.585809
0.688899 0.278523 0.59057
0.79324 0.282506 0.591821
0.895186 0.287358 0.591669
0.0654002 0.372534 0.575189
0.172213 0.375662 0.578225
0.277607 0.379156 0.581704
0.382712 0.382712 0.585245
0.487633 0.386297 0.588846
0.592477 0.389883 0.592554
0.700114 0.392096 0.601556
0.806378 0.395254 0.605066
0.90724 0.400519 0.603708
0.0771954 0.485969 0.587228
0.184161 0.489006 0.590234
0.289555 0.492454 0.593652
0.394629 0.495979 0.597177
0.499535 0.499535 0.600732
0.604456 0.502968 0.605402
0.714794 0.503853 0.618814
0.822416 0.506691 0.620844
0.919768 0.51339 0.615961
0.084123 0.60032 0.603281
0.196078 0.602228 0.602213
0.301503 0.605631 0.605631
0.406577 0.609125 0.609125
0.511467 0.61265 0.61265
0.61622 0.61622 0.61622
0.724681 0.617792 0.627146
0.83978 0.617594 0.635264
0.94342 0.622095 0.633402
0.0932479 0.714244 0.615671
0.207996 0.715328 0.614206
0.313436 0.7187 0.617594
0.418509 0.722164 0.621073
0.5234 0.725673 0.624582
0.628138 0.729213 0.628138
0.732677 0.732799 0.631693
0.841443 0.734661 0.63624
0.951324 0.73666 0.64004
0.087892 0.831785 0.633433
0.219883 0.828336 0.626184
0.325353 0.831678 0.629557
0.430442 0.835111 0.633021
0.535317 0.838605 0.63653
0.640055 0.84213 0.640055
0.743969 0.845884 0.643412
0.846525 0.85005 0.644022
0.957641 0.851591 0.647044
0.102205 0.944381 0.641169
0.229038 0.942046 0.638437
0.336965 0.944701 0.641215
0.442069 0.948104 0.644663
0.546944 0.951568 0.648157
0.651682 0.955077 0.651682
0.756313 0.958602 0.655222
0.858549 0.96289 0.65713
0.963363 0.966506 0.654948
0.0319982 0.0319982 0.643854
0.1393 0.0352789 0.646998
0.245151 0.0388647 0.650813
0.350729 0.0424659 0.654719
0.456138 0.0460822 0.658671
0.561425 0.0496986 0.662638
0.666606 0.053315 0.666606
0.77171 0.0569314 0.670588
0.880339 0.059144 0.678187
0.042359 0.146563 0.658106
0.149935 0.149935 0.657145
0.255436 0.153521 0.660731
0.360662 0.157137 0.664393
0.465751 0.160769 0.668116
0.570733 0.164416 0.67187
0.675624 0.168078 0.675624
0.780453 0.171725 0.679408
0.889204 0.1738 0.687404
0.0550088 0.260533 0.66601
0.161425 0.263722 0.670192
0.267247 0.267247 0.672465
0.372381 0.270832 0.676051
0.477378 0.274449 0.679683
0.582238 0.278065 0.683345
0.687037 0.281712 0.687037
0.791745 0.285344 0.69073
0.896742 0.288899 0.694347
0.0668956 0.374121 0.677913
0.173754 0.377234 0.680903
0.279164 0.380713 0.684352
0.384268 0.384268 0.687892
0.489189 0.387854 0.691478
0.594003 0.391455 0.695094
0.700542 0.394049 0.703883
0.805951 0.397513 0.706676
0.908309 0.402243 0.705959
0.078706 0.487541 0.689937
0.185687 0.490562 0.692882
0.291096 0.494011 0.6963
0.396185 0.49752 0.699809
0.501076 0.501076 0.703365
0.605859 0.504662 0.70695
0.710582 0.508247 0.710658
0.817044 0.510994 0.717372
0.920073 0.515389 0.717754
0.0905013 0.600809 0.701961
0.19762 0.603769 0.704875
0.303029 0.607172 0.708263
0.408103 0.610666 0.711742
0.512993 0.614191 0.715282
0.617761 0.617761 0.718837
0.722606 0.621164 0.723522
0.833646 0.621805 0.737179
0.933318 0.627848 0.730953
0.0980545 0.714931 0.71722
0.209522 0.716869 0.716854
0.314961 0.720226 0.720226
0.420035 0.72369 0.72369
0.524926 0.727199 0.727199
0.629664 0.730739 0.730739
0.73431 0.73431 0.73431
0.843915 0.735454 0.745953
0.953216 0.737667 0.748486
0.101884 0.829953 0.733593
0.221408 0.829862 0.728832
0.326879 0.833204 0.732189
0.431968 0.836637 0.735637
0.536843 0.840131 0.739132
0.641581 0.843656 0.742657
0.746212 0.847196 0.746212
0.850629 0.850782 0.749783
0.961563 0.851957 0.754849
0.108934 0.94432 0.74551
0.23299 0.942916 0.740505
0.338491 0.946212 0.743847
0.443595 0.94963 0.747295
0.54847 0.953094 0.750774
0.653208 0.956588 0.754284
0.757824 0.960128 0.757824
0.861723 0.963851 0.761227
0.964706 0.967865 0.761288
0.0336309 0.0336309 0.746853
0.141024 0.0368658 0.749889
0.246876 0.0404364 0.753658
0.352438 0.0440375 0.757549
0.457847 0.0476387 0.761486
0.563119 0.0512551 0.765438
0.668284 0.0548714 0.769406
0.773373 0.0584726 0.773373
0.880949 0.0610819 0.780133
0.0446632 0.148302 0.756786
0.151537 0.151537 0.759823
0.257038 0.155108 0.763378
0.36228 0.158709 0.767056
0.467369 0.162341 0.770764
0.572335 0.165988 0.774502
0.677226 0.169635 0.778271
0.78204 0.173281 0.782055
0.887144 0.176837 0.785733
0.0564736 0.262135 0.768765
0.162936 0.265309 0.773098
0.268818 0.268818 0.775067
0.373968 0.272404 0.778637
0.47895 0.276005 0.782269
0.583825 0.279637 0.785931
0.688609 0.283268 0.789624
0.793317 0.2869 0.793317
0.898314 0.290455 0.796948
0.0683909 0.375708 0.780545
0.175311 0.37879 0.78349
0.28072 0.382269 0.786923
0.385824 0.385824 0.790463
0.490761 0.38941 0.794049
0.595575 0.393011 0.79765
0.700298 0.396612 0.801297
0.804944 0.400244 0.804944
0.909865 0.403784 0.80853
0.0802167 0.489113 0.792554
0.187228 0.492119 0.795453
0.292638 0.495567 0.798856
0.397726 0.499077 0.802365
0.502632 0.502632 0.805905
0.607416 0.506218 0.809491
0.712108 0.509804 0.813092
0.817868 0.512795 0.819638
0.921584 0.516945 0.820264
0.0920119 0.602365 0.804562
0.199145 0.60531 0.807446
0.30457 0.608728 0.810819
0.409659 0.612207 0.814282
0.514534 0.615732 0.817807
0.619303 0.619303 0.821363
0.723949 0.622873 0.824948
0.828534 0.626459 0.828534
0.933364 0.629984 0.832059
0.103777 0.715526 0.816571
0.211048 0.718395 0.819425
0.316487 0.721767 0.822766
0.421576 0.725231 0.82623
0.526452 0.72874 0.829725
0.631189 0.73228 0.833265
0.735836 0.735836 0.83682
0.840696 0.739193 0.841703
0.945998 0.74255 0.84506
0.115221 0.828656 0.828794
0.222934 0.831403 0.831403
0.328405 0.83473 0.83473
0.433494 0.838178 0.838178
0.538369 0.841657 0.841657
0.643107 0.845182 0.845182
0.747738 0.848722 0.848722
0.852277 0.852277 0.852277
0.963607 0.852903 0.864134
0.126955 0.94168 0.840253
0.234516 0.944442 0.843061
0.340017 0.947738 0.846387
0.445121 0.951156 0.849821
0.549996 0.95462 0.8533
0.654734 0.958114 0.856809
0.75935 0.961639 0.860334
0.86389 0.965179 0.86389
0.968658 0.968658 0.867353
0.0352178 0.0352331 0.850172
0.142718 0.0384222 0.853117
0.248585 0.0419776 0.856855
0.354131 0.0455634 0.860731
0.45951 0.0491646 0.864652
0.564767 0.0527657 0.868589
0.669932 0.0563821 0.872572
0.775006 0.0599985 0.876524
0.8804 0.0634928 0.8804
0.046128 0.149905 0.859861
0.153109 0.153109 0.862821
0.258625 0.156664 0.866361
0.363867 0.160266 0.870024
0.468956 0.163897 0.873732
0.573922 0.167529 0.87747
0.678813 0.17116 0.881239
0.783612 0.174807 0.885023
0.888731 0.178363 0.888731
0.0579995 0.263722 0.87158
0.16492 0.26685 0.87451
0.270375 0.270375 0.877974
0.375525 0.273945 0.881544
0.480507 0.277546 0.885176
0.585382 0.281163 0.888838
0.690166 0.284794 0.892531
0.794873 0.288426 0.896239
0.899855 0.291981 0.899855
0.0698558 0.377264 0.883497
0.176837 0.380346 0.886397
0.282246 0.383825 0.889815
0.387366 0.387366 0.893324
0.492302 0.390936 0.89691
0.597101 0.394537 0.900526
0.701839 0.398138 0.904158
0.806485 0.40177 0.90782
0.911391 0.40531 0.911391
0.0816815 0.490654 0.895491
0.188739 0.49366 0.898344
0.294163 0.497093 0.901717
0.399252 0.500603 0.905211
0.504158 0.504158 0.908751
0.608942 0.507744 0.912322
0.713619 0.51133 0.915923
0.818235 0.514931 0.919554
0.923095 0.518456 0.923095
0.0934768 0.603906 0.907485
0.200656 0.606851 0.910307
0.306081 0.610239 0.913664
0.41117 0.613733 0.917128
0.51606 0.617258 0.920638
0.620813 0.620813 0.924193
0.725475 0.624384 0.927764
0.830045 0.62797 0.931365
0.93489 0.631495 0.93489
0.105257 0.717052 0.919493
0.212558 0.719921 0.922286
0.317998 0.723293 0.925628
0.423087 0.726741 0.929061
0.527962 0.730251 0.932555
0.632715 0.733791 0.93608
0.737346 0.737346 0.939635
0.841901 0.740917 0.943206
0.946715 0.744411 0.946715
0.117021 0.830091 0.931502
0.224445 0.832914 0.934264
0.329915 0.83624 0.937575
0.435004 0.839673 0.941009
0.539879 0.843168 0.944472
0.644617 0.846693 0.947997
0.749233 0.850233 0.951522
0.853788 0.853788 0.955077
0.958572 0.857267 0.958572
0.12845 0.943191 0.943191
0.236011 0.945937 0.945937
0.341512 0.949248 0.949248
0.446616 0.952651 0.952651
0.551507 0.956115 0.956115
0.656229 0.959609 0.959609
0.760845 0.963149 0.963134
0.865385 0.96669 0.96669
0.970626 0.970626 0.970626
