public/filters/konnect/Presets C Medium Skin Tone/Highlite v3_39.Med Skin 3.cube
TITLE "Generated by Resolve"
LUT_3D_SIZE 5
0.0226139 0.0226139 0.0226139
0.253681 0.0237583 0.0220035
0.478386 0.0272831 0.0250553
0.657359 0.0442817 0.0442817
0.868101 0.0514992 0.0514992
0.0459297 0.251255 0.0459297
0.253285 0.260594 0.0348363
0.477485 0.264424 0.026154
0.678004 0.272618 0.067216
0.887831 0.279896 0.0740215
0.0695201 0.478569 0.0695201
0.281926 0.485008 0.0767529
0.489998 0.493278 0.0746319
0.702098 0.499275 0.0884718
0.911177 0.506447 0.0980392
0.0911574 0.705959 0.0906539
0.299336 0.713863 0.0920272
0.514931 0.71873 0.105791
0.725048 0.725673 0.112413
0.934874 0.732509 0.121889
0.116197 0.931579 0.116182
0.314244 0.94313 0.10573
0.523674 0.950713 0.104372
0.748974 0.951324 0.138216
0.958358 0.958343 0.145266
0.025452 0.0254368 0.230854
0.238331 0.0325933 0.238407
0.455116 0.0374762 0.25272
0.661585 0.0466011 0.255131
0.870741 0.0543221 0.261936
0.0490272 0.254185 0.254185
0.261006 0.261006 0.261006
0.481224 0.264088 0.274311
0.700221 0.268742 0.279164
0.890593 0.282765 0.28278
0.0726177 0.481361 0.278294
0.284962 0.487861 0.284962
0.490959 0.496376 0.286137
0.713664 0.499657 0.286046
0.91397 0.509316 0.306371
0.0960403 0.707942 0.302296
0.308858 0.714168 0.308858
0.518761 0.721172 0.315862
0.726543 0.729046 0.317266
0.938445 0.73518 0.328313
0.116762 0.934966 0.325124
0.330159 0.940932 0.331426
0.535424 0.949416 0.334386
0.750866 0.954467 0.345144
0.961013 0.961288 0.351644
0.028336 0.0281834 0.444892
0.241703 0.0357366 0.444831
0.452766 0.0429847 0.452766
0.66331 0.0502327 0.460731
0.879469 0.0552529 0.472984
0.0520485 0.257328 0.460319
0.264103 0.264103 0.466987
0.474266 0.271305 0.474342
0.689281 0.276295 0.488212
0.89395 0.285695 0.489067
0.0709697 0.485435 0.488319
0.288014 0.490913 0.490913
0.498009 0.498009 0.498009
0.719875 0.500023 0.515892
0.929824 0.507805 0.516472
0.0784772 0.716289 0.51516
0.31191 0.717174 0.514855
0.521859 0.724147 0.521859
0.728084 0.73225 0.525551
0.952621 0.734615 0.529702
0.104341 0.942168 0.533608
0.335439 0.943191 0.53846
0.545434 0.950072 0.545434
0.754711 0.957122 0.552453
0.963012 0.96463 0.55465
0.0319982 0.0319982 0.643854
0.245151 0.0388647 0.650813
0.456138 0.0460822 0.658671
0.666606 0.053315 0.666606
0.880339 0.059144 0.678187
0.0550088 0.260533 0.66601
0.267247 0.267247 0.672465
0.477378 0.274449 0.679683
0.687037 0.281712 0.687037
0.896742 0.288899 0.694347
0.078706 0.487541 0.689937
0.291096 0.494011 0.6963
0.501076 0.501076 0.703365
0.710582 0.508247 0.710658
0.920073 0.515389 0.717754
0.0980545 0.714931 0.71722
0.314961 0.720226 0.720226
0.524926 0.727199 0.727199
0.73431 0.73431 0.73431
0.953216 0.737667 0.748486
0.108934 0.94432 0.74551
0.338491 0.946212 0.743847
0.54847 0.953094 0.750774
0.757824 0.960128 0.757824
0.964706 0.967865 0.761288
0.0352178 0.0352331 0.850172
0.248585 0.0419776 0.856855
0.45951 0.0491646 0.864652
0.669932 0.0563821 0.872572
0.8804 0.0634928 0.8804
0.0579995 0.263722 0.87158
0.270375 0.270375 0.877974
0.480507 0.277546 0.885176
0.690166 0.284794 0.892531
0.899855 0.291981 0.899855
0.0816815 0.490654 0.895491
0.294163 0.497093 0.901717
0.504158 0.504158 0.908751
0.713619 0.51133 0.915923
0.923095 0.518456 0.923095
0.105257 0.717052 0.919493
0.317998 0.723293 0.925628
0.527962 0.730251 0.932555
0.737346 0.737346 0.939635
0.946715 0.744411 0.946715
0.12845 0.943191 0.943191
0.341512 0.949248 0.949248
0.551507 0.956115 0.956115
0.760845 0.963149 0.963134
0.970626 0.970626 0.970626
