public/filters/konnect/Presets C Medium Skin Tone/Highlite v3_39.Med Skin 3.cube
TITLE "Generated by Resolve"
LUT_3D_SIZE 33
0.0226139 0.0226139 0.0226139
0.0492866 0.0230259 0.0230259
0.0767224 0.0237278 0.0236057
0.104845 0.0241855 0.0239109
0.133349 0.0244755 0.0242313
0.162264 0.0246433 0.0244297
0.191699 0.0246738 0.0240024
0.222202 0.0243839 0.0230716
0.253681 0.0237583 0.0220035
0.284733 0.0232853 0.021149
0.314549 0.023209 0.0208438
0.34313 0.0235142 0.0210422
0.371267 0.0239414 0.0214237
0.399512 0.0243229 0.0217441
0.428046 0.0246281 0.0219883
0.45536 0.0252995 0.0226902
0.478386 0.0272831 0.0250553
0.496574 0.0307012 0.0294194
0.511528 0.035111 0.0342412
0.529686 0.0384985 0.0381933
0.5523 0.040528 0.0405127
0.578363 0.0415198 0.0415198
0.6047 0.0424353 0.0424506
0.631037 0.0433509 0.0433509
0.657359 0.0442817 0.0442817
0.683665 0.0451972 0.0451972
0.709972 0.0461128 0.0461128
0.736278 0.0470283 0.0470283
0.762585 0.0479438 0.0479438
0.788876 0.0488441 0.0488594
0.815152 0.0497749 0.0497749
0.841443 0.0506752 0.0506905
0.868101 0.0514992 0.0514992
0.0252232 0.0510872 0.0252232
0.0519417 0.051957 0.0263828
0.0787518 0.052842 0.0263218
0.106401 0.0534676 0.025391
0.135256 0.0537575 0.023621
0.164416 0.0538949 0.022385
0.193393 0.054078 0.0217899
0.221973 0.0543679 0.0217594
0.251057 0.0545052 0.0213779
0.280919 0.0543984 0.0205081
0.311131 0.0542 0.0195773
0.340887 0.0541238 0.0190738
0.369741 0.0543221 0.0192416
0.397986 0.0546731 0.0197604
0.426139 0.0550698 0.020325
0.454231 0.0554818 0.0209201
0.479316 0.0567788 0.0230869
0.499947 0.0593729 0.0274205
0.515877 0.0633555 0.0337835
0.533303 0.0669413 0.0385748
0.554467 0.0693523 0.042237
0.579812 0.0705425 0.0437018
0.606104 0.0714733 0.0445869
0.63238 0.0723888 0.0454871
0.658671 0.0733196 0.0463722
0.684947 0.0742351 0.0472572
0.711223 0.0751659 0.0481422
0.737484 0.0760815 0.0490425
0.763745 0.0770123 0.0499275
0.790005 0.0779278 0.0508278
0.816266 0.0788434 0.0517128
0.842512 0.0797742 0.0525978
0.869123 0.0805982 0.0533913
0.0281529 0.0798657 0.0281529
0.0549935 0.0806592 0.0292668
0.0812695 0.0817121 0.0288853
0.108125 0.0826734 0.0265354
0.136263 0.083299 0.0228275
0.165225 0.0835737 0.0201877
0.194125 0.0837873 0.0193179
0.222324 0.0841382 0.0200656
0.250217 0.0845808 0.021088
0.278416 0.084947 0.0215305
0.307439 0.0850996 0.0210269
0.337285 0.0850233 0.0198367
0.367315 0.0848859 0.0187381
0.39675 0.0849012 0.0183566
0.425406 0.0851301 0.0187076
0.45362 0.085481 0.0193942
0.480232 0.0862745 0.02121
0.503044 0.0881514 0.0255436
0.521431 0.0912795 0.0324254
0.538323 0.0948653 0.0396277
0.55845 0.0975814 0.0439918
0.5823 0.0991684 0.0465858
0.608576 0.100099 0.0474708
0.634852 0.101015 0.0483406
0.661112 0.101946 0.0492256
0.687358 0.102861 0.0500954
0.713619 0.103792 0.0509804
0.739864 0.104723 0.0518654
0.76611 0.105638 0.0527352
0.79234 0.106569 0.0536202
0.818586 0.107485 0.0545052
0.844816 0.108415 0.055375
0.871397 0.109239 0.0561685
0.0311284 0.108537 0.0311284
0.0580301 0.1093 0.0320592
0.0845808 0.110185 0.0331121
0.110658 0.111284 0.0324102
0.137118 0.112428 0.0291752
0.164691 0.113298 0.0241093
0.193286 0.113756 0.0205539
0.222004 0.114031 0.0194095
0.250202 0.114366 0.020325
0.27808 0.114778 0.0216678
0.30605 0.115175 0.0224918
0.334554 0.115465 0.0224308
0.363958 0.115526 0.0212711
0.393942 0.115419 0.0197147
0.423835 0.115328 0.0186007
0.453025 0.115404 0.0184329
0.481086 0.11577 0.0194247
0.505623 0.117098 0.0235142
0.526085 0.119524 0.0306096
0.543084 0.122927 0.0397192
0.562509 0.12578 0.045594
0.585229 0.127642 0.0493629
0.611261 0.128634 0.0504311
0.637522 0.129549 0.0513008
0.663767 0.13048 0.0521859
0.690013 0.131395 0.0530404
0.716243 0.132326 0.0539254
0.742473 0.133257 0.0547951
0.768704 0.134173 0.0556649
0.794934 0.135103 0.0565347
0.821149 0.136034 0.0574197
0.847364 0.13695 0.0582895
0.87393 0.137789 0.0590677
0.0340887 0.137148 0.0340887
0.0610513 0.137896 0.0350195
0.0876173 0.13875 0.0359503
0.114092 0.139635 0.0369421
0.140414 0.140566 0.037705
0.166537 0.141726 0.0356909
0.193256 0.14284 0.0312352
0.221118 0.143664 0.0254368
0.249683 0.144121 0.0221256
0.278187 0.144442 0.0213779
0.306188 0.144808 0.0225986
0.334096 0.145205 0.0237125
0.362295 0.145556 0.024094
0.391165 0.145754 0.023331
0.420844 0.145754 0.0216678
0.450874 0.145647 0.0199588
0.480308 0.145663 0.0193332
0.506844 0.146395 0.0221866
0.529244 0.148211 0.0290684
0.547799 0.151064 0.0389105
0.566857 0.153841 0.0471046
0.588876 0.155917 0.0514839
0.614054 0.157107 0.0534371
0.640284 0.158038 0.0543069
0.666529 0.158953 0.0551614
0.69276 0.159884 0.0560311
0.718975 0.160815 0.0569009
0.745205 0.16173 0.0577707
0.77142 0.162661 0.0586404
0.797635 0.163577 0.0595102
0.823835 0.164508 0.0603799
0.85005 0.165438 0.0612497
0.8766 0.166262 0.0620279
0.0370489 0.165713 0.0370489
0.0640574 0.16643 0.0379797
0.0906386 0.167285 0.0389105
0.117113 0.16817 0.0398413
0.143557 0.169055 0.0407568
0.169955 0.169955 0.0416571
0.196094 0.170993 0.0414435
0.222385 0.172168 0.0380713
0.249485 0.173236 0.0321355
0.277638 0.173953 0.026566
0.306188 0.17438 0.0238956
0.334447 0.174716 0.0239261
0.362371 0.175097 0.0251621
0.390387 0.175479 0.0259251
0.418845 0.175769 0.0256962
0.448096 0.175891 0.0242771
0.477775 0.175891 0.0225986
0.506142 0.176165 0.023209
0.530846 0.177325 0.0286259
0.551553 0.179492 0.0381018
0.570809 0.182086 0.0479286
0.592447 0.184207 0.0535134
0.616892 0.185565 0.0564431
0.643122 0.186496 0.0573129
0.669352 0.187411 0.0581674
0.695567 0.188342 0.0590372
0.721782 0.189258 0.0599069
0.747997 0.190188 0.0607767
0.774212 0.191104 0.0616464
0.800412 0.192035 0.062501
0.826612 0.19295 0.0633707
0.852811 0.193881 0.0642405
0.879347 0.194705 0.0650034
0.0400092 0.194247 0.0400092
0.0670787 0.194949 0.04094
0.0936446 0.195789 0.0418708
0.11986 0.19675 0.0425574
0.145769 0.197864 0.0423438
0.171557 0.199084 0.0409552
0.197681 0.200214 0.0393225
0.22417 0.201236 0.0374762
0.25098 0.202213 0.0347295
0.278325 0.203098 0.030518
0.306416 0.203769 0.0256352
0.335103 0.204196 0.0222019
0.363821 0.204456 0.021088
0.392233 0.204715 0.0217746
0.420478 0.20499 0.0229038
0.448829 0.205264 0.0235447
0.47747 0.205478 0.0235752
0.505623 0.205798 0.0246128
0.53135 0.206653 0.0294804
0.55375 0.208301 0.0385138
0.57406 0.210529 0.0489815
0.595789 0.212497 0.0560311
0.619959 0.213947 0.0591897
0.645991 0.214908 0.0603342
0.672206 0.215839 0.0611887
0.698421 0.216754 0.0620584
0.72462 0.217685 0.0629129
0.750835 0.218601 0.0637827
0.777035 0.219532 0.0646525
0.803235 0.220447 0.065507
0.829419 0.221363 0.0663767
0.855619 0.222293 0.0672313
0.882139 0.223117 0.0680095
0.0429694 0.222766 0.0429694
0.0700694 0.223438 0.0438849
0.0966506 0.224277 0.044831
0.12311 0.225147 0.0457008
0.148821 0.226291 0.0456092
0.17406 0.227726 0.0434424
0.199207 0.229297 0.0394903
0.225315 0.230503 0.036408
0.252232 0.231388 0.0346532
0.279576 0.232074 0.033753
0.307088 0.232776 0.0318456
0.334981 0.233417 0.0285496
0.363424 0.233906 0.0252232
0.392096 0.234226 0.0233616
0.42063 0.234485 0.0233616
0.448936 0.234745 0.0243687
0.477165 0.235035 0.025391
0.505333 0.23534 0.0263981
0.532128 0.23592 0.0301213
0.556466 0.237034 0.0376135
0.578042 0.238834 0.0483253
0.599771 0.240696 0.0570077
0.62327 0.242267 0.0615244
0.64889 0.24332 0.0633402
0.67509 0.244236 0.06421
0.701305 0.245167 0.0650645
0.727504 0.246082 0.0659342
0.753704 0.246998 0.0667887
0.779889 0.247913 0.0676585
0.806088 0.248844 0.0685283
0.832273 0.24976 0.0693828
0.858457 0.25069 0.0702373
0.884978 0.251514 0.0710155
0.0459297 0.251255 0.0459297
0.0730755 0.251911 0.0468299
0.0996719 0.252735 0.0477913
0.126146 0.25359 0.0487221
0.151751 0.254765 0.0485847
0.176547 0.256367 0.0459144
0.200961 0.258213 0.0409705
0.226505 0.259663 0.0368048
0.253285 0.260594 0.0348363
0.280827 0.261158 0.035172
0.308446 0.261646 0.0359655
0.335988 0.262242 0.0356756
0.363668 0.262882 0.0335546
0.391806 0.263462 0.0301061
0.420386 0.263874 0.0270848
0.449042 0.264164 0.0257877
0.477485 0.264424 0.026154
0.505699 0.264714 0.0272679
0.533181 0.26511 0.0301518
0.558755 0.265904 0.0366979
0.581857 0.267231 0.0468147
0.603723 0.26894 0.0572366
0.626856 0.270512 0.0634775
0.651804 0.271702 0.0663615
0.678004 0.272618 0.067216
0.704204 0.273548 0.0680858
0.730404 0.274464 0.0689403
0.756588 0.27538 0.06981
0.782788 0.276295 0.0706645
0.808957 0.277226 0.0715343
0.835142 0.278141 0.0723888
0.861326 0.279057 0.0732586
0.887831 0.279896 0.0740215
0.0488899 0.279713 0.0488899
0.0760662 0.280369 0.0497902
0.102663 0.281178 0.0507362
0.129152 0.282032 0.051667
0.155596 0.282887 0.0525978
0.181094 0.284108 0.0522621
0.205753 0.285756 0.0492256
0.230076 0.287663 0.0438087
0.255558 0.289128 0.0394751
0.282338 0.290059 0.0375677
0.309865 0.290608 0.038056
0.337484 0.291066 0.0391852
0.364996 0.29163 0.0395819
0.392538 0.292256 0.038468
0.420401 0.292897 0.0354467
0.448768 0.293416 0.0318456
0.477455 0.293767 0.029221
0.506065 0.294041 0.0284886
0.534203 0.294331 0.0298466
0.560723 0.29485 0.035584
0.585031 0.295827 0.0452583
0.607309 0.297292 0.0572366
0.63032 0.298772 0.0653697
0.654826 0.300069 0.0691539
0.680919 0.300999 0.070222
0.707118 0.301915 0.0710918
0.733318 0.302831 0.0719463
0.759503 0.303746 0.0728161
0.785672 0.304662 0.0736706
0.811856 0.305592 0.0745403
0.838041 0.306508 0.0753948
0.86421 0.307424 0.0762646
0.890715 0.308248 0.0770428
0.0518349 0.308171 0.0518349
0.079057 0.308797 0.0527352
0.105669 0.309606 0.0536812
0.132158 0.310445 0.054612
0.158602 0.311315 0.0555581
0.184985 0.312169 0.0564736
0.211185 0.31313 0.0569924
0.236393 0.314488 0.055787
0.261051 0.316197 0.0517128
0.285832 0.317968 0.0460212
0.311925 0.319203 0.0424201
0.33901 0.319982 0.0413062
0.366552 0.320485 0.0422522
0.394049 0.321004 0.043061
0.421515 0.321599 0.0427558
0.44918 0.32224 0.0406806
0.477317 0.322835 0.037171
0.505898 0.323262 0.0337072
0.534524 0.323583 0.0321813
0.56199 0.323934 0.0357214
0.587427 0.324605 0.0445106
0.610697 0.32575 0.0567178
0.633829 0.327077 0.0664225
0.658122 0.328359 0.0713359
0.683864 0.329351 0.073228
0.710048 0.330266 0.0740978
0.736233 0.331182 0.0749676
0.762417 0.332097 0.0758221
0.788602 0.333013 0.0766918
0.814771 0.333928 0.0775464
0.84094 0.334844 0.0784009
0.867109 0.335775 0.0792706
0.893599 0.336599 0.0800488
0.0547951 0.336599 0.0547951
0.0820325 0.337224 0.0556802
0.108659 0.338018 0.0566262
0.135164 0.338857 0.057557
0.161593 0.339712 0.0585031
0.187991 0.340566 0.0594339
0.214359 0.341451 0.0603494
0.240696 0.342321 0.061265
0.266484 0.34342 0.0613107
0.291524 0.344915 0.0585794
0.316289 0.34667 0.0533761
0.341756 0.348196 0.0482185
0.368368 0.349203 0.0455329
0.395666 0.349844 0.0453651
0.423148 0.350362 0.0463417
0.450568 0.350927 0.0466773
0.478111 0.351553 0.0455787
0.506004 0.352178 0.0426795
0.534325 0.352682 0.0394751
0.562402 0.353063 0.0395666
0.588983 0.353521 0.045716
0.613519 0.35433 0.056733
0.637049 0.355459 0.0675059
0.661326 0.356664 0.0737163
0.686809 0.357702 0.0762341
0.712993 0.358602 0.0771038
0.739178 0.359533 0.0779583
0.765347 0.360433 0.0788281
0.791531 0.361349 0.0796979
0.8177 0.362264 0.0805524
0.843854 0.36318 0.0814221
0.870024 0.364096 0.0822766
0.896513 0.364935 0.0830549
0.0577401 0.365026 0.0577401
0.0850233 0.365621 0.0586252
0.11165 0.366415 0.0595712
0.138155 0.367254 0.0605173
0.164599 0.368093 0.0614481
0.190875 0.369009 0.0621347
0.216953 0.370001 0.062501
0.242786 0.371054 0.0628824
0.268681 0.372137 0.0626993
0.294575 0.373236 0.062211
0.320241 0.374472 0.0606241
0.345708 0.37586 0.0574502
0.371389 0.377249 0.053315
0.397803 0.378347 0.0502022
0.424872 0.37911 0.0490578
0.452277 0.37969 0.0495613
0.479683 0.38024 0.0502632
0.507134 0.380835 0.0499428
0.534783 0.381445 0.0484016
0.562524 0.381949 0.0479438
0.589593 0.382422 0.0516823
0.615213 0.383047 0.0601511
0.639719 0.383932 0.0697948
0.664363 0.384985 0.0763256
0.689845 0.386023 0.0789807
0.715938 0.386938 0.0800946
0.742123 0.387854 0.0809644
0.768292 0.388769 0.0818341
0.794461 0.389685 0.0826886
0.82063 0.3906 0.0835584
0.846784 0.391516 0.0844129
0.872953 0.392432 0.0852827
0.899428 0.393256 0.0860609
0.0606851 0.393423 0.0606851
0.0879988 0.394018 0.0615549
0.114641 0.394812 0.062501
0.141161 0.395636 0.063447
0.16759 0.396475 0.0643931
0.193988 0.39733 0.0652934
0.220005 0.398352 0.0655833
0.24564 0.399466 0.0656901
0.271046 0.400748 0.0646372
0.296788 0.401923 0.0638132
0.322896 0.40293 0.0634623
0.349126 0.403922 0.0631113
0.375128 0.405051 0.0615244
0.401038 0.406302 0.0584421
0.427314 0.407446 0.0551614
0.454185 0.408331 0.0531777
0.481453 0.408972 0.0529335
0.508827 0.409537 0.0536049
0.536233 0.410101 0.0541238
0.563638 0.410651 0.0546426
0.590799 0.411154 0.0572061
0.617197 0.411688 0.063035
0.642542 0.412406 0.0711986
0.667552 0.413321 0.0780041
0.692943 0.414328 0.0814527
0.718898 0.415259 0.0831006
0.745068 0.416175 0.0839551
0.771237 0.41709 0.0848249
0.797406 0.418006 0.0856947
0.82356 0.418921 0.0865644
0.849729 0.419821 0.0874189
0.875883 0.420737 0.0882887
0.902358 0.421561 0.0890516
0.0636301 0.42182 0.0636301
0.0909743 0.4224 0.0644999
0.117632 0.423178 0.0654459
0.144152 0.424002 0.066392
0.170596 0.424842 0.0673381
0.196994 0.425696 0.0682689
0.222995 0.426703 0.0685435
0.248493 0.427878 0.0684825
0.273655 0.429252 0.0671092
0.299184 0.430503 0.0659495
0.325261 0.431525 0.0655833
0.351797 0.432349 0.0661173
0.378378 0.433173 0.0666972
0.404715 0.434119 0.0663005
0.430808 0.435233 0.0642863
0.456992 0.436408 0.0610666
0.483604 0.437415 0.0581979
0.510689 0.438193 0.0568551
0.538018 0.438804 0.057023
0.565362 0.439338 0.0579232
0.592615 0.439841 0.0601205
0.619394 0.44033 0.0648356
0.64535 0.440909 0.0720378
0.670649 0.441688 0.0794232
0.696056 0.442649 0.0837415
0.721843 0.44358 0.0860914
0.748028 0.44448 0.0869459
0.774182 0.445396 0.0878157
0.800351 0.446311 0.0886854
0.826505 0.447227 0.0895552
0.852659 0.448127 0.090425
0.878813 0.449042 0.0912795
0.905303 0.449866 0.0920577
0.0665751 0.450202 0.0665751
0.0939498 0.450767 0.0674449
0.120623 0.451545 0.0683909
0.147143 0.452354 0.069337
0.173587 0.453193 0.0702678
0.199985 0.454047 0.0712139
0.226352 0.454902 0.0721294
0.252308 0.45594 0.0723278
0.277745 0.45713 0.0721599
0.302861 0.458518 0.070634
0.328405 0.459754 0.0694285
0.354513 0.460761 0.0691081
0.381079 0.461585 0.0697337
0.407736 0.462348 0.0705882
0.434226 0.463218 0.0708476
0.460487 0.46421 0.0697948
0.486671 0.465354 0.0671244
0.513115 0.466438 0.0638743
0.540002 0.467323 0.0614786
0.567224 0.468009 0.0607156
0.594553 0.468559 0.061799
0.621607 0.468986 0.0659495
0.64799 0.469459 0.072755
0.673609 0.4701 0.0808881
0.699077 0.470939 0.0863966
0.724834 0.471885 0.0889754
0.750973 0.472786 0.0899367
0.777142 0.473701 0.0908064
0.803311 0.474617 0.0916762
0.829465 0.475517 0.092546
0.855604 0.476432 0.0934157
0.881758 0.477348 0.0942702
0.908232 0.478172 0.0950484
0.0695201 0.478569 0.0695201
0.0969253 0.479133 0.0703746
0.123598 0.479896 0.0713207
0.150134 0.480705 0.0722667
0.176577 0.481544 0.0732128
0.202976 0.482383 0.0741436
0.229358 0.483238 0.0750744
0.255695 0.484108 0.0760052
0.281926 0.485008 0.0767529
0.307698 0.486107 0.0766918
0.333043 0.487358 0.0760967
0.358297 0.488716 0.0744182
0.384085 0.489845 0.0734722
0.410391 0.490776 0.0734874
0.437018 0.491554 0.0742962
0.4636 0.492363 0.0749218
0.489998 0.493278 0.0746319
0.516274 0.494316 0.0728618
0.542641 0.495415 0.0698253
0.569375 0.496391 0.0668345
0.59649 0.497139 0.0654612
0.623682 0.497627 0.0679179
0.650446 0.498039 0.0740215
0.676448 0.498543 0.0822309
0.702098 0.499275 0.0884718
0.727871 0.500175 0.0915694
0.753933 0.501091 0.0929274
0.780102 0.501991 0.0937972
0.806256 0.502907 0.094667
0.83241 0.503807 0.0955367
0.858564 0.504723 0.0964065
0.884703 0.505623 0.097261
0.911177 0.506447 0.0980392
0.0724651 0.506935 0.0724651
0.0999008 0.507485 0.0733196
0.126589 0.508247 0.0742657
0.153109 0.509056 0.0752117
0.179568 0.50988 0.0761578
0.205982 0.510719 0.0770886
0.232349 0.511574 0.0780194
0.258686 0.512428 0.0789502
0.285008 0.513298 0.0798657
0.311299 0.514168 0.0807813
0.337346 0.51516 0.0811627
0.362936 0.516289 0.0810864
0.388251 0.517601 0.0796674
0.413779 0.518868 0.0781872
0.439826 0.51989 0.0776074
0.4663 0.520745 0.0779889
0.492897 0.521523 0.0787976
0.519402 0.522377 0.0790723
0.545769 0.523323 0.0781567
0.572152 0.524376 0.075761
0.598795 0.525353 0.0730755
0.625803 0.52607 0.0729076
0.652735 0.526558 0.0768902
0.679133 0.526986 0.0840772
0.705043 0.527626 0.0906539
0.730877 0.528481 0.0941482
0.756909 0.529381 0.0959029
0.783078 0.530282 0.096788
0.809216 0.531182 0.0976577
0.83537 0.532097 0.0985275
0.861524 0.532998 0.099382
0.887663 0.533913 0.100252
0.914137 0.534737 0.10103
0.0754101 0.535286 0.0754101
0.102876 0.535821 0.0762493
0.129564 0.536583 0.0771954
0.1561 0.537377 0.0781415
0.182559 0.538201 0.0790875
0.208972 0.53904 0.0800183
0.23534 0.539895 0.0809644
0.261677 0.540749 0.0818799
0.287999 0.541604 0.0828107
0.314305 0.542473 0.0837262
0.340581 0.543359 0.0846418
0.366781 0.544259 0.0853742
0.39266 0.545312 0.0853742
0.418158 0.546502 0.084947
0.443595 0.547784 0.08336
0.469383 0.548943 0.0821546
0.495644 0.549889 0.0819409
0.522179 0.550698 0.0825666
0.54873 0.551507 0.0831769
0.575189 0.552392 0.082948
0.601633 0.553338 0.0817273
0.62829 0.554192 0.0810712
0.6551 0.554833 0.0829328
0.681697 0.555367 0.0877699
0.707881 0.555978 0.0932479
0.733883 0.556786 0.0966812
0.759899 0.557656 0.0987259
0.786038 0.558556 0.0997635
0.812192 0.559472 0.100633
0.838331 0.560372 0.101503
0.864485 0.561273 0.102373
0.890623 0.562188 0.103243
0.917082 0.562997 0.104021
0.0783551 0.563638 0.0783551
0.105837 0.564157 0.0791943
0.13254 0.564904 0.0801404
0.159091 0.565698 0.0810864
0.18555 0.566522 0.0820172
0.211963 0.567361 0.0829633
0.238331 0.5682 0.0838941
0.264668 0.569055 0.0848249
0.29099 0.569924 0.0857557
0.317296 0.570779 0.0866712
0.343572 0.571664 0.0875868
0.369848 0.572534 0.0885023
0.396109 0.573419 0.0894026
0.422171 0.57438 0.0898451
0.447898 0.575448 0.0899062
0.473411 0.576699 0.0886549
0.499046 0.577905 0.087129
0.525063 0.578973 0.0862593
0.551461 0.579858 0.0863966
0.578012 0.580652 0.0870375
0.604547 0.581476 0.0874952
0.631113 0.582284 0.087953
0.65774 0.583017 0.0892653
0.684337 0.583658 0.0922255
0.710689 0.584298 0.0961624
0.736828 0.585061 0.0995193
0.76289 0.585946 0.101442
0.788998 0.586831 0.102739
0.815152 0.587732 0.103609
0.841306 0.588647 0.104479
0.867445 0.589548 0.105364
0.893584 0.590448 0.106233
0.920043 0.591272 0.107012
0.0812848 0.591974 0.0812848
0.108812 0.592477 0.0821241
0.135515 0.593225 0.0830701
0.162066 0.594018 0.0840162
0.18854 0.594842 0.0849622
0.214954 0.595666 0.085893
0.241321 0.596506 0.0868238
0.267659 0.59736 0.0877546
0.29398 0.598215 0.0886854
0.320287 0.599084 0.0896162
0.346578 0.599954 0.0905318
0.372839 0.600824 0.0914473
0.3991 0.601709 0.0923629
0.425345 0.602579 0.0932631
0.451514 0.603494 0.0939803
0.47747 0.604517 0.0940719
0.50312 0.605631 0.0937819
0.528725 0.606851 0.0923171
0.554589 0.60798 0.0910048
0.580804 0.608957 0.0905165
0.607279 0.609796 0.090898
0.63386 0.610574 0.091722
0.660456 0.611307 0.09308
0.687053 0.611994 0.0954452
0.713512 0.61265 0.0988022
0.739742 0.613367 0.10219
0.765881 0.614221 0.104189
0.791974 0.615091 0.105714
0.818128 0.616007 0.106584
0.844266 0.616907 0.107454
0.870405 0.617807 0.108339
0.896544 0.618708 0.109209
0.923018 0.619532 0.109941
0.0840162 0.620371 0.0839551
0.111238 0.621012 0.0842145
0.137285 0.622019 0.0842298
0.162951 0.623133 0.0841382
0.188571 0.624231 0.0845197
0.214343 0.625299 0.0846876
0.240253 0.626322 0.0849165
0.266316 0.627298 0.0852522
0.292485 0.628229 0.0856641
0.318746 0.629129 0.0861677
0.345068 0.630014 0.086717
0.371481 0.630854 0.0873884
0.398398 0.631495 0.0889448
0.425742 0.631937 0.0914626
0.453315 0.632258 0.094789
0.4804 0.632822 0.0969406
0.506844 0.6336 0.0983902
0.532708 0.634638 0.0984665
0.558373 0.635782 0.0975509
0.584146 0.636957 0.0960708
0.610208 0.63801 0.0950179
0.636576 0.638911 0.0948959
0.663127 0.639689 0.0957809
0.689754 0.64036 0.0979934
0.716304 0.641001 0.101259
0.742657 0.641672 0.104845
0.768841 0.642496 0.106996
0.794949 0.643351 0.108675
0.821088 0.644251 0.10956
0.847242 0.645167 0.11043
0.873381 0.646067 0.111315
0.899596 0.646967 0.111803
0.926421 0.647745 0.111376
0.0845045 0.649638 0.0837873
0.110567 0.650706 0.0826581
0.135927 0.651911 0.082414
0.161563 0.653025 0.0825208
0.187793 0.653925 0.0831464
0.214191 0.654765 0.0838788
0.240665 0.655589 0.0846723
0.26717 0.656397 0.0854963
0.293706 0.657191 0.0862898
0.320241 0.658 0.0870985
0.346792 0.658778 0.0879072
0.373358 0.659571 0.0887312
0.400183 0.660258 0.0899977
0.427512 0.660716 0.0923018
0.455222 0.66099 0.0956588
0.482795 0.661295 0.0991073
0.509773 0.661891 0.101198
0.536141 0.662699 0.102571
0.562142 0.663691 0.102724
0.58793 0.664759 0.102556
0.613703 0.665904 0.101259
0.639658 0.667018 0.0999008
0.665934 0.667964 0.099443
0.6925 0.668696 0.100877
0.719097 0.669337 0.103868
0.745541 0.669963 0.107546
0.771801 0.670756 0.109819
0.797925 0.671611 0.11162
0.824063 0.672511 0.11252
0.850202 0.673411 0.113405
0.876341 0.674311 0.114275
0.90248 0.675212 0.115114
0.929183 0.67602 0.1149
0.0879377 0.67776 0.0873732
0.113725 0.67895 0.0856336
0.138796 0.680247 0.0852369
0.164248 0.681422 0.0851606
0.190555 0.682292 0.0858778
0.217014 0.683116 0.086717
0.243503 0.683925 0.087541
0.269993 0.684733 0.0883497
0.296513 0.685527 0.0891585
0.323033 0.686336 0.0899672
0.349584 0.687129 0.0907759
0.37612 0.687907 0.0915999
0.402701 0.688685 0.0924392
0.429786 0.689265 0.0942092
0.457313 0.689632 0.0970169
0.485145 0.689845 0.100832
0.512459 0.690303 0.10341
0.539132 0.690959 0.105547
0.565362 0.691829 0.106554
0.59147 0.692775 0.107042
0.617395 0.693797 0.106935
0.643214 0.694881 0.106386
0.669169 0.695964 0.105257
0.695445 0.696864 0.105379
0.721965 0.697581 0.107317
0.74844 0.698238 0.110521
0.774746 0.699031 0.112718
0.8009 0.699855 0.114565
0.827039 0.700755 0.115496
0.853178 0.701656 0.116365
0.879316 0.702556 0.11725
0.90544 0.703456 0.11812
0.932067 0.704265 0.118105
0.0911574 0.705959 0.0906539
0.117021 0.707118 0.0889754
0.141955 0.708476 0.0883803
0.167254 0.709697 0.0881666
0.193408 0.710613 0.0887312
0.219867 0.711437 0.0895705
0.246342 0.712245 0.0904097
0.272831 0.713054 0.0912184
0.299336 0.713863 0.0920272
0.325841 0.714656 0.0928511
0.352377 0.71545 0.0936599
0.378912 0.716243 0.0944686
0.405463 0.717037 0.0952926
0.432258 0.717708 0.0965438
0.459586 0.718166 0.0988785
0.487327 0.718441 0.102281
0.514931 0.71873 0.105791
0.541939 0.71931 0.107942
0.568368 0.720073 0.10956
0.594568 0.720958 0.11046
0.620706 0.721874 0.111147
0.646738 0.72285 0.111345
0.672679 0.723857 0.111467
0.698772 0.724819 0.111498
0.725048 0.725673 0.112413
0.751431 0.726452 0.114199
0.777707 0.72726 0.115953
0.803876 0.728099 0.117525
0.830014 0.729 0.118456
0.856153 0.7299 0.119341
0.882277 0.7308 0.120211
0.908415 0.731701 0.121096
0.934874 0.732509 0.121889
0.0953536 0.733776 0.0951858
0.121828 0.734707 0.0942245
0.146532 0.736217 0.0926375
0.171099 0.737652 0.0921035
0.196506 0.738857 0.0918441
0.222721 0.739757 0.0924392
0.24918 0.740566 0.0932631
0.275669 0.741375 0.0940871
0.302159 0.742184 0.0949111
0.328664 0.742977 0.0957198
0.355184 0.74377 0.0965286
0.381704 0.744564 0.0973526
0.40824 0.745357 0.0981613
0.434821 0.746136 0.0990463
0.461936 0.746685 0.100908
0.489509 0.747021 0.103853
0.517372 0.747219 0.107729
0.544671 0.747677 0.110292
0.571328 0.748348 0.112398
0.597543 0.749203 0.11342
0.623728 0.750103 0.114305
0.649882 0.750988 0.115129
0.676005 0.751919 0.115724
0.702144 0.752834 0.116335
0.728298 0.753735 0.117067
0.754513 0.754604 0.118212
0.780697 0.755459 0.119402
0.806851 0.756344 0.120531
0.83299 0.757229 0.121416
0.859129 0.758129 0.122301
0.885252 0.75903 0.123186
0.911391 0.75993 0.124056
0.937835 0.760739 0.124849
0.098909 0.761822 0.098909
0.126467 0.762325 0.0995346
0.152438 0.763363 0.0992905
0.17734 0.764767 0.0981918
0.201526 0.766369 0.0970932
0.226398 0.767758 0.0962387
