public/filters/konnect/Presets C Medium Skin Tone/Stylish v3_38.Med Skin 1.cube
TITLE "Generated by Resolve"
LUT_3D_SIZE 9
0.048661 0.097322 0.188998
0.15259 0.0952621 0.186969
0.253285 0.0876936 0.180468
0.354604 0.075349 0.170886
0.450568 0.0404212 0.154574
0.537011 0.0101625 0.126513
0.691234 0.0246738 0.135775
0.850584 0.063447 0.158953
0.976318 0.059678 0.154925
0.0424353 0.196078 0.182925
0.146548 0.194232 0.181277
0.250492 0.188586 0.176913
0.344396 0.172091 0.165545
0.425498 0.140887 0.143816
0.528771 0.118379 0.126543
0.669429 0.119738 0.125795
0.841856 0.161898 0.153567
0.972747 0.165362 0.154604
0.0294957 0.300847 0.170489
0.135088 0.299916 0.169741
0.244739 0.298177 0.167971
0.353048 0.291142 0.163546
0.451301 0.270466 0.152529
0.548394 0.241276 0.136324
0.662364 0.220401 0.122698
0.827695 0.261616 0.141436
0.964843 0.275807 0.147311
0.0114443 0.411215 0.153063
0.116716 0.409888 0.152621
0.22623 0.407752 0.151125
0.33492 0.399954 0.147509
0.446387 0.390021 0.142748
0.558495 0.374929 0.135775
0.670161 0.350774 0.124788
0.811841 0.367742 0.127611
0.950744 0.38941 0.133333
0 0.525307 0.131304
0.0945754 0.52462 0.131502
0.204364 0.522057 0.130449
0.31548 0.515831 0.128206
0.425513 0.502144 0.124224
0.539071 0.485847 0.119066
0.660014 0.472648 0.113573
0.792294 0.475288 0.110658
0.931533 0.504524 0.11426
0 0.641215 0.105898
0.0680095 0.643015 0.106767
0.178988 0.63975 0.106294
0.29247 0.635904 0.105058
0.408728 0.630121 0.103151
0.527565 0.622019 0.100603
0.650156 0.613825 0.0974594
0.775341 0.601907 0.0934462
0.908919 0.62237 0.0919509
0 0.760937 0.07776
0.0423133 0.768566 0.0786908
0.150851 0.7608 0.0790875
0.263676 0.754253 0.0787518
0.379126 0.744366 0.0780346
0.500999 0.740658 0.0761273
0.628458 0.746838 0.0730144
0.75462 0.74023 0.0703899
0.883696 0.74641 0.0669108
0 0.883894 0.046952
0.0105287 0.893858 0.0474098
0.121248 0.888731 0.0483711
0.235035 0.881788 0.0489052
0.351125 0.869383 0.0497444
0.472053 0.858915 0.0496223
0.600107 0.872206 0.0447242
0.72726 0.876204 0.0412146
0.855406 0.874098 0.0383764
0 1 0.0125124
0 1 0.0133364
0.0879683 1 0.0143587
0.202792 1 0.0153811
0.321004 0.99968 0.0161898
0.443549 0.993225 0.0156252
0.56939 1 0.0116426
0.695094 1 0.00726329
0.823224 1 0.00491341
0.0387579 0.093492 0.269078
0.148577 0.0941024 0.269306
0.253925 0.088304 0.264668
0.355612 0.0757153 0.255756
0.457679 0.0461891 0.243351
0.56112 0.0244755 0.226963
0.684092 0.0187381 0.217899
0.841184 0.0475929 0.235462
0.970779 0.0483406 0.233143
0.0380865 0.193698 0.26479
0.143069 0.192981 0.263645
0.253544 0.190982 0.26157
0.351507 0.177157 0.252262
0.452796 0.160616 0.240772
0.565408 0.147127 0.230869
0.686 0.135012 0.221805
0.834897 0.151888 0.232059
0.971817 0.162325 0.237339
0.0294499 0.300694 0.25417
0.134295 0.299901 0.253208
0.244404 0.298268 0.251499
0.347066 0.286305 0.244968
0.452445 0.271519 0.236728
0.558068 0.25069 0.224872
0.674922 0.234134 0.214176
0.818891 0.24741 0.218662
0.964721 0.274022 0.230564
0.0118715 0.409949 0.236942
0.118013 0.411215 0.236973
0.227283 0.40885 0.235325
0.335286 0.400336 0.231434
0.443534 0.386572 0.225513
0.554192 0.368872 0.21767
0.670939 0.350835 0.208774
0.800504 0.344549 0.203357
0.949264 0.382315 0.214939
0 0.51957 0.214893
0.0960861 0.526009 0.216159
0.205707 0.523308 0.214939
0.317052 0.517418 0.212634
0.425269 0.501122 0.208057
0.541939 0.489265 0.203601
0.665064 0.48043 0.1991
0.790219 0.466743 0.192874
0.930114 0.49276 0.195895
0 0.629374 0.189883
0.0697032 0.644587 0.191745
0.179828 0.639887 0.191012
0.293477 0.636393 0.189685
0.407691 0.62681 0.187518
0.52639 0.617472 0.184787
0.649439 0.60853 0.181476
0.775647 0.596918 0.177325
0.908507 0.604547 0.17467
0 0.746822 0.163363
0.0416419 0.766613 0.164111
0.152102 0.760937 0.164279
0.264622 0.753872 0.163851
0.380072 0.743816 0.163012
0.500175 0.734234 0.161456
0.627573 0.736614 0.158572
0.755917 0.735531 0.15552
0.885817 0.728328 0.152285
0 0.87306 0.134142
0.0115053 0.890974 0.133608
0.12314 0.889616 0.134051
0.235981 0.879713 0.135119
0.351843 0.866133 0.136324
0.472038 0.850187 0.137316
0.600336 0.856123 0.133425
0.729503 0.872038 0.127626
0.859022 0.865675 0.125277
0 1 0.100771
0 1 0.10045
0.0902571 1 0.10074
0.204257 1 0.104036
0.322972 0.998947 0.105028
0.445563 0.98967 0.105989
0.572229 0.987991 0.103929
0.698665 1 0.0959182
0.826688 1 0.0925307
0.0359655 0.0920729 0.355581
0.144244 0.0926833 0.355779
0.256733 0.0899062 0.353567
0.350866 0.0719615 0.341558
0.451713 0.0401007 0.328359
0.553063 0.0184787 0.31046
0.671687 0.0106508 0.297856
0.828824 0.030808 0.3131
0.969848 0.0457618 0.3205
0.0356756 0.192294 0.351431
0.140078 0.191882 0.350408
0.254963 0.192218 0.349691
0.352132 0.177737 0.340169
0.449241 0.15787 0.32668
0.560983 0.143206 0.31603
0.681254 0.130022 0.306386
0.822919 0.135485 0.309819
0.970031 0.157382 0.322713
0.0268254 0.298116 0.340749
0.134173 0.300267 0.340948
0.246357 0.300084 0.339849
0.35462 0.292866 0.33547
0.448142 0.267308 0.322377
0.552895 0.244968 0.30959
0.669291 0.226917 0.297948
0.807904 0.230228 0.297383
0.961807 0.266026 0.314382
0.0100099 0.404486 0.323171
0.119387 0.412604 0.325231
0.22855 0.410208 0.323537
0.338674 0.403845 0.320226
0.43798 0.379812 0.310994
0.549798 0.362478 0.303059
0.665827 0.342031 0.293065
0.794781 0.332082 0.286107
0.945617 0.369116 0.297795
0 0.509102 0.300862
0.0984054 0.528313 0.304753
0.207889 0.525719 0.303456
0.31899 0.519615 0.30103
0.425849 0.50132 0.295872
0.538277 0.48217 0.28986
0.661173 0.470893 0.284688
0.788907 0.46009 0.27892
0.927596 0.476417 0.279744
0 0.615381 0.276707
0.0711986 0.646021 0.280324
0.182208 0.642802 0.279561
0.295796 0.639277 0.278172
0.411719 0.632822 0.276066
0.524468 0.611521 0.272419
0.647425 0.599908 0.268742
0.773434 0.582223 0.263676
0.907729 0.583215 0.26006
0 0.738094 0.251972
0.0416419 0.765881 0.252918
0.156237 0.768124 0.252644
0.266377 0.755749 0.252369
0.382086 0.746303 0.251347
0.499672 0.729274 0.250126
0.626825 0.727382 0.24741
0.75668 0.727275 0.244205
0.887984 0.720623 0.240757
0 0.861173 0.224308
0.0115053 0.886137 0.223331
0.125658 0.893812 0.222553
0.237537 0.880568 0.224094
0.353246 0.86627 0.22536
0.473274 0.848539 0.226581
0.601068 0.845792 0.224231
0.731655 0.864256 0.217914
0.862089 0.860761 0.214984
0 1 0.191348
0 1 0.190875
0.092668 1 0.188952
0.206607 1 0.192599
0.324742 0.998825 0.195026
0.447593 0.990555 0.195758
0.574685 0.982177 0.195773
0.702358 0.997345 0.188098
0.831312 0.999741 0.184054
0.0332647 0.0903029 0.445579
0.14258 0.0923018 0.446769
0.261814 0.0926986 0.446876
0.370962 0.0853895 0.441901
0.467414 0.0548257 0.427893
0.568841 0.0301061 0.411399
0.673289 0.0113832 0.390539
0.821958 0.0232242 0.398901
0.967712 0.0413825 0.40972
0.0348669 0.191867 0.442267
0.140047 0.192233 0.441627
0.256855 0.193683 0.441611
0.366873 0.188251 0.437507
0.465568 0.170291 0.425711
0.567849 0.148775 0.410986
0.678187 0.12668 0.395346
0.817716 0.128328 0.396582
0.967453 0.151019 0.410758
0.0242161 0.295338 0.430808
0.1337 0.300237 0.432166
0.24715 0.300908 0.431434
0.361044 0.298573 0.429175
0.462287 0.280507 0.419745
0.564691 0.256733 0.406607
0.673777 0.231449 0.391409
0.805371 0.22565 0.386007
0.959167 0.258854 0.402075
0.0091249 0.401465 0.413657
0.120012 0.413321 0.416907
0.231769 0.413352 0.41593
0.346471 0.411948 0.41416
0.456458 0.400778 0.40911
0.556924 0.370825 0.397177
0.669841 0.346731 0.38587
0.796933 0.334234 0.377981
0.945159 0.365026 0.387579
0 0.504509 0.39144
0.101396 0.531289 0.397024
0.212024 0.530495 0.395987
0.325475 0.527581 0.394125
0.43769 0.51751 0.390494
0.542611 0.487861 0.38233
0.662303 0.471031 0.375906
0.787335 0.452766 0.36817
0.927672 0.471061 0.36968
0 0.613077 0.368139
0.0724346 0.64683 0.372335
0.187182 0.649943 0.371969
0.300755 0.64654 0.370504
0.416159 0.63975 0.368353
0.52929 0.619944 0.364645
0.649256 0.601648 0.360327
0.774853 0.581735 0.354894
0.909209 0.58088 0.35111
0 0.732326 0.343816
0.0422065 0.766003 0.345098
0.15967 0.773922 0.344625
0.272435 0.767391 0.343862
0.389029 0.761059 0.342596
0.506569 0.746517 0.341146
0.627894 0.726192 0.339193
0.757977 0.724071 0.336065
0.889998 0.718883 0.332525
0 0.854963 0.317128
0.0122988 0.885405 0.315862
0.128939 0.90135 0.31397
0.243305 0.896208 0.313924
0.35906 0.883543 0.314672
0.47866 0.868482 0.315267
0.602899 0.847364 0.316152
0.733639 0.860029 0.310872
0.865797 0.85069 0.308598
0 1 0.284337
0 1 0.283497
0.0946975 1 0.280827
0.210224 1 0.281315
0.327886 1 0.284016
0.449729 0.997162 0.286702
0.576715 0.982483 0.28867
0.705379 0.992523 0.282445
0.834424 0.997803 0.277485
0.0319829 0.0890364 0.538903
0.138705 0.0920272 0.540749
0.261814 0.092668 0.541039
0.37612 0.0891127 0.538338
0.483726 0.0732891 0.530404
0.593423 0.0553597 0.520317
0.703685 0.0355383 0.506355
0.8271 0.0281987 0.497673
0.965164 0.0367895 0.501137
0.0315862 0.189487 0.534737
0.139498 0.192264 0.5355
0.25742 0.194217 0.535836
0.372503 0.192355 0.533852
0.484138 0.184924 0.528527
0.586969 0.165377 0.515663
0.696284 0.144259 0.501381
0.821027 0.131914 0.493126
0.966567 0.148196 0.503487
0.022034 0.292851 0.523674
0.133349 0.300221 0.526162
0.247944 0.301701 0.525795
0.36318 0.300526 0.524071
0.475807 0.293477 0.519615
0.58175 0.274693 0.509346
0.691661 0.252491 0.496406
0.815717 0.240024 0.487816
0.960159 0.259556 0.49659
0.0084535 0.399084 0.507012
0.120333 0.413718 0.511238
0.232776 0.414328 0.51043
0.348165 0.413657 0.508904
0.464439 0.409979 0.506233
0.571679 0.389746 0.497856
0.682353 0.364797 0.486656
0.804593 0.347097 0.477058
0.946654 0.366629 0.482338
0 0.508141 0.486564
0.100343 0.530159 0.491218
0.213016 0.531441 0.490593
0.32842 0.530983 0.489204
0.445731 0.528435 0.487098
0.560403 0.516258 0.482734
0.670329 0.485069 0.473396
0.791882 0.461463 0.464424
0.930205 0.476493 0.465324
0 0.61767 0.463157
0.0737774 0.647196 0.467002
0.18941 0.65272 0.466835
0.304372 0.651576 0.465522
0.421469 0.648249 0.46363
0.538247 0.637446 0.460685
0.652873 0.608347 0.455314
0.778683 0.591348 0.450263
0.911803 0.58941 0.446555
0 0.73257 0.438437
0.0432136 0.766674 0.439948
0.161517 0.776333 0.43946
0.276448 0.774578 0.438437
0.393927 0.770962 0.437018
0.513207 0.76347 0.435279
0.633127 0.743114 0.433326
0.759899 0.726848 0.430533
0.892042 0.711833 0.426902
0 0.85977 0.411704
0.0138552 0.8878 0.410697
0.130312 0.902358 0.409033
0.246021 0.901808 0.408209
0.362982 0.894148 0.408026
0.483711 0.887663 0.407126
0.60737 0.876371 0.406424
0.735393 0.862516 0.405447
0.868421 0.847837 0.403815
0 1 0.380118
0 1 0.378988
0.0962844 1 0.375952
0.212634 1 0.374792
0.331106 1 0.375051
0.452247 1 0.376928
0.577737 1 0.378073
0.707027 0.99556 0.377035
0.836805 0.997971 0.3729
0.0376745 0.0920424 0.637903
0.141909 0.0932631 0.638193
0.262242 0.0927901 0.637629
0.377127 0.0899519 0.635248
0.491768 0.0834211 0.630945
0.605997 0.0716411 0.624262
0.722805 0.0592813 0.616449
0.844068 0.0496986 0.608942
0.970596 0.044892 0.603571
0.0336767 0.191073 0.631907
0.139391 0.192508 0.631815
0.257862 0.194598 0.632303
0.373129 0.192874 0.630442
0.489052 0.188861 0.627161
0.601144 0.178241 0.619867
0.716594 0.165682 0.611383
0.840909 0.158053 0.606088
0.970596 0.155169 0.603952
0.0250706 0.2963 0.621546
0.133761 0.300694 0.62266
0.248631 0.302327 0.6224
0.363958 0.301228 0.620737
0.480888 0.298314 0.618128
0.596918 0.291081 0.613413
0.708812 0.273762 0.603494
0.831754 0.264088 0.596918
0.963989 0.26656 0.596674
0.0120699 0.406943 0.606149
0.120195 0.413672 0.607691
0.233188 0.41471 0.607034
0.349111 0.414557 0.605676
0.466545 0.412253 0.603433
0.583124 0.404837 0.599359
0.692668 0.380362 0.5888
0.81677 0.369772 0.582391
0.952056 0.379858 0.584146
0 0.51838 0.585595
0.100816 0.53051 0.587945
0.213809 0.532143 0.587396
0.329519 0.532067 0.586069
0.447349 0.530236 0.584115
0.566827 0.526406 0.581537
0.680751 0.505074 0.574731
0.801038 0.483543 0.56672
0.934981 0.492729 0.566384
0 0.630335 0.561624
0.0768597 0.650675 0.564218
0.190585 0.653895 0.563821
0.305806 0.653162 0.562524
0.423987 0.651743 0.5608
0.544305 0.649042 0.558679
0.663951 0.637034 0.555291
0.782803 0.603021 0.548455
0.914137 0.597482 0.544381
0 0.746349 0.535836
0.0470893 0.771557 0.537026
0.162875 0.777783 0.536522
0.278462 0.777447 0.535439
0.396811 0.776013 0.533928
0.517128 0.772519 0.532113
0.638773 0.763012 0.530007
0.760525 0.717784 0.527291
0.893736 0.719188 0.523796
0 0.865522 0.508431
0.0162203 0.892943 0.507454
0.131746 0.904005 0.506157
0.247791 0.904494 0.505165
0.366033 0.901701 0.504158
0.486763 0.897322 0.502937
0.610224 0.891905 0.501411
0.736797 0.874418 0.501015
0.869276 0.85568 0.499962
0 0.997681 0.47805
0 1 0.475731
0.0978408 1 0.473014
0.214176 1 0.471931
0.333074 1 0.471122
0.454246 1 0.47158
0.578637 1 0.470375
0.705211 1 0.468132
0.84004 0.994705 0.471321
0.0469368 0.0972915 0.740398
0.151507 0.0959029 0.738598
0.26389 0.0936294 0.736645
0.37734 0.0899825 0.733745
0.493599 0.0855726 0.730297
0.611933 0.0799878 0.726207
0.731334 0.0720073 0.720928
0.854765 0.0669108 0.716655
0.97641 0.0547494 0.708309
0.0416266 0.196857 0.73373
0.144778 0.195392 0.731777
0.259419 0.195636 0.731167
0.373587 0.193225 0.728893
0.490181 0.189746 0.725963
0.608103 0.184634 0.721996
0.727214 0.177432 0.716777
0.85185 0.173495 0.713527
0.976043 0.165408 0.708003
0.0316014 0.30312 0.723064
0.13576 0.30219 0.721584
0.249378 0.302983 0.720958
0.364614 0.301808 0.719295
0.481682 0.299016 0.716762
0.600839 0.295216 0.713664
0.718364 0.285832 0.707744
0.842847 0.281407 0.704128
0.971145 0.281163 0.702617
0.0163577 0.414908 0.707362
0.119524 0.413153 0.705882
0.233829 0.41529 0.705608
0.349935 0.415335 0.704341
0.46743 0.413077 0.702129
0.587381 0.410224 0.69958
0.706996 0.402838 0.695277
0.828122 0.391882 0.689326
0.957916 0.395087 0.688685
0 0.530816 0.687221
0.102937 0.532662 0.686976
0.21474 0.533028 0.686137
0.33048 0.532982 0.68484
0.448356 0.531197 0.682902
0.568734 0.528878 0.680629
0.688685 0.520714 0.676875
0.809308 0.504707 0.67071
0.939788 0.510613 0.669886
0 0.645579 0.662547
0.0797894 0.654322 0.663386
0.191226 0.654261 0.662608
0.306905 0.654231 0.661372
0.425116 0.652857 0.659663
0.545815 0.650919 0.657618
0.66804 0.646845 0.655131
0.788083 0.621714 0.649699
0.917464 0.618799 0.646357
0 0.763073 0.635462
0.0513771 0.776989 0.636027
0.16405 0.778958 0.635477
0.279652 0.778637 0.634363
0.398199 0.77763 0.632853
0.519173 0.776043 0.631006
0.642191 0.77377 0.628885
0.766064 0.759136 0.626459
0.894697 0.741421 0.623224
0 0.872206 0.607034
0.0196689 0.90132 0.605829
0.133196 0.905898 0.605097
0.249119 0.905898 0.604166
0.367941 0.905226 0.602823
0.489067 0.903456 0.601221
0.612345 0.900832 0.599374
0.737926 0.889494 0.59826
0.870848 0.858305 0.598703
0 1 0.575082
0 1 0.573602
0.0993362 1 0.571817
0.215549 1 0.571023
0.334615 1 0.569848
0.455985 1 0.568933
0.579782 1 0.567315
0.705425 1 0.565072
0.840314 1 0.569116
0.0499275 0.0989548 0.841871
0.155032 0.0967269 0.839384
0.264271 0.0937057 0.836866
0.377478 0.0899214 0.833875
0.493828 0.0856184 0.830488
0.612772 0.0808728 0.826795
0.733822 0.0756542 0.822782
0.857038 0.0705272 0.818677
0.981384 0.0639963 0.813794
0.0448157 0.1991 0.835157
0.149889 0.197864 0.833265
0.260395 0.196262 0.83151
0.373953 0.193469 0.829007
0.490623 0.190051 0.826123
0.609857 0.186175 0.822934
0.731273 0.181857 0.81944
0.854704 0.177325 0.815778
0.979171 0.171115 0.81117
0.0344854 0.305959 0.824475
0.139971 0.305028 0.822889
0.250904 0.304219 0.821515
0.365179 0.302281 0.819501
0.482307 0.299535 0.817014
0.601968 0.296284 0.814191
0.723201 0.291798 0.810712
0.847105 0.2878 0.807401
0.972976 0.284108 0.804196
0.018265 0.417945 0.808606
0.123903 0.416922 0.807233
0.235538 0.416938 0.80621
0.350668 0.415991 0.804639
0.468223 0.413779 0.802472
0.588281 0.411048 0.799969
0.710338 0.40763 0.797101
0.833997 0.403098 0.793713
0.960296 0.400244 0.79089
0 0.534432 0.788418
0.104433 0.534173 0.787549
0.215641 0.533898 0.786542
0.33135 0.533806 0.785229
0.449287 0.532052 0.783322
0.569696 0.529778 0.781079
0.692164 0.526909 0.778531
0.816388 0.523186 0.775631
0.942687 0.520287 0.772808
0 0.653361 0.764157
0.0807813 0.655329 0.763897
0.192218 0.655238 0.763088
0.307897 0.655177 0.761852
0.426154 0.653849 0.760159
0.546883 0.651957 0.758129
0.669718 0.649592 0.75584
0.793469 0.642557 0.752758
0.920394 0.639536 0.749935
0 0.777417 0.736828
0.0531014 0.7794 0.736645
0.165118 0.779995 0.736049
0.280766 0.779721 0.734936
0.399329 0.778744 0.733425
0.520333 0.777203 0.731594
0.643427 0.775189 0.729473
0.768307 0.772015 0.727138
0.89514 0.766125 0.724498
0 0.900053 0.706416
0.0219883 0.906111 0.706203
0.134356 0.907042 0.70576
0.250309 0.907088 0.704799
0.369162 0.906447 0.703456
0.490425 0.905226 0.701778
0.613764 0.903532 0.69984
0.738964 0.901015 0.697719
0.866194 0.896498 0.695537
0 1 0.673594
0 1 0.673274
0.100587 1 0.672541
0.216831 1 0.671733
0.335943 1 0.670527
0.45745 1 0.668986
0.581018 1 0.667185
0.706401 1 0.665156
0.835492 1 0.664591
0.0494392 0.0985733 0.943404
0.154818 0.0964218 0.940871
0.264195 0.0934768 0.938384
0.377539 0.0897841 0.935454
0.49398 0.0855573 0.932143
0.613016 0.0809186 0.928527
0.734249 0.0759594 0.924651
0.85742 0.0707408 0.920562
0.982315 0.0652781 0.916274
0.0450904 0.199359 0.936858
0.150851 0.198276 0.935012
0.260578 0.196353 0.933043
0.374228 0.193622 0.930587
0.490974 0.190265 0.927749
0.6103 0.18645 0.924605
0.731823 0.182254 0.921202
0.855268 0.177737 0.917571
0.980423 0.172946 0.913756
0.034699 0.306264 0.926192
0.141222 0.305913 0.924804
0.251514 0.304707 0.923232
0.365652 0.302663 0.921172
0.482856 0.299962 0.918715
0.602579 0.296757 0.915938
0.724483 0.293141 0.912902
0.848295 0.289174 0.909636
0.9738 0.284916 0.906188
0.0186923 0.418463 0.910445
0.125917 0.418662 0.909438
0.236728 0.418036 0.908171
0.351324 0.416541 0.906401
0.468925 0.414374 0.904265
0.589029 0.411688 0.901793
0.711284 0.40856 0.899046
0.835431 0.405081 0.896086
0.961273 0.401266 0.892927
0 0.535027 0.890318
0.105882 0.535683 0.889601
0.217151 0.535546 0.888594
0.332143 0.534508 0.887083
0.450126 0.532815 0.885191
0.570565 0.530556 0.882979
0.693141 0.527871 0.880491
0.817594 0.524788 0.87776
0.943709 0.52137 0.874846
0 0.655329 0.866377
0.0817731 0.656367 0.865888
0.193454 0.656641 0.865095
0.308812 0.656031 0.863798
0.427115 0.654719 0.862104
0.54786 0.652873 0.860105
0.670741 0.650553 0.857816
0.795453 0.647837 0.855314
0.921843 0.644785 0.852613
0 0.778912 0.838972
0.0540322 0.780301 0.838697
0.166094 0.780941 0.838071
0.281773 0.780682 0.836957
0.400381 0.779736 0.835447
0.521416 0.778241 0.833616
0.644556 0.776257 0.831525
0.769528 0.773892 0.829206
0.896147 0.77116 0.826673
0 0.90544 0.808438
0.0230259 0.907118 0.808331
0.135439 0.908095 0.807858
0.251423 0.908171 0.806897
0.370306 0.907546 0.805539
0.4916 0.906371 0.803876
0.614969 0.904707 0.801938
0.740169 0.902632 0.799771
0.867002 0.900206 0.797406
0 1 0.775021
0 1 0.775051
0.101762 1 0.774716
0.218036 1 0.773892
0.337163 1 0.772671
0.458686 1 0.771145
0.582284 1 0.769345
0.707698 1 0.76733
0.834745 1 0.765103
