public/filters/konnect/Presets C Medium Skin Tone/Stylish v3_38.Med Skin 1.cube
TITLE "Generated by Resolve"
LUT_3D_SIZE 33
0.048661 0.097322 0.188998
0.0749981 0.0971542 0.188769
0.100694 0.0967269 0.188342
0.12665 0.0961318 0.187762
0.15259 0.0952621 0.186969
0.178347 0.0940261 0.18587
0.203784 0.0924086 0.184466
0.228809 0.0903334 0.182681
0.253285 0.0876936 0.180468
0.277897 0.0848096 0.178088
0.303059 0.0818494 0.175738
0.32871 0.0787671 0.173358
0.354604 0.075349 0.170886
0.380392 0.0711223 0.168154
0.405264 0.0641184 0.164706
0.428641 0.0500954 0.160204
0.450568 0.0404212 0.154574
0.471427 0.0307927 0.147921
0.491798 0.0218814 0.14049
0.512749 0.0146181 0.132815
0.537011 0.0101625 0.126513
0.567041 0.0087129 0.123201
0.602853 0.00987259 0.123278
0.644511 0.0144961 0.127337
0.691234 0.0246738 0.135775
0.737285 0.038407 0.14519
0.778622 0.050309 0.152163
0.816098 0.0588388 0.15671
0.850584 0.063447 0.158953
0.882765 0.0641489 0.158953
0.913863 0.0626993 0.157641
0.945037 0.0611887 0.156283
0.976318 0.059678 0.154925
0.0479438 0.122042 0.188251
0.0738231 0.121447 0.187701
0.0993515 0.120958 0.187198
0.125231 0.120378 0.186633
0.151492 0.119707 0.185992
0.177981 0.118914 0.185229
0.204349 0.117815 0.184237
0.23035 0.116304 0.18294
0.255924 0.114336 0.181277
0.280873 0.111803 0.179187
0.305287 0.108675 0.176654
0.329641 0.105226 0.173861
0.354162 0.101503 0.170901
0.37847 0.0972915 0.16759
0.402197 0.0923018 0.163729
0.424949 0.0861524 0.159045
0.446113 0.0783246 0.153185
0.465705 0.0686351 0.146029
0.484672 0.057435 0.137987
0.50457 0.0450904 0.129915
0.52694 0.0214542 0.122652
0.55555 0.0143893 0.118486
0.590692 0.0137026 0.117906
0.632074 0.0176394 0.121294
0.679377 0.028275 0.129305
0.728923 0.0467536 0.140444
0.773083 0.0644846 0.149111
0.812375 0.0781262 0.154894
0.848051 0.0866102 0.158083
0.881071 0.0898604 0.158923
0.912337 0.0888533 0.157824
0.943526 0.0874037 0.156527
0.974807 0.0859541 0.1552
0.0466011 0.146304 0.186938
0.0725414 0.145708 0.186435
0.0981155 0.145266 0.185992
0.124041 0.144747 0.185473
0.150347 0.144137 0.184878
0.176989 0.143465 0.184222
0.203952 0.142718 0.183505
0.2309 0.141741 0.18262
0.25745 0.140337 0.18143
0.283284 0.138308 0.179767
0.308095 0.135439 0.177523
0.331533 0.131487 0.174472
0.353826 0.126497 0.170657
0.375494 0.120729 0.166262
0.396796 0.114305 0.161334
0.417777 0.10721 0.155871
0.438514 0.0994583 0.149859
0.4589 0.090959 0.143206
0.479377 0.0819867 0.136095
0.500587 0.0729534 0.128878
0.523598 0.0645304 0.122118
0.551476 0.0586404 0.117617
0.585748 0.0563668 0.116487
0.626245 0.0580148 0.119112
0.67245 0.0643931 0.125917
0.722545 0.0755627 0.136736
0.768841 0.0819867 0.146487
0.809628 0.0975204 0.153155
0.846311 0.108721 0.157046
0.880095 0.114443 0.158572
0.911864 0.114916 0.158038
0.943069 0.113512 0.156771
0.97438 0.112108 0.155505
0.0447395 0.170962 0.185138
0.0708019 0.170413 0.18471
0.0964523 0.170031 0.184329
0.122438 0.169574 0.183871
0.148791 0.169024 0.183337
0.175433 0.168383 0.182727
0.202258 0.167605 0.181994
0.229114 0.166598 0.181109
0.255711 0.165225 0.17998
0.28159 0.16318 0.178393
0.30631 0.160189 0.176165
0.329549 0.155993 0.173114
0.351095 0.150393 0.16907
0.371115 0.143389 0.164034
0.390402 0.135485 0.158267
0.409888 0.12723 0.152178
0.430213 0.119066 0.146029
0.452033 0.111452 0.140169
0.475349 0.104372 0.13463
0.499733 0.0975662 0.129229
0.525292 0.0910811 0.12401
0.553567 0.0860456 0.11989
0.587091 0.0843671 0.118456
0.625895 0.0864881 0.120058
0.669886 0.0932631 0.125292
0.718135 0.105455 0.134386
0.765286 0.119417 0.144289
0.806943 0.12987 0.151293
0.844419 0.136828 0.155657
0.878843 0.140536 0.157702
0.911162 0.141268 0.157748
0.942412 0.13994 0.156542
0.973739 0.138567 0.155306
0.0424353 0.196078 0.182925
0.0686198 0.19559 0.182574
0.0943465 0.195254 0.182239
0.120302 0.194827 0.181827
0.146548 0.194232 0.181277
0.172854 0.193423 0.180575
0.199069 0.192279 0.17966
0.22501 0.190707 0.178454
0.250492 0.188586 0.176913
0.275395 0.185855 0.174975
0.299504 0.182315 0.172534
0.32256 0.177783 0.169421
0.344396 0.172091 0.165545
0.365072 0.165225 0.160876
0.384833 0.15729 0.155428
0.404547 0.148882 0.149554
0.425498 0.140887 0.143816
0.448631 0.133974 0.13872
0.473854 0.128115 0.134249
0.50074 0.123033 0.130266
0.528771 0.118379 0.126543
0.558053 0.11429 0.123156
0.590936 0.112612 0.121508
0.628 0.114183 0.12221
0.669429 0.119738 0.125795
0.714916 0.130098 0.132753
0.76141 0.143511 0.141726
0.803708 0.154467 0.148867
0.841856 0.161898 0.153567
0.876951 0.16614 0.156069
0.909865 0.167544 0.156695
0.94139 0.16669 0.15581
0.972747 0.165362 0.154604
0.0397345 0.221653 0.180331
0.0660258 0.22121 0.180041
0.0918441 0.220935 0.179767
0.117968 0.220584 0.179431
0.143999 0.219913 0.178866
0.169848 0.218814 0.178027
0.195254 0.217136 0.176852
0.219959 0.21471 0.175235
0.243595 0.211261 0.173022
0.266712 0.207156 0.170413
0.289464 0.202472 0.167437
0.312032 0.19733 0.164157
0.334539 0.191775 0.160586
0.357244 0.186007 0.156802
0.379873 0.179782 0.152697
0.402533 0.17319 0.148287
0.425772 0.166567 0.143771
0.450278 0.160494 0.139498
0.476295 0.155123 0.135592
0.5037 0.150423 0.132036
0.532326 0.146288 0.128786
0.562173 0.142763 0.125887
0.594461 0.140932 0.124086
0.630442 0.142138 0.124269
0.670115 0.146868 0.126802
0.713314 0.155764 0.132128
0.758114 0.16788 0.139559
0.80061 0.179232 0.146517
0.839124 0.187137 0.151263
0.874662 0.191913 0.154025
0.908034 0.193988 0.155047
0.939956 0.19379 0.154589
0.971359 0.192493 0.153429
0.0366674 0.247669 0.177386
0.0630503 0.247257 0.177142
0.0889448 0.247028 0.176928
0.115145 0.246738 0.176638
0.141695 0.246372 0.176272
0.168551 0.24593 0.17583
0.195407 0.245212 0.175204
0.222049 0.244068 0.174365
0.248386 0.242466 0.173251
0.274327 0.240299 0.171832
0.299794 0.237522 0.170062
0.325383 0.234546 0.168185
0.351492 0.231678 0.166323
0.378103 0.228901 0.164477
0.40499 0.226062 0.162585
0.431891 0.22295 0.160494
0.458167 0.219013 0.157916
0.483406 0.213825 0.154604
0.507744 0.207446 0.150561
0.531609 0.200168 0.145907
0.555489 0.19234 0.140841
0.580041 0.184543 0.135668
0.607263 0.178668 0.131533
0.638911 0.176532 0.12958
0.674769 0.178408 0.130037
0.714565 0.184726 0.133242
0.756985 0.19498 0.138903
0.798596 0.205798 0.144991
0.836851 0.213611 0.14934
0.872435 0.218616 0.152026
0.906035 0.221057 0.153185
0.938125 0.22118 0.152911
0.969558 0.219959 0.151812
0.0332494 0.274067 0.17409
0.0597391 0.273701 0.173907
0.0857099 0.273518 0.173739
0.111971 0.273274 0.173495
0.138567 0.272969 0.173175
0.165499 0.272572 0.172778
0.192721 0.272129 0.17232
0.220127 0.271534 0.171771
0.247395 0.270588 0.171038
0.274327 0.269123 0.170031
0.300816 0.267079 0.168734
0.326802 0.264347 0.167086
0.352361 0.261006 0.165118
0.377997 0.25742 0.163012
0.403983 0.253803 0.16083
0.430045 0.249912 0.15848
0.455924 0.245502 0.155825
0.481285 0.240253 0.152682
0.505653 0.233661 0.148791
0.529015 0.225635 0.144045
0.551965 0.216632 0.138659
0.575555 0.207568 0.133104
0.601205 0.199893 0.128161
0.631571 0.196338 0.125414
0.666697 0.197391 0.125231
0.706127 0.203311 0.127794
0.749065 0.214191 0.133257
0.792538 0.227436 0.140185
0.832334 0.237461 0.145418
0.86894 0.244068 0.14876
0.903227 0.247684 0.150484
0.935836 0.248722 0.150713
0.967391 0.24773 0.149752
0.0294957 0.300847 0.170489
0.0560769 0.300526 0.170352
0.0821088 0.300389 0.17023
0.108446 0.300191 0.170016
0.135088 0.299916 0.169741
0.162081 0.29958 0.16939
0.189364 0.299168 0.168963
0.216922 0.298711 0.168505
0.244739 0.298177 0.167971
0.272541 0.297383 0.167315
0.300008 0.296086 0.166415
0.326909 0.294057 0.165194
0.353048 0.291142 0.163546
0.378225 0.287083 0.161364
0.402716 0.282063 0.158724
0.426978 0.276463 0.155749
0.451301 0.270466 0.152529
0.47567 0.264057 0.14905
0.500099 0.257191 0.145266
0.524376 0.249653 0.141054
0.548394 0.241276 0.136324
0.572854 0.2327 0.131365
0.598718 0.224887 0.12668
0.628214 0.220325 0.123507
0.662364 0.220401 0.122698
0.700862 0.225483 0.124483
0.743069 0.235813 0.129107
0.786755 0.249683 0.135698
0.827695 0.261616 0.141436
0.86511 0.269642 0.14522
0.899947 0.274327 0.147311
0.932982 0.276204 0.147936
0.964843 0.275807 0.147311
0.0254368 0.327993 0.166567
0.0520943 0.327703 0.166491
0.0782025 0.327596 0.1664
0.10457 0.327428 0.166232
0.131258 0.327184 0.165972
0.158236 0.326848 0.165637
0.185458 0.326406 0.165225
0.212894 0.325841 0.164736
0.240452 0.325093 0.164157
0.268025 0.324102 0.163455
0.295415 0.322683 0.162554
0.322286 0.320562 0.161349
0.348333 0.317418 0.159731
0.373465 0.31313 0.157595
0.397589 0.307561 0.15491
0.420966 0.300832 0.15169
0.444282 0.293568 0.148165
0.468223 0.286366 0.144564
0.492882 0.279362 0.140963
0.51838 0.272648 0.137377
0.544671 0.266194 0.133822
0.571557 0.2598 0.13019
0.599115 0.253574 0.126528
0.628733 0.249042 0.123568
0.662089 0.248463 0.122408
0.699138 0.252247 0.123323
0.739635 0.261021 0.12668
0.782101 0.273808 0.132097
0.823346 0.286671 0.137713
0.861143 0.295659 0.141588
0.896376 0.301213 0.143877
0.929778 0.303868 0.144762
0.961929 0.304143 0.144472
0.0210727 0.355459 0.162356
0.0478065 0.3552 0.16231
0.0739452 0.355123 0.162264
0.100282 0.354955 0.162112
0.126986 0.354696 0.161883
0.153903 0.354299 0.161547
0.180987 0.353704 0.161105
0.208118 0.35288 0.160555
0.235203 0.35169 0.159838
0.262119 0.350088 0.158953
0.288792 0.347951 0.157855
0.31516 0.345235 0.156512
0.341054 0.341787 0.154879
0.3664 0.337453 0.152895
0.391165 0.332189 0.150515
0.415381 0.325933 0.147707
0.439246 0.318853 0.144518
0.463416 0.311559 0.141146
0.488441 0.30457 0.137804
0.514672 0.298329 0.134661
0.54226 0.293004 0.131807
0.570932 0.28838 0.129137
0.60029 0.284047 0.126528
0.630594 0.280339 0.124102
0.663432 0.279362 0.122789
0.699138 0.281956 0.123018
0.737697 0.288792 0.125124
0.778256 0.29955 0.129061
0.81886 0.311986 0.133898
0.856855 0.32166 0.137652
0.892363 0.327993 0.140017
0.926085 0.331441 0.141115
0.958556 0.332448 0.141115
0.0164034 0.38323 0.157855
0.0431678 0.382956 0.157839
0.0692454 0.382864 0.157809
0.0954604 0.382666 0.157671
0.12224 0.382361 0.157443
0.149187 0.381949 0.157137
0.17612 0.381201 0.15668
0.202914 0.380011 0.156054
0.22945 0.378271 0.155215
0.255573 0.37583 0.154116
0.281102 0.372488 0.152712
0.306416 0.368612 0.151095
0.331685 0.364309 0.149294
0.357031 0.359701 0.147356
0.38262 0.35494 0.145312
0.40853 0.350103 0.143191
0.434577 0.34493 0.140902
0.460777 0.339483 0.138445
0.487343 0.333928 0.135866
0.514458 0.328466 0.133257
0.542428 0.323461 0.130724
0.571359 0.319066 0.128344
0.601114 0.315206 0.126085
0.631769 0.311986 0.12401
0.664225 0.310719 0.122637
0.699138 0.312688 0.122499
0.736385 0.318273 0.123812
0.775326 0.32726 0.126574
0.814725 0.338384 0.130327
0.852613 0.348379 0.133776
0.888197 0.355169 0.136019
0.922087 0.359152 0.137163
0.954772 0.360754 0.137346
0.0114443 0.411215 0.153063
0.0381781 0.410941 0.153079
0.0642405 0.41088 0.153079
0.0905776 0.410773 0.152987
0.116716 0.409888 0.152621
0.143893 0.409583 0.152377
0.171206 0.40914 0.152056
0.198703 0.408591 0.151644
0.22623 0.407752 0.151125
0.253651 0.406516 0.150469
0.280949 0.404852 0.14966
0.308049 0.40267 0.148669
0.33492 0.399954 0.147509
0.362005 0.397131 0.146273
0.38967 0.394568 0.145068
0.417853 0.392264 0.143923
0.446387 0.390021 0.142748
0.475074 0.38764 0.141497
0.503502 0.384588 0.140017
0.531258 0.380331 0.138109
0.558495 0.374929 0.135775
0.585565 0.368719 0.133104
0.612802 0.362081 0.130205
0.640604 0.355535 0.12723
0.670161 0.350774 0.124788
0.702495 0.349676 0.123552
0.737285 0.352316 0.123613
0.774014 0.358572 0.125032
0.811841 0.367742 0.127611
0.848981 0.37702 0.130358
0.884215 0.383536 0.132189
0.918013 0.387594 0.133181
0.950744 0.38941 0.133333
0.0061799 0.439292 0.147967
0.0327001 0.438926 0.147982
0.0583963 0.438727 0.147967
0.0842451 0.438437 0.14786
0.111452 0.438087 0.147677
0.138582 0.437675 0.147433
0.165881 0.437201 0.147127
0.193469 0.436698 0.146777
0.221332 0.436179 0.146365
0.249393 0.435569 0.145922
0.27744 0.434653 0.145342
0.305318 0.433249 0.14464
0.332998 0.431327 0.143755
0.360388 0.428779 0.142702
0.38764 0.425727 0.141482
0.415213 0.42269 0.14023
0.443275 0.419852 0.138979
0.471641 0.417029 0.137697
0.500114 0.413947 0.136309
0.528389 0.410208 0.134707
0.556023 0.405142 0.132662
0.583078 0.398672 0.130159
0.609934 0.391241 0.127275
0.637125 0.383459 0.124178
0.665507 0.376669 0.121279
0.696895 0.373892 0.119524
0.731167 0.375616 0.119158
0.767681 0.381567 0.120195
0.805539 0.391043 0.122454
0.84332 0.401953 0.125322
0.879118 0.409979 0.127367
0.913268 0.415106 0.128511
0.946242 0.417731 0.128847
0.000808728 0.467475 0.14258
0.0270542 0.46717 0.142641
0.0525216 0.466896 0.142641
0.0781872 0.46659 0.142565
0.105638 0.466285 0.142428
0.132967 0.46595 0.142245
0.160403 0.465583 0.141985
0.188113 0.465202 0.14168
0.216114 0.464805 0.141344
0.244373 0.464408 0.140963
0.272877 0.463966 0.140536
0.301427 0.463279 0.140032
0.329824 0.462135 0.139391
0.3579 0.460319 0.138582
0.385565 0.457694 0.13756
0.412863 0.454261 0.136324
0.440009 0.450233 0.134936
0.467384 0.446052 0.13344
0.495109 0.441855 0.131899
0.523125 0.437568 0.130282
0.551186 0.432822 0.128496
0.57911 0.427298 0.126436
0.606806 0.420737 0.124041
0.634516 0.413413 0.121355
0.662867 0.406271 0.118608
0.693462 0.402075 0.116564
0.726879 0.402365 0.115724
0.762692 0.407279 0.116213
0.800061 0.41619 0.117906
0.837766 0.42742 0.120409
0.87396 0.436851 0.122515
0.908385 0.44303 0.123751
0.941573 0.446448 0.124208
0 0.496117 0.137026
0.021561 0.496086 0.137194
0.0469215 0.495689 0.137194
0.0724346 0.495323 0.137118
0.0998856 0.494972 0.137011
0.127306 0.494636 0.136858
0.154788 0.494301 0.136629
0.182528 0.493935 0.13637
0.210452 0.493462 0.136034
0.238529 0.492821 0.135622
0.266697 0.491966 0.135149
0.294896 0.490837 0.134585
0.323018 0.489281 0.133913
0.350835 0.487053 0.133089
0.378241 0.483925 0.132067
0.405386 0.480064 0.130861
0.432364 0.475547 0.129488
0.459403 0.470603 0.127977
0.486992 0.465904 0.126467
0.515435 0.46186 0.125017
0.544335 0.457984 0.123552
0.573526 0.454002 0.122011
0.602869 0.449699 0.120333
0.632151 0.444633 0.11841
0.661524 0.438987 0.116289
0.692058 0.434684 0.114397
0.724788 0.433951 0.113298
0.759518 0.437201 0.113176
0.795804 0.444434 0.114107
0.832715 0.454536 0.115877
0.868864 0.464469 0.117723
0.903395 0.471412 0.118898
0.936721 0.475624 0.119402
0 0.525307 0.131304
0.016144 0.525887 0.131609
0.0419776 0.525612 0.13167
0.0676585 0.525154 0.131609
0.0945754 0.52462 0.131502
0.121843 0.524056 0.131319
0.149142 0.523476 0.13109
0.176654 0.52282 0.1308
0.204364 0.522057 0.130449
0.232181 0.521065 0.130022
0.260014 0.519753 0.129519
0.287785 0.518013 0.128908
0.31548 0.515831 0.128206
0.343114 0.513176 0.127382
0.370581 0.509941 0.126452
0.398001 0.506203 0.125383
0.425513 0.502144 0.124224
0.453193 0.49781 0.122972
0.481163 0.49337 0.12166
0.509789 0.489372 0.120348
0.539071 0.485847 0.119066
0.568826 0.482551 0.117769
0.599008 0.479454 0.116457
0.629465 0.476265 0.115084
0.660014 0.472648 0.113573
0.691005 0.469276 0.112032
0.723369 0.468177 0.110918
0.757198 0.470069 0.110414
0.792294 0.475288 0.110658
0.828107 0.483406 0.111589
0.863737 0.492638 0.112886
0.898161 0.499825 0.113817
0.931533 0.504524 0.11426
0 0.554238 0.125277
0.0101778 0.55552 0.125704
0.0364996 0.555627 0.125856
0.0625925 0.555306 0.125856
0.0892042 0.554726 0.12575
0.116274 0.553918 0.125582
0.143313 0.552972 0.125338
0.170596 0.551965 0.125032
0.198001 0.550744 0.124666
0.225452 0.549218 0.124224
0.252903 0.547326 0.12369
0.280247 0.5449 0.123079
0.307378 0.541802 0.122332
0.334569 0.538354 0.121508
0.361898 0.534676 0.120623
0.389517 0.530938 0.119677
0.417685 0.52752 0.118715
0.446433 0.524498 0.117769
0.475624 0.521691 0.116808
0.505257 0.519097 0.115816
0.535332 0.516747 0.114824
0.565545 0.514168 0.113756
0.596017 0.511528 0.112627
0.626749 0.508843 0.111452
0.657694 0.50605 0.110201
0.688991 0.50338 0.108934
0.721202 0.50222 0.107866
0.754543 0.503517 0.10721
0.788846 0.507469 0.107042
0.823758 0.513909 0.107378
0.858671 0.521798 0.108064
0.892882 0.528878 0.10869
0.926162 0.5337 0.108949
0 0.583108 0.119005
0.00384527 0.584848 0.119478
0.0303502 0.585443 0.119722
0.0568246 0.585382 0.119783
0.0836805 0.58529 0.119768
0.111284 0.585153 0.119707
0.136309 0.581353 0.119203
0.163882 0.580682 0.11899
0.191562 0.579767 0.1187
0.219379 0.578668 0.118364
0.247333 0.577386 0.117968
0.275364 0.575845 0.117494
0.303502 0.574044 0.116976
0.331655 0.571893 0.116396
0.359823 0.56936 0.115724
0.388266 0.566796 0.115023
0.417334 0.564797 0.114336
0.447044 0.563409 0.113664
0.477272 0.562524 0.113008
0.507881 0.561929 0.112352
0.538643 0.561257 0.111666
0.56907 0.55964 0.110857
0.599191 0.556985 0.10988
0.629221 0.553552 0.108782
0.659297 0.549569 0.107561
0.689632 0.545388 0.106264
0.72076 0.542351 0.105043
0.753033 0.541726 0.104128
0.786206 0.543542 0.103548
0.82002 0.547738 0.103334
0.854063 0.553719 0.103441
0.887755 0.559731 0.103639
0.920745 0.563928 0.103609
0 0.612421 0.112566
0 0.614145 0.113024
0.0234836 0.614725 0.113268
0.0494698 0.61442 0.113344
0.0756695 0.613886 0.113329
0.103517 0.613123 0.113252
0.130663 0.612146 0.113085
0.157916 0.610956 0.112871
0.185367 0.609644 0.112612
0.213092 0.608331 0.112291
0.241154 0.607156 0.111955
0.269566 0.606088 0.111574
0.298177 0.604929 0.111162
0.326863 0.603525 0.110689
0.355581 0.601755 0.110155
0.384253 0.599512 0.10956
0.413031 0.597025 0.108919
0.442359 0.594965 0.108263
0.472282 0.593561 0.107607
0.502708 0.592645 0.10695
0.533471 0.592035 0.106294
0.564279 0.59115 0.105592
0.59472 0.589075 0.104753
0.624842 0.585763 0.103792
0.654871 0.581537 0.102693
0.685054 0.576761 0.101472
0.71577 0.572427 0.100237
0.747662 0.570657 0.0992142
0.780591 0.571756 0.0984817
0.814206 0.575494 0.0980392
0.848127 0.581369 0.0979171
0.881849 0.588052 0.0979477
0.914885 0.592905 0.0978256
0 0.641215 0.105898
0 0.64329 0.106355
0.016495 0.644038 0.10663
0.0421149 0.643626 0.106737
0.0680095 0.643015 0.106767
0.0963912 0.642329 0.106737
0.123735 0.64155 0.106645
0.151263 0.640711 0.106493
0.178988 0.63975 0.106294
0.206943 0.638727 0.10605
0.235142 0.63769 0.10576
0.263645 0.636744 0.105425
0.29247 0.635904 0.105058
0.321508 0.635019 0.104646
0.350622 0.633875 0.104204
0.379721 0.632273 0.1037
0.408728 0.630121 0.103151
0.437858 0.627695 0.102556
0.467277 0.62533 0.10193
0.497169 0.623392 0.101274
0.527565 0.622019 0.100603
0.558358 0.621057 0.0999313
0.589105 0.619577 0.0991836
0.619715 0.617243 0.0983749
0.650156 0.613825 0.0974594
0.680568 0.609476 0.0964523
0.711238 0.604837 0.0953536
0.742794 0.601984 0.094316
0.775341 0.601907 0.0934462
0.808621 0.604685 0.0928054
0.842283 0.609979 0.0924086
0.875868 0.616739 0.092195
0.908919 0.62237 0.0919509
0 0.670741 0.0991073
0 0.673274 0.0995651
0.00981155 0.674357 0.0998703
0.035462 0.673976 0.100008
0.0610361 0.67306 0.100069
0.0894179 0.672206 0.100069
0.116808 0.671427 0.100023
0.144457 0.670726 0.0999313
0.172381 0.670039 0.0997787
0.200519 0.669261 0.0995651
0.228748 0.668238 0.099321
0.257069 0.66688 0.0990311
0.285466 0.665248 0.0987106
0.313985 0.663355 0.0983444
0.34258 0.661173 0.0979324
0.371191 0.658518 0.0974899
0.399802 0.655344 0.0970016
0.428748 0.652247 0.0964828
0.458167 0.6495 0.0959182
0.488151 0.647379 0.0953078
0.518898 0.646433 0.094667
0.550423 0.646815 0.0940108
0.58201 0.647044 0.0933394
0.613458 0.646632 0.0926223
0.644755 0.645319 0.0918746
0.675837 0.642756 0.0910506
0.706844 0.639063 0.090135
0.738308 0.635981 0.0892042
0.770535 0.635035 0.0883192
0.803388 0.63653 0.0875257
0.836637 0.640589 0.0868849
0.869917 0.64651 0.0863966
0.902846 0.652354 0.0859541
0 0.700679 0.0921645
0 0.703914 0.092607
0.00308232 0.705653 0.0929274
0.0294652 0.705898 0.0931106
0.0556039 0.705196 0.0931868
0.0832685 0.704158 0.0932326
0.110491 0.702983 0.0932174
0.137972 0.701869 0.0931563
0.165713 0.700786 0.0930495
0.193683 0.699657 0.0928817
0.221851 0.698405 0.0926833
0.250095 0.696834 0.0924544
0.278355 0.694804 0.092195
0.30663 0.692332 0.0919203
0.335012 0.689509 0.0915999
0.363531 0.686473 0.0912642
0.392233 0.683192 0.0908827
0.421347 0.680171 0.0904555
0.451087 0.677867 0.0899519
0.481422 0.676341 0.0894026
0.512337 0.675639 0.088777
0.543908 0.676127 0.0881208
0.575708 0.676921 0.0874189
0.607416 0.677211 0.086717
0.639063 0.676875 0.0859846
0.670588 0.675715 0.0852522
0.702007 0.673518 0.0844739
0.733608 0.671077 0.0836652
0.765698 0.669932 0.082826
0.798215 0.670558 0.0819867
0.831037 0.673228 0.0811933
0.863935 0.677745 0.0804761
0.896635 0.682918 0.0798199
0 0.730556 0.0850385
0 0.734112 0.0854353
0 0.736477 0.0857404
0.0226596 0.737408 0.0859388
0.0494698 0.737209 0.0860456
0.0768749 0.736477 0.0861067
0.104143 0.735302 0.0861372
0.131472 0.733715 0.0861372
0.158938 0.731945 0.0860914
0.186648 0.730159 0.0860151
0.214527 0.728237 0.085893
0.242588 0.726177 0.0857557
0.270787 0.723857 0.0855879
0.299031 0.721111 0.0854047
0.327321 0.717876 0.0852064
0.355795 0.714443 0.0849775
0.384573 0.711025 0.0847028
0.413809 0.707973 0.0843824
0.443854 0.706111 0.0839246
0.474632 0.70547 0.0833753
0.505974 0.705821 0.0827344
0.537789 0.707042 0.0820172
0.569833 0.708705 0.0812543
0.601663 0.709514 0.0805219
0.633371 0.70956 0.0798047
0.664988 0.708873 0.0790875
0.69659 0.707424 0.0783703
0.728283 0.705531 0.0776379
0.760296 0.704494 0.0768444
0.792645 0.704814 0.0760204
0.825193 0.706676 0.0751659
0.857786 0.710033 0.0743114
0.890257 0.714229 0.0734874
0 0.760937 0.07776
0 0.764446 0.0780957
0 0.766964 0.0783703
0.0151369 0.768246 0.0785687
0.0423133 0.768566 0.0786908
0.0699016 0.768414 0.0787518
0.0976425 0.768231 0.0787518
0.125643 0.768017 0.078706
0.150851 0.7608 0.0790875
0.178897 0.75964 0.0790417
0.207019 0.758114 0.0789654
0.235248 0.756252 0.0788739
0.263676 0.754253 0.0787518
0.292287 0.752102 0.0786145
0.32108 0.749813 0.0784314
0.350027 0.747234 0.078233
0.379126 0.744366 0.0780346
0.408545 0.741604 0.0777752
0.438666 0.739956 0.0773632
0.469535 0.739681 0.0768139
0.500999 0.740658 0.0761273
0.532921 0.742657 0.0753338
0.565026 0.745159 0.0744945
0.596872 0.746639 0.0737163
0.628458 0.746838 0.0730144
0.659892 0.745998 0.0723583
0.69131 0.744274 0.0717174
0.72282 0.74197 0.0710918
0.75462 0.74023 0.0703899
0.786755 0.739864 0.0695964
0.819059 0.740871 0.0687419
0.851423 0.743175 0.0678264
0.883696 0.74641 0.0669108
0 0.791959 0.0702983
0 0.795132 0.0705882
0 0.797436 0.0708476
0.00733959 0.798627 0.0710307
0.0340734 0.798764 0.0711833
0.0617075 0.798199 0.0713207
0.0892348 0.797253 0.0714275
0.116808 0.795926 0.071519
0.144442 0.794186 0.0715953
0.172168 0.792065 0.0716716
0.200031 0.7897 0.0717327
0.228138 0.787366 0.0717479
0.256611 0.78529 0.0717021
0.285451 0.783536 0.0715801
0.314595 0.781933 0.071397
0.343969 0.780255 0.0711833
0.37348 0.778317 0.0709544
0.403113 0.775998 0.0707408
0.433051 0.773831 0.0704509
0.4636 0.772778 0.0700084
0.494774 0.773053 0.0693828
0.526452 0.774563 0.0686046
0.558434 0.776989 0.0677043
0.590402 0.779248 0.0668193
0.622065 0.780087 0.0660563
0.653529 0.779583 0.0654002
0.684947 0.77792 0.0648203
0.716442 0.775418 0.064271
0.748165 0.7729 0.0636912
0.780209 0.771817 0.062974
0.812451 0.772274 0.0621195
0.844724 0.774136 0.0611734
0.876936 0.777142 0.0601663
0 0.822171 0.0626841
0 0.825498 0.0629282
0 0.827832 0.0631571
0 0.828977 0.0633555
0.0257725 0.828931 0.0635538
0.0534524 0.828107 0.0637675
0.0810254 0.82707 0.0639353
0.108705 0.825895 0.0640574
0.136568 0.824567 0.0641642
0.164614 0.823117 0.0642252
0.192813 0.821454 0.064271
0.221195 0.819608 0.0643015
0.249821 0.817746 0.0642863
0.278737 0.816068 0.06421
0.308003 0.814633 0.0640574
0.337545 0.813367 0.0638437
0.3673 0.812009 0.0635996
0.397208 0.810391 0.0633402
0.427268 0.80856 0.0630808
0.457679 0.807141 0.0627298
0.488533 0.806516 0.0622263
0.51986 0.80705 0.0615549
0.551568 0.808713 0.0607004
0.583444 0.810987 0.0597543
0.615167 0.812421 0.0589151
0.646754 0.812711 0.0581826
0.678264 0.811734 0.0575723
0.709819 0.809613 0.0570687
0.741512 0.806867 0.0565957
0.773495 0.805005 0.0559854
0.805661 0.804593 0.0552071
0.837888 0.805692 0.0542916
