public/filters/konnect/Presets C Medium Skin Tone/Stylish v3_38.Med Skin 1.cube
TITLE "Generated by Resolve"
LUT_3D_SIZE 5
0.048661 0.097322 0.188998
0.253285 0.0876936 0.180468
0.450568 0.0404212 0.154574
0.691234 0.0246738 0.135775
0.976318 0.059678 0.154925
0.0294957 0.300847 0.170489
0.244739 0.298177 0.167971
0.451301 0.270466 0.152529
0.662364 0.220401 0.122698
0.964843 0.275807 0.147311
0 0.525307 0.131304
0.204364 0.522057 0.130449
0.425513 0.502144 0.124224
0.660014 0.472648 0.113573
0.931533 0.504524 0.11426
0 0.760937 0.07776
0.150851 0.7608 0.0790875
0.379126 0.744366 0.0780346
0.628458 0.746838 0.0730144
0.883696 0.74641 0.0669108
0 1 0.0125124
0.0879683 1 0.0143587
0.321004 0.99968 0.0161898
0.56939 1 0.0116426
0.823224 1 0.00491341
0.0359655 0.0920729 0.355581
0.256733 0.0899062 0.353567
0.451713 0.0401007 0.328359
0.671687 0.0106508 0.297856
0.969848 0.0457618 0.3205
0.0268254 0.298116 0.340749
0.246357 0.300084 0.339849
0.448142 0.267308 0.322377
0.669291 0.226917 0.297948
0.961807 0.266026 0.314382
0 0.509102 0.300862
0.207889 0.525719 0.303456
0.425849 0.50132 0.295872
0.661173 0.470893 0.284688
0.927596 0.476417 0.279744
0 0.738094 0.251972
0.156237 0.768124 0.252644
0.382086 0.746303 0.251347
0.626825 0.727382 0.24741
0.887984 0.720623 0.240757
0 1 0.191348
0.092668 1 0.188952
0.324742 0.998825 0.195026
0.574685 0.982177 0.195773
0.831312 0.999741 0.184054
0.0319829 0.0890364 0.538903
0.261814 0.092668 0.541039
0.483726 0.0732891 0.530404
0.703685 0.0355383 0.506355
0.965164 0.0367895 0.501137
0.022034 0.292851 0.523674
0.247944 0.301701 0.525795
0.475807 0.293477 0.519615
0.691661 0.252491 0.496406
0.960159 0.259556 0.49659
0 0.508141 0.486564
0.213016 0.531441 0.490593
0.445731 0.528435 0.487098
0.670329 0.485069 0.473396
0.930205 0.476493 0.465324
0 0.73257 0.438437
0.161517 0.776333 0.43946
0.393927 0.770962 0.437018
0.633127 0.743114 0.433326
0.892042 0.711833 0.426902
0 1 0.380118
0.0962844 1 0.375952
0.331106 1 0.375051
0.577737 1 0.378073
0.836805 0.997971 0.3729
0.0469368 0.0972915 0.740398
0.26389 0.0936294 0.736645
0.493599 0.0855726 0.730297
0.731334 0.0720073 0.720928
0.97641 0.0547494 0.708309
0.0316014 0.30312 0.723064
0.249378 0.302983 0.720958
0.481682 0.299016 0.716762
0.718364 0.285832 0.707744
0.971145 0.281163 0.702617
0 0.530816 0.687221
0.21474 0.533028 0.686137
0.448356 0.531197 0.682902
0.688685 0.520714 0.676875
0.939788 0.510613 0.669886
0 0.763073 0.635462
0.16405 0.778958 0.635477
0.398199 0.77763 0.632853
0.642191 0.77377 0.628885
0.894697 0.741421 0.623224
0 1 0.575082
0.0993362 1 0.571817
0.334615 1 0.569848
0.579782 1 0.567315
0.840314 1 0.569116
0.0494392 0.0985733 0.943404
0.264195 0.0934768 0.938384
0.49398 0.0855573 0.932143
0.734249 0.0759594 0.924651
0.982315 0.0652781 0.916274
0.034699 0.306264 0.926192
0.251514 0.304707 0.923232
0.482856 0.299962 0.918715
0.724483 0.293141 0.912902
0.9738 0.284916 0.906188
0 0.535027 0.890318
0.217151 0.535546 0.888594
0.450126 0.532815 0.885191
0.693141 0.527871 0.880491
0.943709 0.52137 0.874846
0 0.778912 0.838972
0.166094 0.780941 0.838071
0.400381 0.779736 0.835447
0.644556 0.776257 0.831525
0.896147 0.77116 0.826673
0 1 0.775021
0.101762 1 0.774716
0.337163 1 0.772671
0.582284 1 0.769345
0.834745 1 0.765103
