public/filters/konnect/Presets C Medium Skin Tone/Vibrant v3_38.Med Skin 1.cube
TITLE "Generated by Resolve"
LUT_3D_SIZE 5
0.0735027 0.0140688 0.0737774
0.340719 0 0.00329595
0.745388 0 0.0155184
1 0.0404974 0.105211
1 0.0518959 0.0949721
0.0215 0.340383 0.0277867
0.298802 0.282948 0
0.629053 0.241871 0
1 0.213336 0.0596475
1 0.198734 0.0533455
0 0.658259 0
0.176455 0.592386 0
0.528542 0.546929 0
0.948516 0.503624 0
1 0.450919 0.0174258
0 0.962127 0
0.0530709 0.905516 0
0.37023 0.863172 0
0.768154 0.829053 0
1 0.764096 0
0 1 0
0 1 0
0.229831 1 0
0.587686 1 0
0.976486 1 0
0.0688792 0.00862135 0.546731
0.436851 0 0.492576
0.757168 0 0.39855
1 0 0.373526
1 0 0.291798
0.0019379 0.313298 0.399619
0.302983 0.273991 0.364462
0.590204 0.233677 0.293919
0.958328 0.240925 0.303319
1 0.246769 0.297505
0 0.629068 0.23978
0.159686 0.57055 0.203006
0.513878 0.529519 0.183627
0.81915 0.492821 0.200977
1 0.461204 0.194842
0 0.948074 0.0737011
0.0410315 0.885924 0.0658732
0.362005 0.832853 0.0831006
0.742153 0.793347 0.0807355
1 0.735714 0.0896315
0 1 0.0153353
0 1 0
0.22855 1 0
0.583139 1 0
0.968566 1 0
0.0404669 0 0.916426
0.446677 0 0.945647
0.822812 0 0.83389
1 0 0.783444
1 0 0.763867
0 0.295811 0.829908
0.287495 0.254719 0.812772
0.666392 0.213825 0.730877
0.939178 0.205219 0.647791
1 0.180194 0.600687
0 0.60737 0.664256
0.145632 0.552422 0.627253
0.500542 0.522194 0.606607
0.718532 0.391516 0.479316
1 0.406073 0.484413
0 0.917418 0.518486
0.0233158 0.866743 0.444846
0.341985 0.828138 0.43386
0.710994 0.76614 0.422431
0.990539 0.720928 0.416709
0 1 0.388464
0 1 0.292958
0.193729 1 0.274418
0.57203 1 0.265431
0.963211 1 0.24979
0.0589151 0 1
0.430655 0 1
0.879622 0 1
1 0 1
1 0 1
0 0.278096 1
0.271565 0.233692 1
0.675212 0.189487 1
1 0.146334 1
1 0.13138 1
0 0.594217 1
0.138369 0.536263 1
0.493019 0.50312 1
0.912245 0.452293 0.953292
1 0.423575 0.928878
0 0.905333 0.89308
0.0292058 0.85951 0.889403
0.311589 0.817487 0.862272
0.711208 0.765499 0.828504
0.914733 0.561013 0.660853
0 1 0.800336
0 1 0.72398
0.153918 1 0.677653
0.535821 1 0.658442
0.920119 0.995926 0.643992
0.0657664 0 1
0.412955 0 1
0.863859 0 1
1 0 1
1 0 1
0 0.259998 1
0.255512 0.212573 1
0.653956 0.169345 1
1 0.114794 1
1 0.0734417 1
0 0.57911 1
0.130037 0.515221 1
0.474174 0.480751 1
0.915663 0.424689 1
1 0.374624 1
0 0.904494 1
0.0216068 0.8383 1
0.290883 0.795926 1
0.700298 0.748287 1
1 0.691051 1
0 1 1
0 1 1
0.137728 1 1
0.494377 1 1
0.936217 1 0.996826
