public/filters/konnect/Presets C Medium Skin Tone/Vibrant v3_38.Med Skin 1.cube
TITLE "Generated by Resolve"
LUT_3D_SIZE 33
0.0735027 0.0140688 0.0737774
0.100511 0.0134127 0.0664225
0.132311 0.012726 0.0577096
0.166491 0.0108644 0.0472419
0.199985 0.00769055 0.0354467
0.233768 0.0039826 0.0247044
0.268589 0.000213626 0.015671
0.304417 0 0.00859083
0.340719 0 0.00329595
0.377539 0 0
0.415534 0 0
0.455558 0 0
0.498939 0 0
0.548196 0 0
0.605829 0 0
0.672602 0 0.00527962
0.745388 0 0.0155184
0.820386 0 0.028809
0.879896 0.00283818 0.04477
0.925444 0.0107576 0.0614328
0.964096 0.0186313 0.0763561
0.996582 0.0257572 0.0882277
1 0.0319219 0.0966659
1 0.036759 0.102144
1 0.0404974 0.105211
1 0.0433204 0.106538
1 0.0456092 0.106844
1 0.0485389 0.107149
1 0.0512856 0.107408
1 0.0534371 0.107164
1 0.054612 0.105409
1 0.0542458 0.101534
1 0.0518959 0.0949721
0.0831617 0.0459907 0.0826581
0.113176 0.0463417 0.074403
0.146838 0.0441444 0.0631571
0.178698 0.0408789 0.0505074
0.209796 0.0386358 0.0375982
0.241398 0.0368048 0.025864
0.27422 0.0351568 0.0158389
0.308141 0.033753 0.00761425
0.342824 0.0325628 0.00125124
0.378256 0.0314641 0
0.414908 0.0304417 0
0.453407 0.0295872 0
0.494697 0.0290227 0
0.540856 0.0288853 0
0.5944 0.0290532 0
0.656275 0.0265812 0
0.725093 0.0255131 0.00674449
0.797391 0.0260471 0.0188449
0.864225 0.0272526 0.0334783
0.910811 0.0302129 0.0498665
0.95111 0.0333867 0.0654002
0.985321 0.0365911 0.0784314
1 0.0396582 0.0882887
1 0.0424964 0.0950179
1 0.0460365 0.0994736
1 0.0492714 0.1019
1 0.0522316 0.102968
1 0.0550088 0.103334
1 0.0576333 0.103502
1 0.0601205 0.103609
1 0.062211 0.102464
1 0.0637369 0.0993362
1 0.0643015 0.0937819
0.0862135 0.0856947 0.0850996
0.108614 0.0848554 0.0756237
0.141299 0.080293 0.0678721
0.175219 0.0776989 0.0546426
0.20708 0.0721141 0.041825
0.239033 0.067689 0.0293278
0.272129 0.0647288 0.0183871
0.306188 0.0628061 0.00926223
0.340963 0.0616312 0.00187686
0.376547 0.0607156 0
0.413153 0.0599527 0
0.451011 0.0593423 0
0.491035 0.0589609 0
0.534936 0.0590219 0
0.585077 0.0597391 0
0.643717 0.0612192 0
0.710414 0.0633707 0
0.781674 0.0658885 0.00888075
0.854292 0.0684215 0.0215152
0.905074 0.0726482 0.0364691
0.946975 0.0770733 0.0514382
0.982757 0.0812238 0.064622
1 0.0849317 0.0750286
1 0.0879683 0.0824598
1 0.090425 0.0873426
1 0.0922103 0.0898451
1 0.0933852 0.0907607
1 0.0940261 0.0906691
1 0.0940871 0.0902266
1 0.0932479 0.0898756
1 0.0870832 0.0898299
1 0.079118 0.0883497
1 0.0778821 0.0840162
0.0791791 0.127398 0.0791943
0.0999771 0.124025 0.0700389
0.132753 0.120027 0.0618448
0.166644 0.114611 0.0544289
0.200839 0.111177 0.0406043
0.233463 0.105272 0.0285801
0.267292 0.0996872 0.0183566
0.302052 0.0955825 0.00932326
0.337179 0.0926223 0.00167849
0.372961 0.0905928 0
0.409796 0.0892195 0
0.447883 0.0880598 0
0.487404 0.0871138 0
0.52958 0.0864424 0
0.57705 0.0862287 0
0.632074 0.0865644 0
0.695888 0.0873426 0
0.765026 0.0881819 0.00364691
0.836622 0.0888991 0.0154116
0.895262 0.090486 0.0293278
0.938003 0.0931868 0.0441596
0.974975 0.0960098 0.0577096
1 0.0987564 0.0687724
1 0.10135 0.0769207
1 0.103731 0.0822919
1 0.105821 0.0853132
1 0.107622 0.0866712
1 0.109163 0.0867781
1 0.110521 0.0863966
1 0.111727 0.0859541
1 0.112871 0.0855879
1 0.113817 0.0850385
1 0.114427 0.0831311
0.0719921 0.171008 0.0791638
0.0949874 0.165331 0.0710155
0.12462 0.159335 0.0633249
0.161303 0.156222 0.0554513
0.196658 0.149981 0.0502174
0.232364 0.145693 0.0362554
0.266194 0.139788 0.0234226
0.300572 0.133211 0.0140383
0.336263 0.12813 0.00560006
0.371969 0.124208 0
0.408133 0.121294 0
0.445563 0.119142 0
0.484627 0.117372 0
0.525567 0.115816 0
0.570367 0.114595 0
0.62208 0.113909 0
0.682414 0.113619 0
0.749798 0.113329 0
0.820081 0.112642 0.0100862
0.886503 0.111925 0.0229648
0.929686 0.112871 0.0374609
0.967529 0.114061 0.0511482
1 0.11545 0.0627146
1 0.116884 0.0714885
1 0.118303 0.0775158
1 0.119615 0.0811017
1 0.120821 0.0827649
1 0.12192 0.0831464
1 0.122866 0.0828717
1 0.12369 0.0825818
1 0.124468 0.0822766
1 0.125139 0.0821088
1 0.125704 0.0817121
0.0577859 0.214817 0.074403
0.0882887 0.206256 0.069688
0.115694 0.199771 0.0603189
0.151705 0.196262 0.054902
0.190051 0.192752 0.0467842
0.225986 0.185367 0.0456092
0.262943 0.180179 0.0321813
0.299031 0.174472 0.018143
0.334783 0.16762 0.00924697
0.370993 0.161654 0.00170901
0.407279 0.156847 0
0.443885 0.153033 0
0.481987 0.150118 0
0.522164 0.147585 0
0.565072 0.145342 0
0.613443 0.143587 0
0.670146 0.142306 0
0.735058 0.141176 0
0.804257 0.139574 0.00572213
0.87425 0.137331 0.0177005
0.921935 0.136431 0.0315251
0.960372 0.136141 0.0451514
0.993759 0.136202 0.057023
1 0.1364 0.0662547
1 0.136767 0.072755
1 0.137255 0.0767834
1 0.137713 0.0787976
1 0.13814 0.0793927
1 0.138521 0.0791943
1 0.138827 0.0787518
1 0.139071 0.0784161
1 0.1393 0.0784009
1 0.139437 0.0785077
0.0442817 0.257603 0.063447
0.0788281 0.248524 0.061677
0.101793 0.2383 0.0350042
0.13402 0.232685 0.0288396
0.171679 0.228809 0.0213169
0.209339 0.224338 0.0113222
0.243961 0.216068 0.0104219
0.27985 0.210101 0.000198367
0.316457 0.204807 0
0.35317 0.199054 0
0.390555 0.193576 0
0.428824 0.188983 0
0.467872 0.185046 0
0.508385 0.181765 0
0.551141 0.178775 0
0.597848 0.176043 0
0.651102 0.173739 0
0.713863 0.171756 0
0.783215 0.169497 0
0.855024 0.166445 0.0113527
0.913573 0.163607 0.0257115
0.953582 0.161913 0.0403143
0.988144 0.160616 0.0530098
1 0.159625 0.0628367
1 0.158923 0.0696574
1 0.158434 0.0738689
1 0.158007 0.0759594
1 0.157733 0.076524
1 0.157427 0.0761273
1 0.157122 0.0754406
1 0.156786 0.0749065
1 0.156451 0.0739757
1 0.156054 0.0720378
0.0307927 0.298939 0.0417792
0.0654612 0.288594 0.0373388
0.0945144 0.28101 0.0247654
0.12256 0.272969 0.0177768
0.159564 0.268879 0.0111391
0.197742 0.263874 0.00325017
0.23563 0.258091 0
0.271214 0.24976 0
0.308293 0.243412 0
0.346716 0.238132 0
0.385077 0.232776 0
0.423636 0.227222 0
0.462928 0.222156 0
0.502937 0.217639 0
0.544488 0.213611 0
0.588968 0.209995 0
0.638666 0.206714 0
0.69604 0.203906 0
0.76257 0.201328 0
0.833829 0.198062 0.00471504
0.903029 0.193957 0.0187381
0.943847 0.191073 0.0336614
0.979675 0.188571 0.0470436
1 0.186389 0.0577554
1 0.184543 0.0654307
1 0.182971 0.0703441
1 0.181689 0.0729839
1 0.180499 0.0738994
1 0.179431 0.0736858
1 0.17847 0.0728923
1 0.177478 0.0720531
1 0.176532 0.0713054
1 0.175616 0.0697032
0.0215 0.340383 0.0277867
0.055848 0.330297 0.0220188
0.0847639 0.321553 0.0161593
0.112764 0.313115 0.00978103
0.146563 0.307591 0.00430304
0.184649 0.302525 0
0.223804 0.296941 0
0.262592 0.290822 0
0.298802 0.282948 0
0.336522 0.276173 0
0.376257 0.270771 0
0.416373 0.26569 0
0.456565 0.260471 0
0.497429 0.255436 0
0.539132 0.250584 0
0.582238 0.246021 0
0.629053 0.241871 0
0.682429 0.238239 0
0.744152 0.23505 0
0.813413 0.231678 0
0.884764 0.227207 0.011017
0.933913 0.223087 0.0260929
0.970214 0.219455 0.0402686
1 0.216205 0.0517433
1 0.213336 0.0596475
1 0.210803 0.0641642
1 0.208621 0.0658579
1 0.206683 0.0653544
1 0.204944 0.0634165
1 0.203296 0.0607309
1 0.20177 0.0579385
1 0.200229 0.0554971
1 0.198734 0.0533455
0.00517281 0.377646 0.0120851
0.0419013 0.367544 0.00709544
0.0716869 0.358892 0.00221256
0.100542 0.350652 0
0.131136 0.343572 0
0.169451 0.339239 0
0.208667 0.33373 0
0.248615 0.328038 0
0.288655 0.322255 0
0.326421 0.315465 0
0.364782 0.308629 0
0.405356 0.303181 0
0.446983 0.298299 0
0.488823 0.29337 0
0.531472 0.288441 0
0.575204 0.283543 0
0.620539 0.27863 0
0.670192 0.274067 0
0.727504 0.270222 0
0.793057 0.266667 0
0.863386 0.262303 0.00143435
0.923506 0.257191 0.0165713
0.960601 0.252735 0.0319829
0.993286 0.248539 0.0452888
1 0.244678 0.0552987
1 0.241199 0.0616312
1 0.238071 0.0646067
1 0.235233 0.0647746
1 0.232609 0.0630961
1 0.230228 0.0603952
1 0.227939 0.0573587
1 0.225757 0.0544594
1 0.223606 0.0519417
0 0.418097 0.0028687
0.0307012 0.408209 0
0.0608072 0.39971 0
0.0898604 0.391516 0
0.118303 0.383398 0
0.155413 0.379156 0
0.195102 0.374136 0
0.235737 0.368399 0
0.276493 0.362234 0
0.316915 0.355688 0
0.355474 0.348775 0
0.395041 0.342 0
0.436652 0.336431 0
0.4795 0.331518 0
0.522789 0.326574 0
0.566766 0.321569 0
0.612207 0.316594 0
0.659693 0.311376 0
0.712673 0.306661 0
0.773877 0.302663 0
0.842451 0.298634 0
0.912566 0.293233 0.00454719
0.951156 0.288014 0.0207218
0.984268 0.282979 0.0356146
1 0.278218 0.0477302
1 0.273793 0.0562753
1 0.269703 0.0612497
1 0.26598 0.0630503
1 0.262562 0.0622873
1 0.259419 0.0598459
1 0.256397 0.0567178
1 0.253574 0.0535744
1 0.250797 0.0506905
0 0.458762 0
0.0187686 0.448829 0
0.0487373 0.440345 0
0.07776 0.432197 0
0.106355 0.424186 0
0.139086 0.418387 0
0.179294 0.41445 0
0.220645 0.409247 0
0.262898 0.403494 0
0.304509 0.39675 0
0.345617 0.389563 0
0.385031 0.382574 0
0.425376 0.375586 0
0.467781 0.369772 0
0.511452 0.364584 0
0.555886 0.359518 0
0.601373 0.354421 0
0.648753 0.349264 0
0.699351 0.344121 0
0.756207 0.339513 0
0.821118 0.335378 0
0.89073 0.330541 0
0.941787 0.324819 0.00668345
0.975479 0.319219 0.0227359
1 0.313726 0.0367437
1 0.308476 0.0475776
1 0.303578 0.0549172
1 0.298924 0.0589303
1 0.294652 0.059968
1 0.290715 0.0587015
1 0.286946 0.0561074
1 0.283391 0.0529488
1 0.279881 0.0499123
0 0.49955 0
0.00640879 0.48957 0
0.0365454 0.4813 0
0.0656748 0.473716 0
0.0942092 0.459998 0
0.123217 0.452018 0
0.162631 0.448356 0
0.202792 0.442664 0
0.244205 0.436423 0
0.286183 0.430182 0
0.328145 0.423926 0
0.369879 0.417685 0
0.410468 0.412177 0
0.451926 0.406378 0
0.495064 0.401205 0
0.539757 0.396506 0
0.585687 0.391821 0
0.632715 0.38677 0
0.682078 0.381552 0
0.735973 0.376501 0
0.796872 0.371984 0
0.865293 0.36759 0
0.930922 0.362188 0
0.965728 0.356237 0.00807202
0.996719 0.350301 0.0237888
1 0.344472 0.03682
1 0.338918 0.0464332
1 0.333608 0.0525978
1 0.328557 0.0556802
1 0.323888 0.056199
1 0.319417 0.0547341
1 0.31519 0.0522927
1 0.311086 0.0494392
0 0.540078 0
0 0.529412 0
0.0233005 0.520211 0
0.0527047 0.511299 0
0.0817578 0.502464 0
0.110765 0.49366 0
0.146181 0.487968 0
0.187091 0.482826 0
0.228367 0.476417 0
0.270848 0.47013 0
0.31368 0.463828 0
0.356039 0.457191 0
0.398169 0.450538 0
0.439109 0.444999 0
0.48098 0.438956 0
0.525399 0.434058 0
0.571649 0.429618 0
0.619318 0.425071 0
0.667994 0.419821 0
0.719081 0.414313 0
0.775753 0.409339 0
0.84004 0.404944 0
0.909926 0.400153 0
0.953399 0.394186 0
0.984726 0.387869 0.00578317
1 0.381537 0.0204929
1 0.375311 0.032639
1 0.369482 0.0416419
1 0.363867 0.0475166
1 0.358541 0.0505989
1 0.35346 0.0513771
1 0.348547 0.0504158
1 0.343801 0.0485084
0 0.581476 0
0 0.570748 0
0.0100252 0.561349 0
0.039353 0.552178 0
0.0684215 0.543145 0
0.0975052 0.534249 0
0.128176 0.52607 0
0.170016 0.522377 0
0.211841 0.516472 0
0.254231 0.509972 0
0.297673 0.503761 0
0.341405 0.497627 0
0.384924 0.491295 0
0.427787 0.484565 0
0.469062 0.478965 0
0.511467 0.47277 0
0.556603 0.467689 0
0.6038 0.463035 0
0.652827 0.458351 0
0.70309 0.452949 0
0.756054 0.447196 0
0.815412 0.442283 0
0.882429 0.437888 0
0.940734 0.432441 0
0.972595 0.426139 0
1 0.41973 0.000900282
1 0.41326 0.0135348
1 0.406973 0.0233463
1 0.40087 0.0298161
1 0.395102 0.0330663
1 0.389639 0.0335393
1 0.384436 0.0319677
1 0.379629 0.0291295
0 0.616281 0
0 0.605356 0
0 0.596033 0
0.026688 0.587045 0
0.0563668 0.578271 0
0.0860609 0.569604 0
0.115877 0.561059 0
0.153933 0.556497 0
0.195987 0.551659 0
0.238331 0.545739 0
0.281422 0.540047 0
0.324956 0.534478 0
0.368704 0.528878 0
0.412558 0.523079 0
0.456519 0.517311 0
0.498512 0.512398 0
0.54165 0.506401 0
0.587991 0.501595 0
0.636271 0.49688 0
0.686442 0.491844 0
0.738109 0.486152 0
0.79324 0.480323 0
0.855283 0.475471 0
0.924285 0.470893 0
0.960739 0.464775 0
0.989944 0.458274 0
1 0.451575 0
1 0.444831 0.00698863
1 0.43827 0.0159762
1 0.431937 0.0220493
1 0.425956 0.0252995
1 0.420218 0.0261692
1 0.41474 0.0252995
0 0.658259 0
0 0.646967 0
0 0.637522 0
0.012726 0.62858 0
0.0423133 0.619852 0
0.0718395 0.611231 0
0.101457 0.602762 0
0.134401 0.596063 0
0.176455 0.592386 0
0.219104 0.586633 0
0.262821 0.580835 0
0.307469 0.575525 0
0.351736 0.569619 0
0.39617 0.563531 0
0.440848 0.557473 0
0.485893 0.551659 0
0.528542 0.546929 0
0.572137 0.540627 0
0.619577 0.535851 0
0.668833 0.530846 0
0.719875 0.525383 0
0.773037 0.519463 0
0.830716 0.513741 0
0.895323 0.508949 0
0.948516 0.503624 0
0.97821 0.4972 0
1 0.490425 0
1 0.483558 0
1 0.476677 0
1 0.469917 0.00706493
1 0.46334 0.0127108
1 0.457023 0.0160372
1 0.450919 0.0174258
0 0.700542 0
0 0.688975 0
0 0.679255 0
0 0.670253 0
0.0280766 0.661631 0
0.0573434 0.653132 0
0.0866712 0.6448 0
0.116121 0.636545 0
0.156405 0.633524 0
0.198825 0.628687 0
0.24155 0.621881 0
0.285618 0.615167 0
0.330739 0.608911 0
0.37641 0.603052 0
0.422217 0.597177 0
0.468528 0.591608 0
0.515343 0.586435 0
0.558663 0.58175 0
0.602579 0.575067 0
0.650965 0.57023 0
0.701122 0.564889 0
0.753017 0.558968 0
0.807874 0.55288 0
0.867903 0.547265 0
0.934386 0.542275 0
0.965774 0.53611 0
0.993515 0.529534 0
1 0.522637 0
1 0.515633 0
1 0.508553 0
1 0.501625 0
1 0.494835 0.00271611
1 0.488289 0.00624094
0 0.742947 0
0 0.731319 0
0 0.721477 0
0 0.712459 0
0.0136721 0.704128 0
0.0424048 0.696315 0
0.0755779 0.68072 0
0.105272 0.672648 0
0.140337 0.667231 0
0.183276 0.663874 0
0.226276 0.658045 0
0.269474 0.651469 0
0.313787 0.645441 0
0.358846 0.639796 0
0.403922 0.634043 0
0.449104 0.628061 0
0.495033 0.622583 0
0.541833 0.617533 0
0.58613 0.613993 0
0.631495 0.608194 0
0.681498 0.604013 0
0.732876 0.598749 0
0.785733 0.592462 0
0.842451 0.586313 0
0.905211 0.58088 0
0.953948 0.575235 0
0.981811 0.56878 0
1 0.561868 0
1 0.554757 0
1 0.547539 0
1 0.540429 0
1 0.533379 0
1 0.526406 0
0 0.785321 0
0 0.773556 0
0 0.76347 0
0 0.753765 0
0.000198367 0.744244 0
0.0298314 0.734783 0
0.0595712 0.725414 0
0.0895552 0.716152 0
0.119921 0.706996 0
0.162753 0.704036 0
0.2065 0.699168 0
0.250233 0.693095 0
0.294209 0.686534 0
0.33933 0.680644 0
0.385061 0.675013 0
0.431037 0.669337 0
0.476844 0.663218 0
0.523384 0.657511 0
0.571221 0.652522 0
0.616205 0.649119 0
0.661067 0.642374 0
0.711696 0.637964 0
0.764111 0.632456 0
0.817884 0.625834 0
0.875975 0.619516 0
0.940002 0.614023 0
0.968521 0.607843 0
0.995209 0.601236 0
1 0.594278 0
1 0.587106 0
1 0.579812 0
1 0.572381 0
1 0.565087 0
0 0.828397 0
0 0.816327 0
0 0.806058 0
0 0.796216 0
0 0.786603 0
0.0146181 0.77705 0
0.0444648 0.76759 0
0.0744945 0.758312 0
0.104845 0.749096 0
0.142229 0.743511 0
0.185946 0.739544 0
0.229816 0.733928 0
0.274098 0.727825 0
0.319219 0.721859 0
0.364889 0.715953 0
0.411063 0.710155 0
0.457633 0.704387 0
0.504341 0.69836 0
0.551659 0.692592 0
0.600732 0.687892 0
0.64686 0.684916 0
0.691859 0.677623 0
0.742763 0.672557 0
0.795453 0.666331 0
0.849928 0.659236 0
0.909331 0.652735 0
0.954437 0.646784 0
0.98114 0.640314 0
1 0.633463 0
1 0.626429 0
1 0.619257 0
1 0.612085 0
1 0.60499 0
0 0.863188 0
0 0.849912 0
0 0.83856 0
0 0.828077 0
0 0.818158 0
0.00509651 0.808438 0
0.0356603 0.799008 0
0.066331 0.790005 0
0.0971542 0.781338 0
0.129824 0.773785 0
0.172381 0.770672 0
0.215396 0.766323 0
0.258366 0.761364 0
0.302419 0.757122 0
0.347372 0.753185 0
0.392477 0.748486 0
0.438254 0.74345 0
0.48484 0.738415 0
0.532006 0.732967 0
0.580072 0.727642 0
0.630365 0.723476 0
0.677729 0.720989 0
0.722454 0.712886 0
0.773495 0.706996 0
0.826383 0.700038 0
0.882139 0.692744 0
0.941466 0.686152 0
0.9682 0.679744 0
0.993637 0.672892 0
1 0.665904 0
1 0.658701 0
1 0.651331 0
1 0.643977 0
0 0.908064 0
0 0.89456 0
0 0.882994 0
0 0.872084 0
0 0.861814 0
0 0.852049 0
0.0197757 0.842512 0
0.0501259 0.833249 0
0.0805676 0.824369 0
0.111101 0.815915 0
0.149767 0.811734 0
0.193164 0.808209 0
0.236164 0.802838 0
0.278859 0.796567 0
0.322744 0.790799 0
0.368215 0.78613 0
0.415015 0.782025 0
0.462394 0.777615 0
0.510658 0.773358 0
0.559365 0.768627 0
0.608591 0.763485 0
0.660044 0.759594 0
0.708507 0.757305 0
0.752819 0.748043 0
0.8038 0.741238 0
0.857191 0.733684 0
0.914366 0.726314 0
0.955795 0.719615 0
0.981338 0.71284 0
1 0.705821 0
1 0.698543 0
1 0.691112 0
1 0.68365 0
0 0.94136 0
0 0.9346 0
0 0.927169 0
0 0.91606 0
0 0.905669 0
0 0.895781 0
0.0040589 0.88632 0
0.0340734 0.877119 0
0.0641031 0.868208 0
0.0941176 0.859709 0
0.127275 0.853223 0
0.169543 0.85037 0
0.21323 0.846342 0
0.256703 0.840482 0
0.300435 0.833951 0
0.345357 0.828 0
0.391638 0.822568 0
0.438499 0.817029 0
0.48574 0.811124 0
0.533684 0.805493 0
0.582574 0.800229 0
0.634028 0.796735 0
0.688075 0.794491 0
0.738552 0.793133 0
0.782818 0.782971 0
0.833768 0.77528 0
0.88777 0.767254 0
0.94345 0.759762 0
0.968978 0.753017 0
0.993744 0.745998 0
1 0.73875 0
1 0.731319 0
1 0.723751 0
0 0.962127 0
0 0.95584 0
0 0.950378 0
0 0.94493 0
0 0.939712 0
0 0.934936 0
0 0.930632 0
0.016434 0.922911 0
0.0530709 0.905516 0
0.0828107 0.897719 0
0.112627 0.889982 0
0.151781 0.886854 0
0.194675 0.883711 0
0.237903 0.879454 0
0.281285 0.874281 0
0.32517 0.86862 0
0.37023 0.863172 0
0.41651 0.858061 0
0.463691 0.852796 0
0.511315 0.847074 0
0.559731 0.841398 0
0.609552 0.836362 0
0.661616 0.8327 0
0.716609 0.830533 0
0.768154 0.829053 0
0.812009 0.817655 0
0.863493 0.809262 0
0.918227 0.800687 0
0.955962 0.793271 0
0.980774 0.786267 0
1 0.779019 0
1 0.771618 0
1 0.764096 0
0 0.982879 0
0 0.976913 0
0 0.971679 0
0 0.966583 0
0 0.96144 0
0 0.956283 0
0 0.951095 0
0.00813306 0.945891 0
0.0372168 0.94078 0
0.066453 0.935744 0
0.0958114 0.930816 0
0.129625 0.928084 0
0.171893 0.924926 0
0.215106 0.921141 0
0.258442 0.916106 0
0.302495 0.910887 0
0.347478 0.905531 0
0.3935 0.900099 0
0.440467 0.894545 0
0.488441 0.889067 0
0.536889 0.883162 0
0.585992 0.877272 0
0.637034 0.872618 0
0.691005 0.869642 0
0.747417 0.867704 0
0.799146 0.865461 0
0.841856 0.852079 0
0.892927 0.842741 0
0.942748 0.833799 0
0.967147 0.826474 0
0.99144 0.819104 0
1 0.811673 0
1 0.804074 0
0 1 0
0 0.997848 0
0 0.99292 0
0 0.988113 0
0 0.983291 0
0 0.978469 0
0 0.973602 0
0 0.968673 0
0.0268559 0.963821 0
0.0558633 0.959075 0
0.084947 0.954482 0
0.114595 0.950317 0
0.154086 0.951293 0
0.195789 0.951965 0
0.237766 0.951461 0
0.28014 0.949813 0
0.32398 0.947723 0
0.370016 0.942672 0
0.416785 0.937041 0
0.464485 0.93109 0
0.513191 0.925307 0
0.562432 0.919264 0
0.612345 0.91339 0
0.664866 0.9093 0
0.72079 0.90692 0
0.777981 0.904616 0
0.829923 0.901442 0
0.871641 0.88629 0
0.92256 0.876036 0
0.954604 0.867506 0
0.978363 0.859556 0
1 0.851667 0
1 0.843824 0
0 1 0
0 1 0
0 1 0
0 1 0
0 0.99501 0
0 0.989624 0
0 0.984436 0
0 0.979431 0
0.029572 0.97467 0
