public/filters/konnect/Presets C Medium Skin Tone/Vibrant v3_38.Med Skin 1.cube
TITLE "Generated by Resolve"
LUT_3D_SIZE 9
0.0735027 0.0140688 0.0737774
0.199985 0.00769055 0.0354467
0.340719 0 0.00329595
0.498939 0 0
0.745388 0 0.0155184
0.964096 0.0186313 0.0763561
1 0.0404974 0.105211
1 0.0512856 0.107408
1 0.0518959 0.0949721
0.0719921 0.171008 0.0791638
0.196658 0.149981 0.0502174
0.336263 0.12813 0.00560006
0.484627 0.117372 0
0.682414 0.113619 0
0.929686 0.112871 0.0374609
1 0.118303 0.0775158
1 0.122866 0.0828717
1 0.125704 0.0817121
0.0215 0.340383 0.0277867
0.146563 0.307591 0.00430304
0.298802 0.282948 0
0.456565 0.260471 0
0.629053 0.241871 0
0.884764 0.227207 0.011017
1 0.213336 0.0596475
1 0.204944 0.0634165
1 0.198734 0.0533455
0 0.49955 0
0.0942092 0.459998 0
0.244205 0.436423 0
0.410468 0.412177 0
0.585687 0.391821 0
0.796872 0.371984 0
0.996719 0.350301 0.0237888
1 0.328557 0.0556802
1 0.311086 0.0494392
0 0.658259 0
0.0423133 0.619852 0
0.176455 0.592386 0
0.351736 0.569619 0
0.528542 0.546929 0
0.719875 0.525383 0
0.948516 0.503624 0
1 0.476677 0
1 0.450919 0.0174258
0 0.828397 0
0 0.786603 0
0.104845 0.749096 0
0.274098 0.727825 0
0.457633 0.704387 0
0.64686 0.684916 0
0.849928 0.659236 0
1 0.633463 0
1 0.60499 0
0 0.962127 0
0 0.939712 0
0.0530709 0.905516 0
0.194675 0.883711 0
0.37023 0.863172 0
0.559731 0.841398 0
0.768154 0.829053 0
0.955962 0.793271 0
1 0.764096 0
0 1 0
0 1 0
0.0183108 0.998672 0
0.137209 0.985061 0
0.295903 0.988876 0
0.47187 0.98529 0
0.668452 0.978241 0
0.890623 0.972259 0
1 0.926528 0
0 1 0
0 1 0
0 1 0
0.0917525 1 0
0.229831 1 0
0.397345 1 0
0.587686 1 0
0.805051 1 0
0.976486 1 0
0.0791028 0.014374 0.328267
0.259113 0.00984207 0.30425
0.418997 0.000289921 0.257679
0.569192 0 0.217243
0.736553 0 0.191424
0.905364 0 0.176608
1 0 0.168109
1 0.00422675 0.158022
1 0.0221714 0.153521
0.0496681 0.168338 0.257786
0.199359 0.148699 0.236088
0.346105 0.140368 0.214298
0.504479 0.14255 0.201343
0.674189 0.143755 0.192554
0.884382 0.149538 0.199542
1 0.162158 0.211124
1 0.171252 0.213245
1 0.179461 0.21323
0.0147707 0.326131 0.188983
0.142214 0.297505 0.165469
0.302846 0.280476 0.149279
0.453025 0.265232 0.146258
0.615869 0.256687 0.146456
0.804517 0.253117 0.154314
0.981186 0.252659 0.170977
1 0.252628 0.179904
1 0.250828 0.178424
0 0.483452 0.114702
0.0900893 0.450904 0.10486
0.236912 0.43125 0.102876
0.408087 0.408576 0.0979171
0.565042 0.388464 0.104158
0.723644 0.373907 0.110994
0.95111 0.360784 0.114778
1 0.340398 0.0919509
1 0.326375 0.0970016
0 0.642924 0.0641794
0.0387121 0.606622 0.0565499
0.166781 0.583505 0.0532845
0.340764 0.564889 0.0551003
0.521508 0.541176 0.0518959
0.703044 0.516228 0.0526741
0.919554 0.493751 0.0498665
1 0.471092 0.0505379
1 0.449592 0.0506142
0 0.813062 0.00679026
0 0.772656 0.00148013
0.0985885 0.738613 0
0.261936 0.719722 0.00360113
0.44625 0.695674 0.0047303
0.636347 0.673411 0.00534066
0.824689 0.645991 0.0178073
0.993912 0.620752 0.0198215
1 0.593957 0.0264439
0 0.957076 0
0 0.934447 0
0.0463264 0.896117 0
0.187793 0.869978 0
0.364706 0.847562 0
0.551568 0.826078 0
0.752148 0.810147 0
0.94667 0.777874 0
1 0.749554 0
0 1 0
0 1 0
0.0128634 0.993622 0
0.13341 0.977829 0
0.294133 0.979232 0
0.464576 0.977172 0
0.657282 0.968948 0
0.878035 0.954147 0
0.994919 0.911284 0
0 1 0
0 1 0
0 1 0
0.0902724 1 0
0.232807 1 0
0.39884 1 0
0.581231 1 0
0.792508 1 0
0.971527 1 0
0.0688792 0.00862135 0.546731
0.258427 0.00762951 0.541939
0.436851 0 0.492576
0.589166 0 0.430289
0.757168 0 0.39855
0.893904 0 0.390799
1 0 0.373526
1 0 0.335363
1 0 0.291798
0.0341955 0.157946 0.468208
0.189441 0.138628 0.456413
0.366522 0.123095 0.429313
0.519966 0.119936 0.3841
0.65745 0.114305 0.340261
0.792065 0.0958724 0.304936
0.948638 0.0307469 0.263478
1 0.0323186 0.235935
1 0.037583 0.212207
0.0019379 0.313298 0.399619
0.131823 0.285954 0.379751
0.302983 0.273991 0.364462
0.437446 0.240818 0.315847
0.590204 0.233677 0.293919
0.73872 0.231769 0.288136
0.958328 0.240925 0.303319
1 0.244587 0.303273
1 0.246769 0.297505
0 0.469383 0.323033
0.0842603 0.438315 0.299367
0.233127 0.423438 0.288426
0.406378 0.402304 0.269932
0.553643 0.382666 0.255772
0.699779 0.371969 0.255497
0.883177 0.365026 0.259983
1 0.356344 0.256565
1 0.350164 0.256977
0 0.629068 0.23978
0.0326696 0.593317 0.217655
0.159686 0.57055 0.203006
0.333593 0.553384 0.195529
0.513878 0.529519 0.183627
0.680217 0.510002 0.186435
0.81915 0.492821 0.200977
0.997681 0.477043 0.192279
1 0.461204 0.194842
0 0.795468 0.149813
0 0.758953 0.129564
0.0949721 0.726741 0.119951
0.253269 0.709178 0.125872
0.439765 0.682612 0.131472
0.623575 0.658625 0.132128
0.780224 0.634775 0.14258
0.967803 0.612757 0.134585
1 0.589166 0.141268
0 0.948074 0.0737011
0 0.926223 0.0629282
0.0410315 0.885924 0.0658732
0.179812 0.85861 0.0723888
0.362005 0.832853 0.0831006
0.548379 0.809186 0.0842145
0.742153 0.793347 0.0807355
0.915053 0.763668 0.085771
1 0.735714 0.0896315
0 1 0.0441444
0 1 0.0276188
0.00218204 0.992462 0.0272068
0.128466 0.973144 0.0298924
0.294911 0.969528 0.0365301
0.468666 0.96379 0.0306096
0.655543 0.949493 0.0202182
0.860929 0.930999 0.0162356
0.990326 0.897932 0.0192721
0 1 0.0153353
0 1 0
0 1 0
0.0843824 1 0
0.22855 1 0
0.402884 1 0.00155642
0.583139 1 0
0.785962 1 0
0.968566 1 0
0.0514839 0.00169375 0.761257
0.252644 0.00361639 0.773663
0.447852 0 0.74464
0.623636 0 0.673976
0.774289 0 0.608499
0.888838 0 0.580392
1 0 0.572229
1 0 0.566369
1 0 0.542275
0.03122 0.149035 0.686397
0.181811 0.128664 0.676677
0.364492 0.113436 0.661723
0.547112 0.093843 0.610437
0.700923 0.0889448 0.554513
0.84564 0.0999771 0.519249
0.959701 0.108248 0.506828
1 0.105058 0.476661
1 0.0419165 0.422507
0 0.304067 0.612757
0.124956 0.275776 0.593194
0.295186 0.264652 0.587472
0.47718 0.245655 0.554376
0.621576 0.233188 0.512108
0.761349 0.226429 0.470726
0.89163 0.184802 0.424552
0.997223 0.140444 0.352758
1 0.12549 0.316228
0 0.459022 0.53402
0.0800946 0.428565 0.510262
0.224964 0.41442 0.501579
0.405112 0.397681 0.482261
0.532387 0.352148 0.429511
0.630182 0.301625 0.378729
0.754055 0.279591 0.362402
0.996063 0.327214 0.396765
1 0.332509 0.39762
0 0.615152 0.451102
0.0283055 0.582849 0.428046
0.149279 0.558511 0.410529
0.329335 0.548409 0.405417
0.512154 0.523949 0.386938
0.651835 0.502907 0.379095
0.801099 0.488106 0.374807
0.958846 0.477531 0.369909
1 0.464118 0.353643
0 0.772381 0.36405
0 0.745159 0.342855
0.0886854 0.713024 0.325063
0.248173 0.701656 0.320424
0.430686 0.675807 0.311833
0.602472 0.646113 0.309987
0.770092 0.626841 0.307347
0.910964 0.605158 0.313756
1 0.590082 0.285573
0 0.926848 0.281605
0 0.912169 0.250126
0.0328069 0.876066 0.23621
0.167712 0.847898 0.23061
0.349203 0.826352 0.229175
0.540581 0.799908 0.227771
0.727932 0.778042 0.225956
0.87985 0.748898 0.235279
1 0.731304 0.212848
0 1 0.232258
0 1 0.177325
0 0.992218 0.157794
0.11162 0.973983 0.149538
0.280919 0.967971 0.154421
0.464332 0.956466 0.157931
0.648356 0.930236 0.157992
0.851423 0.912444 0.155489
0.988739 0.883238 0.151858
0 1 0.172885
0 1 0.116136
0 1 0.0998856
0.0723583 1 0.103563
0.219989 1 0.115114
0.401801 1 0.125078
0.583993 1 0.117693
0.780011 1 0.102571
0.96698 1 0.0984817
0.0404669 0 0.916426
0.244099 0 0.943343
0.446677 0 0.945647
0.646815 0 0.904204
0.822812 0 0.83389
0.922499 0 0.800931
1 0 0.783444
1 0 0.772625
1 0 0.763867
0.0226291 0.140108 0.881102
0.17499 0.118761 0.895827
0.358511 0.103273 0.89601
0.554421 0.0829328 0.863386
0.733104 0.0640879 0.793667
0.872297 0.0603647 0.72871
0.972625 0.0768292 0.701427
1 0.0905623 0.689448
1 0.0999008 0.672282
0 0.295811 0.829908
0.124773 0.267552 0.816144
0.287495 0.254719 0.812772
0.478737 0.235447 0.788952
0.666392 0.213825 0.730877
0.824369 0.202182 0.672602
0.939178 0.205219 0.647791
1 0.204013 0.64358
1 0.180194 0.600687
0 0.45211 0.749737
0.0827344 0.423285 0.733425
0.216663 0.405127 0.720378
0.398306 0.389242 0.706737
0.588891 0.367254 0.671702
0.740337 0.350118 0.629953
0.89453 0.341497 0.597803
0.973617 0.274922 0.538048
1 0.190921 0.435981
0 0.60737 0.664256
0.03122 0.579431 0.648661
0.145632 0.552422 0.627253
0.319249 0.542123 0.620935
0.500542 0.522194 0.606607
0.651713 0.492943 0.578531
0.718532 0.391516 0.479316
0.814801 0.332326 0.432197
1 0.406073 0.484413
0 0.765438 0.585351
0 0.73727 0.558434
0.0843824 0.706691 0.537377
0.238315 0.693843 0.531395
0.427131 0.674479 0.520195
0.620096 0.646357 0.500832
0.763912 0.62118 0.491966
0.916579 0.603983 0.487343
1 0.591073 0.478981
0 0.917418 0.518486
0 0.898299 0.464515
0.0233158 0.866743 0.444846
0.152438 0.838697 0.433494
0.341985 0.828138 0.43386
0.533364 0.800061 0.424125
0.710994 0.76614 0.422431
0.881651 0.744198 0.417945
0.990539 0.720928 0.416709
0 0.992813 0.464652
0 0.998672 0.391669
0 0.990997 0.363088
0.0914626 0.97467 0.346609
0.258518 0.972976 0.345602
0.442695 0.954223 0.340612
0.63238 0.920623 0.336461
0.83534 0.8963 0.338933
0.967926 0.862638 0.346563
0 1 0.388464
0 1 0.332357
0 1 0.292958
0.0507668 1 0.274174
0.193729 1 0.274418
0.385519 1 0.277852
0.57203 1 0.265431
0.761883 1 0.254505
0.963211 1 0.24979
0.0415503 0 1
0.236881 0 1
0.439734 0 1
0.655589 0 1
0.858763 0 1
0.944793 0 0.95201
1 0 0.953079
1 0 0.942061
1 0 0.933379
0.0157321 0.132967 1
0.167834 0.108812 1
0.349142 0.0934462 1
0.551064 0.0720989 1
0.754986 0.0538186 0.969512
0.909285 0.0451972 0.917372
1 0.0397345 0.902083
1 0.0538949 0.899657
1 0.0663005 0.882216
0 0.286702 0.974487
0.120836 0.258 0.974945
0.279606 0.244343 0.987015
0.473182 0.22475 0.985519
0.677211 0.201465 0.961608
0.862791 0.181003 0.906218
0.97142 0.168399 0.866072
1 0.172015 0.854475
1 0.175616 0.835081
0 0.443641 0.93283
0.0796674 0.414496 0.933364
0.209476 0.395819 0.939651
0.390372 0.379538 0.938369
0.591424 0.356985 0.909026
0.790387 0.333242 0.854795
0.92668 0.320623 0.794461
1 0.313848 0.789578
1 0.305516 0.779507
0 0.601465 0.882094
0.0325933 0.573632 0.871977
0.142657 0.546502 0.854612
0.308629 0.533837 0.845212
0.502251 0.513252 0.823926
0.70341 0.488762 0.789731
0.866133 0.467567 0.7505
0.987442 0.458824 0.726467
1 0.340078 0.620249
0 0.760494 0.797116
0 0.734066 0.782177
0.0888685 0.705074 0.76257
0.22829 0.687495 0.750576
0.414374 0.668757 0.735607
0.606027 0.64416 0.719326
0.771939 0.615518 0.697215
0.818723 0.487587 0.58146
0.92491 0.391714 0.498329
0 0.912642 0.709941
0 0.893294 0.684276
0.0247196 0.86363 0.664057
0.140414 0.83621 0.646662
0.325567 0.82446 0.643885
0.52578 0.800244 0.630976
0.728908 0.770245 0.612711
0.867231 0.736599 0.606958
0.999725 0.722606 0.595911
0 0.992218 0.657115
0 0.997284 0.603906
0 0.990646 0.576806
0.0783551 0.977447 0.552895
0.235981 0.976226 0.5458
0.433585 0.95613 0.541939
0.632532 0.925353 0.530556
0.817853 0.88368 0.533547
0.969528 0.859861 0.526421
0 1 0.601587
0 1 0.539132
0 1 0.504921
0.04065 1 0.48072
0.169512 1 0.469795
0.36376 1 0.471321
0.546212 1 0.455741
0.738231 1 0.443885
0.944228 1 0.450248
0.0589151 0 1
0.230304 0 1
0.430655 0 1
0.650278 0 1
0.879622 0 1
0.988312 0 1
1 0 1
1 0 1
1 0 1
0.0189059 0.1252 1
0.160937 0.0989395 1
0.339452 0.0838026 1
0.541131 0.0624399 1
0.760494 0.0467994 1
0.941466 0.0342565 1
1 0.0283055 1
1 0.0175784 1
1 0.0348974 1
0 0.278096 1
0.116777 0.248402 1
0.271565 0.233692 1
0.463981 0.214191 1
0.675212 0.189487 1
0.889296 0.163226 1
1 0.146334 1
1 0.124376 1
1 0.13138 1
0 0.435218 1
0.076112 0.404547 1
0.202258 0.38471 1
0.381613 0.368566 1
0.584894 0.3458 1
0.798291 0.319539 1
0.968307 0.297963 0.99237
1 0.279622 0.974792
1 0.273732 0.973953
0 0.594217 1
0.0290379 0.563729 1
0.138369 0.536263 1
0.299138 0.523522 1
0.493019 0.50312 1
0.703685 0.477943 0.990005
0.912245 0.452293 0.953292
1 0.436164 0.925765
1 0.423575 0.928878
0 0.751751 0.953155
0 0.724132 0.955535
0.0870985 0.696269 0.952041
0.21799 0.678523 0.956344
0.40209 0.660502 0.95407
0.606912 0.636774 0.936675
0.81825 0.609735 0.904158
0.971832 0.585595 0.869978
1 0.575677 0.850034
0 0.905333 0.89308
0 0.887297 0.901244
0.0292058 0.85951 0.889403
0.139513 0.833005 0.872572
0.311589 0.817487 0.862272
0.510918 0.794736 0.845655
0.711208 0.765499 0.828504
0.886763 0.731579 0.807767
0.914733 0.561013 0.660853
0 0.995209 0.850568
0 1 0.821286
0 0.9944 0.798611
0.0771038 0.983307 0.773404
0.218708 0.974777 0.760067
0.415137 0.952468 0.750851
0.624002 0.925811 0.737591
0.840497 0.893034 0.721035
0.977478 0.859693 0.713527
0 1 0.800336
0 1 0.751125
0 1 0.72398
0.0399939 1 0.697643
0.153918 1 0.677653
0.340688 1 0.672663
0.535821 1 0.658442
0.740047 1 0.641291
0.920119 0.995926 0.643992
0.0656291 0 1
0.22443 0 1
0.421698 0 1
0.639612 0 1
0.87483 0 1
1 0 1
1 0 1
1 0 1
1 0 1
0.0304723 0.113603 1
0.15462 0.0888075 1
0.329488 0.0743877 1
0.530236 0.0566262 1
0.753124 0.0422065 1
0.959426 0.0260166 1
1 0.018677 1
1 0.00933852 1
1 0.000411994 1
0 0.269856 1
0.11249 0.239155 1
0.263401 0.223133 1
0.454032 0.203891 1
0.665446 0.17911 1
0.891798 0.150072 1
1 0.128786 1
1 0.10898 1
1 0.0869154 1
0 0.427695 1
0.0725109 0.39498 1
0.195407 0.373449 1
0.372824 0.35758 1
0.575341 0.33489 1
0.795834 0.307179 1
0.990387 0.280171 1
1 0.260868 1
1 0.235096 1
0 0.586725 1
0.0253605 0.553903 1
0.134707 0.525628 1
0.290822 0.512123 1
0.483497 0.491951 1
0.696086 0.466316 1
0.918715 0.437064 1
1 0.41561 1
1 0.390951 1
0 0.746288 1
0 0.71574 1
0.0828565 0.685939 1
0.21033 0.666773 1
0.391562 0.649592 1
0.596384 0.626001 1
0.815976 0.598306 1
1 0.572213 1
1 0.550912 1
0 0.904952 1
0 0.87834 1
0.025864 0.84863 1
0.133501 0.820874 1
0.299687 0.80766 1
0.497749 0.785611 1
0.71191 0.759441 1
0.931624 0.729854 0.983993
1 0.708339 0.972045
0 1 0.974075
0 0.998428 0.967361
0 0.990738 0.958251
0.0730755 0.980514 0.947753
0.208789 0.966003 0.950423
0.39913 0.945449 0.951751
0.607187 0.920714 0.94905
0.808103 0.882826 0.936004
0.980163 0.84303 0.92018
0 1 0.944732
0 1 0.93576
0 1 0.927047
0.038529 1 0.916182
0.145586 1 0.896345
0.316014 1 0.883436
0.514168 1 0.867277
0.728603 1 0.848798
0.955093 1 0.829892
0.0657664 0 1
0.218433 0 1
0.412955 0 1
0.629038 0 1
0.863859 0 1
1 0 1
1 0 1
1 0 1
1 0 1
0.029099 0.104494 1
0.147967 0.0786908 1
0.319783 0.0650645 1
0.520165 0.0525978 1
0.741817 0.0384527 1
0.960037 0.0209964 1
1 0.0121157 1
1 0.00291447 1
1 0 1
0 0.259998 1
0.110002 0.228489 1
0.255512 0.212573 1
0.444053 0.19382 1
0.653956 0.169345 1
0.882063 0.139803 1
1 0.114794 1
1 0.0941939 1
1 0.0734417 1
0 0.418601 1
0.0688182 0.385153 1
0.188266 0.362234 1
0.363973 0.346654 1
0.565133 0.324269 1
0.785901 0.296407 1
0.997971 0.265965 1
1 0.243763 1
1 0.220661 1
0 0.57911 1
0.0211948 0.544503 1
0.130037 0.515221 1
0.282994 0.500618 1
0.474174 0.480751 1
0.686061 0.455238 1
0.915663 0.424689 1
1 0.398795 1
1 0.374624 1
0 0.741604 1
0 0.706096 1
0.0785077 0.675563 1
0.203342 0.654795 1
0.382452 0.638056 1
0.586221 0.614664 1
0.807218 0.586435 1
1 0.555917 1
1 0.532357 1
0 0.904494 1
0 0.869581 1
0.0216068 0.8383 1
0.128618 0.808896 1
0.290883 0.795926 1
0.485954 0.774639 1
0.700298 0.748287 1
0.928695 0.717891 1
1 0.691051 1
0 1 1
0 0.997604 1
0 0.987884 1
0.0683757 0.972793 1
0.200855 0.953887 1
0.384497 0.935531 1
0.592752 0.910414 1
0.81706 0.881376 1
1 0.852171 1
0 1 1
0 1 1
0 1 1
0.0338293 1 1
0.137728 1 1
0.300649 1 1
0.494377 1 1
0.709209 1 1
0.936217 1 0.996826
