public/filters/konnect/Presets C Medium Skin Tone/Warm v3_38.Med Skin 1.cube
TITLE "Generated by Resolve"
LUT_3D_SIZE 5
0.104967 0.0835431 0.0730144
0.223468 0.0847639 0.0613413
0.421317 0.0817884 0.0385595
0.660899 0.0636301 0.0295415
0.816815 0.0610361 0.0359197
0.0982834 0.193927 0.0841688
0.230655 0.210101 0.114504
0.43978 0.207721 0.0504311
0.697398 0.204349 0.0471962
0.853315 0.200183 0.0514229
0.088426 0.367147 0.092668
0.234287 0.39324 0.0770123
0.480156 0.440253 0.165866
0.673899 0.458793 0.156481
0.869123 0.471107 0.108431
0.0915999 0.586664 0.065507
0.20415 0.610864 0.0714122
0.559823 0.707286 0.0939345
0.770779 0.737621 0.203082
0.892897 0.748348 0.255421
0.0901045 0.756283 0.0595407
0.206516 0.775784 0.0634318
0.530694 0.864073 0.0680095
0.797131 0.918898 0.113787
0.925658 0.913771 0.179706
0.0863203 0.0874342 0.165881
0.227024 0.0889143 0.159777
0.437888 0.0564126 0.153048
0.654063 0.0634012 0.131914
0.816495 0.0643931 0.127199
0.0884565 0.205539 0.189364
0.243534 0.21619 0.192676
0.463966 0.215335 0.17174
0.675502 0.187121 0.142306
0.846494 0.194171 0.145083
0.0886091 0.388022 0.208896
0.211826 0.404379 0.213352
0.492271 0.458106 0.254566
0.647684 0.441108 0.207767
0.868025 0.487358 0.191974
0.0914168 0.609995 0.19704
0.20824 0.631708 0.188113
0.557824 0.719661 0.181674
0.748058 0.738384 0.269932
0.877653 0.751598 0.330556
0.0886091 0.785641 0.206989
0.217227 0.801938 0.205356
0.536706 0.886595 0.169055
0.776455 0.927245 0.196689
0.909941 0.92401 0.251957
0.0666667 0.0668345 0.326253
0.231159 0.0722972 0.313344
0.449592 0.0632944 0.328161
0.672053 0.0617227 0.336004
0.819959 0.0581216 0.333501
0.076173 0.198016 0.35137
0.239399 0.215778 0.347219
0.495094 0.217395 0.36762
0.704921 0.186465 0.377371
0.842908 0.191058 0.373037
0.0848096 0.402243 0.393271
0.19707 0.421912 0.407065
0.533135 0.47187 0.430457
0.732296 0.464668 0.416815
0.887968 0.486656 0.420264
0.0717479 0.624262 0.402991
0.202838 0.652094 0.430426
0.552254 0.730282 0.446754
0.776287 0.760098 0.519158
0.861769 0.733608 0.51371
0.0607919 0.808835 0.417517
0.212024 0.818753 0.444785
0.510155 0.878416 0.467567
0.800137 0.940658 0.479194
0.918746 0.940337 0.499336
0.0716106 0.0740063 0.505745
0.21944 0.070985 0.501137
0.461143 0.0683757 0.522896
0.692149 0.0663462 0.540917
0.838087 0.0620584 0.54519
0.0721447 0.178576 0.537453
0.231281 0.195636 0.539025
0.504173 0.190066 0.566171
0.728542 0.184543 0.587991
0.867552 0.186618 0.589761
0.0772717 0.405615 0.592508
0.191394 0.431098 0.608515
0.541238 0.484108 0.62327
0.777035 0.494224 0.650629
0.908034 0.5075 0.661768
0.0805066 0.652537 0.634195
0.199161 0.671061 0.644129
0.520623 0.736782 0.669886
0.804089 0.786831 0.737346
0.915114 0.78175 0.729854
0.0644236 0.826032 0.647898
0.210849 0.837537 0.653758
0.507256 0.887984 0.679225
0.822751 0.952697 0.71191
0.952117 0.966506 0.732708
0.06981 0.0728466 0.663584
0.211627 0.0691386 0.660716
0.467033 0.0664378 0.68574
0.702419 0.0658122 0.708278
0.84921 0.0664073 0.712963
0.0754711 0.178836 0.690883
0.212055 0.213535 0.697948
0.511452 0.217792 0.728542
0.734325 0.186282 0.747448
0.876081 0.188952 0.752453
0.0824598 0.412955 0.745266
0.19263 0.438453 0.756771
0.53547 0.490059 0.778241
0.784802 0.50277 0.803311
0.92076 0.514733 0.812329
0.0936446 0.654276 0.78819
0.206165 0.680339 0.795743
0.511971 0.741695 0.813596
0.815839 0.793576 0.8551
0.95462 0.804623 0.856962
0.0938582 0.814145 0.797055
0.218601 0.845258 0.805966
0.5028 0.892989 0.821103
0.82649 0.951354 0.865492
0.967544 0.965286 0.886931
