public/filters/konnect/Presets C Medium Skin Tone/Warm v3_38.Med Skin 1.cube
TITLE "Generated by Resolve"
LUT_3D_SIZE 9
0.104967 0.0835431 0.0730144
0.158556 0.0846571 0.0659495
0.223468 0.0847639 0.0613413
0.312352 0.084184 0.0548409
0.421317 0.0817884 0.0385595
0.558923 0.0639963 0.0335699
0.660899 0.0636301 0.0295415
0.744945 0.0627604 0.032639
0.816815 0.0610361 0.0359197
0.10277 0.132601 0.0861677
0.15877 0.137362 0.0873121
0.231708 0.137713 0.069398
0.317052 0.13611 0.0601053
0.418463 0.133364 0.0452888
0.57641 0.123232 0.0404364
0.678721 0.119036 0.0407263
0.762661 0.118608 0.0423285
0.833295 0.117311 0.0449836
0.0982834 0.193927 0.0841688
0.162356 0.198291 0.105486
0.230655 0.210101 0.114504
0.330556 0.208652 0.0742351
0.43978 0.207721 0.0504311
0.589349 0.215442 0.0500496
0.697398 0.204349 0.0471962
0.781552 0.199054 0.0487526
0.853315 0.200183 0.0514229
0.0894484 0.270588 0.0911574
0.150637 0.275044 0.093492
0.250217 0.289281 0.124102
0.331075 0.301854 0.133867
0.436301 0.307256 0.106264
0.581811 0.318578 0.0734874
0.716472 0.328588 0.0590677
0.807034 0.328069 0.0576791
0.881117 0.329442 0.0588693
0.088426 0.367147 0.092668
0.146319 0.372946 0.095201
0.234287 0.39324 0.0770123
0.379187 0.418128 0.129305
0.480156 0.440253 0.165866
0.558495 0.440696 0.164431
0.673899 0.458793 0.156481
0.775814 0.466224 0.133577
0.869123 0.471107 0.108431
0.0893721 0.478523 0.071397
0.146853 0.48571 0.0763256
0.20795 0.508919 0.0783703
0.401282 0.553903 0.0817731
0.538674 0.580987 0.142214
0.635813 0.597635 0.19173
0.723079 0.610971 0.219745
0.790494 0.613535 0.224369
0.844343 0.615396 0.223377
0.0915999 0.586664 0.065507
0.149264 0.591119 0.0709544
0.20415 0.610864 0.0714122
0.378378 0.66067 0.068925
0.559823 0.707286 0.0939345
0.68246 0.728801 0.147845
0.770779 0.737621 0.203082
0.838361 0.743175 0.236912
0.892897 0.748348 0.255421
0.0910658 0.676371 0.0620127
0.15378 0.682048 0.0661936
0.206683 0.697704 0.0683452
0.342229 0.735485 0.0677195
0.552087 0.796841 0.074876
0.693828 0.829023 0.104555
0.789349 0.836957 0.148852
0.85919 0.836408 0.195636
0.914061 0.837522 0.227466
0.0901045 0.756283 0.0595407
0.155261 0.763195 0.0624552
0.206516 0.775784 0.0634318
0.338262 0.809583 0.0648203
0.530694 0.864073 0.0680095
0.697124 0.909255 0.0860456
0.797131 0.918898 0.113787
0.870573 0.916411 0.149981
0.925658 0.913771 0.179706
0.0957198 0.0856794 0.111559
0.150942 0.0872816 0.108644
0.228748 0.087953 0.105562
0.319158 0.0842298 0.100282
0.427375 0.0744488 0.0818494
0.553307 0.0636301 0.078172
0.656092 0.0636454 0.0759899
0.74258 0.063798 0.0757916
0.817624 0.0629587 0.0780652
0.0963455 0.137041 0.124422
0.161624 0.139208 0.123369
0.242054 0.144442 0.115526
0.331914 0.141405 0.108156
0.442222 0.135485 0.0889601
0.563088 0.118074 0.0844739
0.674067 0.121538 0.0842145
0.759121 0.12137 0.0843519
0.833143 0.119768 0.0872358
0.0929427 0.200244 0.13135
0.158511 0.20235 0.144854
0.236988 0.213886 0.148379
0.347356 0.214359 0.116426
0.460182 0.214694 0.0941939
0.570718 0.20676 0.0896162
0.688853 0.204913 0.0901656
0.775738 0.202319 0.090959
0.851179 0.201419 0.0938735
0.0899214 0.279362 0.1402
0.149096 0.281941 0.143343
0.249805 0.295476 0.165576
0.344472 0.312383 0.175555
0.439872 0.307591 0.132464
0.572549 0.310033 0.100969
0.705516 0.328634 0.0994888
0.80032 0.336873 0.100511
0.876829 0.338125 0.101854
0.0893111 0.378454 0.14342
0.146563 0.382818 0.147112
0.226963 0.399542 0.133455
0.386847 0.428809 0.168688
0.477806 0.444083 0.200488
0.560174 0.446494 0.19585
0.660166 0.454002 0.183337
0.771115 0.476722 0.17496
0.867109 0.482139 0.150195
0.090547 0.49102 0.130083
0.14786 0.496437 0.125933
0.207355 0.517311 0.123156
0.402502 0.563592 0.122148
0.539986 0.589014 0.177752
0.632853 0.602808 0.226062
0.702434 0.603159 0.247196
0.782773 0.618891 0.26041
0.838041 0.621042 0.259892
0.0927596 0.597131 0.10837
0.151156 0.602548 0.114626
0.209598 0.626276 0.118791
0.393881 0.676814 0.115892
0.562753 0.715724 0.134371
0.675685 0.733135 0.180346
0.758679 0.737881 0.231495
0.829389 0.745174 0.270466
0.886183 0.751293 0.290105
0.0923476 0.686687 0.104631
0.155169 0.691524 0.109529
0.21236 0.710887 0.112902
0.364584 0.752941 0.113054
0.546532 0.802869 0.116167
0.686305 0.834684 0.142397
0.780056 0.842145 0.181842
0.85275 0.84062 0.228367
0.909239 0.841718 0.261189
0.091722 0.766751 0.105913
0.156939 0.772869 0.107454
0.216342 0.792065 0.109117
0.339574 0.819287 0.108705
0.52752 0.872648 0.10985
0.681544 0.911208 0.124208
0.786847 0.924224 0.150423
0.864363 0.922423 0.184421
0.920394 0.91928 0.21326
0.0863203 0.0874342 0.165881
0.147326 0.0888228 0.155718
0.227024 0.0889143 0.159777
0.327092 0.0793469 0.160433
0.437888 0.0564126 0.153048
0.552728 0.0591287 0.138323
0.654063 0.0634012 0.131914
0.742275 0.0622568 0.125917
0.816495 0.0643931 0.127199
0.0899214 0.140337 0.177722
0.156741 0.141817 0.171984
0.238361 0.147356 0.173266
0.345464 0.147448 0.173846
0.449943 0.130373 0.163714
0.562524 0.116579 0.150576
0.668177 0.122148 0.138842
0.757122 0.12369 0.135409
0.831342 0.122194 0.136187
0.0884565 0.205539 0.189364
0.151003 0.206378 0.190631
0.243534 0.21619 0.192676
0.361913 0.223789 0.183398
0.463966 0.215335 0.17174
0.572015 0.195148 0.15378
0.675502 0.187121 0.142306
0.770993 0.193149 0.143832
0.846494 0.194171 0.145083
0.0885023 0.286824 0.202258
0.144808 0.288746 0.204471
0.244068 0.299718 0.218433
0.352743 0.31873 0.232197
0.475135 0.320943 0.18584
0.59057 0.318837 0.155291
0.682765 0.311772 0.145846
0.791089 0.336019 0.149813
0.868589 0.338872 0.151293
0.0886091 0.388022 0.208896
0.145693 0.391943 0.21387
0.211826 0.404379 0.213352
0.386328 0.434989 0.236576
0.492271 0.458106 0.254566
0.556756 0.446311 0.234195
0.647684 0.441108 0.207767
0.766491 0.473838 0.20856
0.868025 0.487358 0.191974
0.0898756 0.502953 0.206439
0.147173 0.506737 0.211536
0.20502 0.523919 0.201205
0.394263 0.567697 0.176913
0.544091 0.596963 0.224033
0.624506 0.602899 0.266621
0.696178 0.604868 0.285008
0.763867 0.611383 0.295232
0.831708 0.623743 0.29987
0.0914168 0.609995 0.19704
0.150652 0.611475 0.198795
0.20824 0.631708 0.188113
0.377493 0.677516 0.170794
0.557824 0.719661 0.181674
0.671336 0.736049 0.22388
0.748058 0.738384 0.269932
0.805905 0.734173 0.302861
0.877653 0.751598 0.330556
0.0901503 0.7019 0.197223
0.154101 0.702358 0.198962
0.213687 0.719417 0.188724
0.366415 0.764019 0.175891
0.552499 0.814908 0.172061
0.674861 0.837659 0.189487
0.767224 0.843732 0.223224
0.838514 0.840711 0.264408
0.899779 0.84332 0.300084
0.0886091 0.785641 0.206989
0.156725 0.788037 0.210819
0.217227 0.801938 0.205356
0.356512 0.836469 0.186191
0.536706 0.886595 0.169055
0.668116 0.912825 0.173983
0.776455 0.927245 0.196689
0.854414 0.928267 0.226535
0.909941 0.92401 0.251957
0.0791791 0.0834516 0.236225
0.147692 0.0863661 0.226169
0.228229 0.0877241 0.227222
0.328511 0.080827 0.234241
0.441566 0.055314 0.236545
0.562936 0.0547951 0.232502
0.658137 0.0609598 0.232593
0.743999 0.0588083 0.230106
0.811795 0.063386 0.224384
0.080827 0.14052 0.247227
0.148165 0.141955 0.242313
0.237613 0.147677 0.240146
0.347738 0.14789 0.248676
0.464958 0.127306 0.253635
0.581445 0.120439 0.254566
0.673869 0.123278 0.249409
0.756893 0.12607 0.246983
0.827283 0.125887 0.245792
0.0816052 0.207309 0.263401
0.142245 0.209628 0.260746
0.24416 0.218204 0.256931
0.363531 0.225711 0.264469
0.486671 0.223713 0.268162
0.588922 0.193515 0.265538
0.680781 0.180728 0.258122
0.766384 0.185855 0.257191
0.839857 0.189288 0.258778
0.085481 0.291417 0.279362
0.140597 0.295018 0.282017
0.229206 0.302464 0.285191
0.375937 0.321706 0.28658
0.511604 0.333593 0.285237
0.602274 0.320928 0.278416
0.691035 0.311025 0.270161
0.776196 0.316747 0.265827
0.858564 0.338506 0.275227
0.0878157 0.396109 0.2934
0.142535 0.401038 0.298848
0.201541 0.412665 0.302235
0.386007 0.441444 0.328069
0.504509 0.46247 0.35378
0.603204 0.461616 0.323415
0.704402 0.456291 0.293812
0.787945 0.449119 0.270359
0.886503 0.485405 0.289845
0.089128 0.511711 0.29807
0.145876 0.517174 0.307134
0.201862 0.534218 0.310765
0.362692 0.565942 0.31191
0.55079 0.601999 0.344564
0.646494 0.616144 0.376013
0.693568 0.598306 0.351659
0.741115 0.583062 0.334813
0.831281 0.615885 0.360433
0.0869917 0.617853 0.295125
0.149844 0.622141 0.308293
0.205753 0.639216 0.312261
0.333028 0.670222 0.312871
0.560845 0.722057 0.301396
0.682338 0.738552 0.327138
0.74519 0.734936 0.339055
0.806806 0.73434 0.361349
0.865309 0.738918 0.379751
0.0778821 0.708568 0.295094
0.15407 0.714748 0.313802
0.211048 0.728099 0.319799
0.327642 0.75906 0.321813
0.553201 0.813916 0.317113
0.685954 0.836683 0.313588
0.772229 0.843519 0.329595
0.839124 0.841627 0.351812
0.888518 0.831815 0.361303
0.0780194 0.798962 0.308949
0.156298 0.800366 0.320195
0.215045 0.80885 0.327596
0.32784 0.836713 0.332158
0.542184 0.892256 0.334524
0.684977 0.921523 0.332708
0.783337 0.929946 0.342077
0.855024 0.932265 0.357397
0.909819 0.926604 0.376318
0.0666667 0.0668345 0.326253
0.142702 0.0729229 0.315175
0.231159 0.0722972 0.313344
0.3308 0.0700236 0.319982
0.449592 0.0632944 0.328161
0.572747 0.0582589 0.334569
0.672053 0.0617227 0.336004
0.75172 0.0594492 0.336019
0.819959 0.0581216 0.333501
0.0707866 0.123476 0.336736
0.145541 0.128313 0.330083
0.24152 0.132342 0.327764
0.349203 0.132692 0.337362
0.472755 0.12314 0.348074
0.592599 0.122026 0.358038
0.691341 0.122744 0.358755
0.767941 0.12491 0.356222
0.836011 0.125872 0.357198
0.076173 0.198016 0.35137
0.137407 0.204303 0.35198
0.239399 0.215778 0.347219
0.365454 0.223789 0.356466
0.495094 0.217395 0.36762
0.609918 0.193668 0.37528
0.704921 0.186465 0.377371
0.777752 0.18706 0.372778
0.842908 0.191058 0.373037
0.0806287 0.292363 0.373419
0.137682 0.297581 0.377935
0.210361 0.30753 0.378866
0.376303 0.327947 0.382208
0.521904 0.336126 0.392035
0.633127 0.336568 0.399573
0.715709 0.321462 0.397864
0.79089 0.319554 0.391043
0.862791 0.341558 0.397955
0.0848096 0.402243 0.393271
0.138811 0.409506 0.400702
0.19707 0.421912 0.407065
0.371786 0.444938 0.418845
0.533135 0.47187 0.430457
0.661585 0.483284 0.42562
0.732296 0.464668 0.416815
0.809613 0.461448 0.411887
0.887968 0.486656 0.420264
0.0834669 0.519661 0.404303
0.143084 0.529305 0.415717
0.198993 0.546807 0.423026
0.326421 0.571771 0.429892
0.561059 0.616175 0.462516
0.666346 0.632685 0.505776
0.719097 0.617472 0.489982
0.794095 0.611765 0.469352
0.873777 0.629694 0.467338
0.0717479 0.624262 0.402991
0.148318 0.634775 0.422354
0.202838 0.652094 0.430426
0.294652 0.680003 0.435676
0.552254 0.730282 0.446754
0.700175 0.754528 0.478325
0.776287 0.760098 0.519158
0.819287 0.745541 0.517571
0.861769 0.733608 0.51371
0.0641794 0.721736 0.409949
0.153521 0.725612 0.428489
0.208774 0.739498 0.43798
0.29337 0.767224 0.443702
0.53109 0.810513 0.458762
0.700496 0.8495 0.464073
0.793622 0.858198 0.489128
0.848814 0.852201 0.502907
0.905653 0.847669 0.522301
0.0607919 0.808835 0.417517
0.155749 0.809888 0.433906
0.212024 0.818753 0.444785
0.29073 0.841871 0.450767
0.510155 0.878416 0.467567
0.696529 0.928893 0.471046
0.800137 0.940658 0.479194
0.86659 0.944671 0.491112
0.918746 0.940337 0.499336
0.0656901 0.0678111 0.419608
0.135256 0.0724956 0.410391
0.229709 0.0716716 0.408164
0.335515 0.0701305 0.416312
0.456733 0.0677348 0.42681
0.581491 0.0636606 0.437476
0.684871 0.0639353 0.440894
0.76318 0.0627298 0.441962
0.829908 0.0573281 0.442771
0.0696117 0.122835 0.432441
0.137743 0.123568 0.427817
0.239231 0.124071 0.424842
0.353872 0.123598 0.435187
0.481636 0.123308 0.448234
0.604761 0.12314 0.4607
0.7066 0.1234 0.466621
0.78024 0.125002 0.465553
0.844541 0.124819 0.466987
0.0728008 0.17882 0.445502
0.137301 0.184375 0.446097
0.236759 0.206592 0.445502
0.367559 0.212589 0.454704
0.50016 0.202823 0.468742
0.61976 0.187808 0.479973
0.717525 0.185489 0.487602
0.793713 0.186374 0.486961
0.857893 0.188067 0.487037
0.0751049 0.284825 0.469581
0.133928 0.293019 0.475868
0.199451 0.308858 0.480354
0.373053 0.328923 0.479637
0.525536 0.338033 0.497627
0.647211 0.335821 0.508797
0.735897 0.329717 0.518853
0.812314 0.333394 0.518441
0.873121 0.343832 0.517433
0.0792401 0.405814 0.496696
0.134493 0.414954 0.505241
0.192966 0.42945 0.512657
0.350225 0.451957 0.515526
0.547143 0.482216 0.531701
0.678065 0.48986 0.539879
0.764141 0.49015 0.549676
0.831479 0.481178 0.549065
0.901503 0.502708 0.552514
0.0797436 0.533791 0.51809
0.13994 0.539132 0.524269
0.195743 0.556695 0.53373
0.292607 0.581308 0.539925
0.553582 0.621942 0.566964
0.678798 0.643687 0.602716
0.768261 0.646525 0.589181
0.843046 0.62945 0.568902
0.92047 0.646571 0.575357
0.0695048 0.643656 0.527382
0.14583 0.647028 0.533852
0.199939 0.663569 0.543938
0.267491 0.690745 0.550072
0.530144 0.730999 0.570306
0.714137 0.768521 0.596689
0.794354 0.776425 0.639735
0.834684 0.759274 0.632975
0.891524 0.757534 0.631891
0.0488136 0.730404 0.526833
0.152438 0.737957 0.542184
0.20679 0.751186 0.551003
0.266011 0.777569 0.557443
0.509773 0.809796 0.577493
0.707622 0.857359 0.591196
0.810895 0.869917 0.610269
0.875441 0.874449 0.636545
0.919005 0.861128 0.637339
0.0520638 0.824323 0.538598
0.154955 0.82388 0.549142
0.209964 0.829908 0.55584
0.271229 0.850919 0.562844
0.509911 0.883223 0.582498
0.69453 0.928908 0.597025
0.814221 0.949401 0.603311
0.880613 0.954955 0.613474
0.922179 0.947341 0.605875
0.0716106 0.0740063 0.505745
0.133608 0.0728466 0.50161
0.21944 0.070985 0.501137
0.337072 0.0692607 0.510811
0.461143 0.0683757 0.522896
0.585992 0.0674601 0.534783
0.692149 0.0663462 0.540917
0.771038 0.0662852 0.542824
0.838087 0.0620584 0.54519
0.0742046 0.123201 0.522011
0.136934 0.123629 0.520378
0.232029 0.123735 0.518761
0.356222 0.123064 0.530648
0.486946 0.123156 0.545083
0.611292 0.123445 0.558022
0.714137 0.123537 0.565637
0.790204 0.124453 0.566842
0.856077 0.124468 0.570199
0.0721447 0.178576 0.537453
0.136309 0.179095 0.537987
0.231281 0.195636 0.539025
0.367971 0.199985 0.550332
0.504173 0.190066 0.566171
0.628717 0.183429 0.57879
0.728542 0.184543 0.587991
0.805646 0.185855 0.589578
0.867552 0.186618 0.589761
0.0741131 0.267002 0.558099
0.132235 0.283284 0.566583
0.196872 0.307073 0.573251
0.369146 0.328069 0.578225
0.52726 0.337179 0.595178
0.653666 0.334081 0.607874
0.745129 0.329046 0.616938
0.818662 0.331319 0.62121
0.884153 0.340352 0.620371
0.0772717 0.405615 0.592508
0.133227 0.414298 0.600595
0.191394 0.431098 0.608515
0.330114 0.454871 0.612375
0.541238 0.484108 0.62327
0.683238 0.493721 0.641093
0.777035 0.494224 0.650629
0.848432 0.498497 0.660227
0.908034 0.5075 0.661768
0.0798199 0.539605 0.618372
0.13843 0.544747 0.622461
0.193713 0.561685 0.632486
0.275975 0.587137 0.638209
0.538857 0.624857 0.655573
0.700862 0.653147 0.677943
0.799893 0.657954 0.679072
0.87303 0.659831 0.687968
0.936843 0.666056 0.692042
0.0805066 0.652537 0.634195
0.146105 0.655406 0.634699
0.199161 0.671061 0.644129
0.256733 0.698116 0.650965
0.520623 0.736782 0.669886
0.71339 0.774319 0.696483
0.804089 0.786831 0.737346
0.854932 0.783475 0.739742
0.915114 0.78175 0.729854
0.0662089 0.742626 0.643717
0.152316 0.745037 0.642832
0.206989 0.759411 0.650339
0.261616 0.782986 0.657618
0.506432 0.815534 0.675639
0.695964 0.854276 0.698405
0.823392 0.877424 0.714702
0.888426 0.882887 0.742687
0.938979 0.881132 0.758801
0.0644236 0.826032 0.647898
0.154437 0.828107 0.64921
0.210849 0.837537 0.653758
0.265431 0.858183 0.660975
0.507256 0.887984 0.679225
0.687953 0.926192 0.699626
0.822751 0.952697 0.71191
0.893431 0.96025 0.718853
0.952117 0.966506 0.732708
0.0708171 0.0734569 0.588647
0.133471 0.0720226 0.585061
0.211017 0.0700999 0.584924
0.338018 0.0681163 0.595682
0.464347 0.0674754 0.608774
0.590921 0.0669871 0.621881
0.697093 0.0665141 0.629801
0.778012 0.0667735 0.632273
0.843687 0.0668193 0.633906
0.0755627 0.123217 0.603906
0.137743 0.1234 0.602823
0.226062 0.123125 0.603342
0.358007 0.122103 0.616464
0.491005 0.122408 0.632029
0.617166 0.122957 0.64506
0.719173 0.123125 0.653193
0.797665 0.12401 0.65594
0.861967 0.124422 0.658427
0.0746319 0.17821 0.617975
0.137194 0.178805 0.619013
0.223789 0.196368 0.62237
0.368109 0.20148 0.635721
0.508019 0.19527 0.652384
0.633799 0.18436 0.664942
0.732479 0.183642 0.673442
0.809216 0.185016 0.676524
0.872663 0.186114 0.677745
0.074876 0.260273 0.637629
0.133257 0.281437 0.644343
0.196536 0.309041 0.65333
0.36495 0.331945 0.662409
0.528313 0.341283 0.680049
0.658381 0.339025 0.693019
0.753353 0.332753 0.699535
0.827283 0.336004 0.704082
0.891478 0.343954 0.706401
0.0798505 0.405905 0.672618
0.134081 0.414984 0.679194
0.191653 0.432639 0.687633
0.320027 0.458351 0.692836
0.539422 0.48632 0.705928
0.6851 0.497246 0.723522
0.782696 0.497093 0.731991
0.855009 0.502022 0.737682
0.917861 0.509117 0.740764
0.0860914 0.541344 0.700618
0.140978 0.547997 0.704036
0.194675 0.564218 0.712657
0.264607 0.589517 0.71783
0.527718 0.62649 0.73286
0.697581 0.65597 0.749203
0.802945 0.662104 0.761334
0.876722 0.667185 0.768231
0.93724 0.673075 0.773571
0.0913558 0.652827 0.715633
0.148989 0.659892 0.717678
0.201968 0.675258 0.725719
0.256413 0.701427 0.731823
0.514122 0.739467 0.747951
0.707027 0.772213 0.774655
0.80853 0.790722 0.805676
0.879408 0.796872 0.797909
0.947326 0.802731 0.793637
0.0913405 0.737743 0.721843
0.154421 0.747158 0.724498
0.210147 0.763867 0.73196
0.263218 0.786709 0.738094
0.502724 0.818906 0.753002
0.692882 0.855085 0.776654
0.82533 0.879286 0.795865
0.895308 0.886992 0.821088
0.940536 0.887694 0.835737
0.0881971 0.816236 0.72932
0.1561 0.826398 0.729717
0.213962 0.842008 0.734737
0.267689 0.862577 0.740551
0.504784 0.890913 0.755993
0.691554 0.927443 0.778775
0.824521 0.951675 0.795834
0.902998 0.962219 0.801785
0.95996 0.965576 0.815991
0.06981 0.0728466 0.663584
0.13286 0.071107 0.660441
0.211627 0.0691386 0.660716
0.339361 0.0669108 0.672206
0.467033 0.0664378 0.68574
0.595148 0.0662394 0.699199
0.702419 0.0658122 0.708278
0.783062 0.0661631 0.711177
0.84921 0.0664073 0.712963
0.075288 0.123232 0.678264
0.137591 0.123064 0.677195
0.226291 0.122728 0.678492
0.359167 0.121447 0.692317
0.492668 0.121477 0.707851
0.619974 0.122301 0.721111
0.721645 0.122591 0.729976
0.800687 0.123476 0.732982
0.865721 0.124132 0.734737
0.0754711 0.178836 0.690883
0.137682 0.179706 0.691707
0.212055 0.213535 0.697948
0.368322 0.223163 0.711803
0.511452 0.217792 0.728542
0.636316 0.196384 0.739895
0.734325 0.186282 0.747448
0.810529 0.186801 0.750835
0.876081 0.188952 0.752453
0.0763256 0.278279 0.711391
0.134142 0.292271 0.716228
0.196384 0.31725 0.725765
0.362234 0.340673 0.735866
0.529946 0.350896 0.754177
0.662242 0.350683 0.767254
0.758175 0.345846 0.773922
0.832212 0.349035 0.778546
0.896361 0.356847 0.781003
0.0824598 0.412955 0.745266
0.136858 0.421027 0.748531
0.19263 0.438453 0.756771
0.314199 0.463355 0.762356
0.53547 0.490059 0.778241
0.685954 0.502098 0.794446
0.784802 0.50277 0.803311
0.858061 0.507683 0.808728
0.92076 0.514733 0.812329
0.089601 0.544076 0.771679
0.144808 0.552438 0.774563
0.197498 0.568307 0.781231
0.261616 0.592187 0.785214
0.52253 0.628244 0.800153
0.697383 0.655421 0.813718
0.803433 0.664073 0.827802
0.878874 0.669062 0.834562
0.941619 0.674495 0.837873
0.0936446 0.654276 0.78819
0.152758 0.663813 0.7897
0.206165 0.680339 0.795743
0.257771 0.704616 0.799603
0.511971 0.741695 0.813596
0.706462 0.774029 0.835309
0.815839 0.793576 0.8551
0.891356 0.800214 0.856077
0.95462 0.804623 0.856962
0.0951247 0.739101 0.794919
0.157229 0.750134 0.796933
0.213901 0.768292 0.80206
0.265354 0.791043 0.806104
0.499489 0.820996 0.817563
0.689647 0.855589 0.840528
0.822522 0.876493 0.863172
0.899504 0.888304 0.885939
0.946242 0.88986 0.89221
0.0938582 0.814145 0.797055
0.159182 0.826673 0.801175
0.218601 0.845258 0.805966
0.271885 0.866987 0.809689
0.5028 0.892989 0.821103
0.690532 0.928862 0.844205
0.82649 0.951354 0.865492
0.908553 0.961807 0.87451
0.967544 0.965286 0.886931
