public/filters/konnect/Presets C Medium Skin Tone/Warm v3_38.Med Skin 1.cube
TITLE "Generated by Resolve"
LUT_3D_SIZE 33
0.104967 0.0835431 0.0730144
0.119127 0.0833143 0.0706188
0.130953 0.0839094 0.0691539
0.143374 0.0845655 0.067628
0.158556 0.0846571 0.0659495
0.175097 0.0847639 0.06421
0.191836 0.0847639 0.0632181
0.207614 0.0848402 0.0622721
0.223468 0.0847639 0.0613413
0.243778 0.0847486 0.0602274
0.26537 0.0848249 0.0590219
0.289128 0.0846113 0.0573739
0.312352 0.084184 0.0548409
0.334905 0.0834058 0.0500343
0.358221 0.082536 0.04477
0.386419 0.0820935 0.0406806
0.421317 0.0817884 0.0385595
0.461494 0.0803082 0.0372168
0.497856 0.0737774 0.0360418
0.529946 0.0657969 0.0348211
0.558923 0.0639963 0.0335699
0.586816 0.0637217 0.0322271
0.613184 0.0637064 0.0310521
0.63769 0.0637064 0.0301366
0.660899 0.0636301 0.0295415
0.683101 0.0635538 0.0293889
0.70454 0.0633707 0.0300603
0.725093 0.0631113 0.0314031
0.744945 0.0627604 0.032639
0.764309 0.0623331 0.0334783
0.7832 0.0618601 0.0344091
0.801221 0.0614328 0.0352636
0.816815 0.0610361 0.0359197
0.105028 0.093904 0.0762341
0.120455 0.0940871 0.0735485
0.132662 0.0949569 0.0721599
0.145541 0.0958572 0.0706188
0.161044 0.0962081 0.0687266
0.17821 0.0966354 0.0667735
0.196338 0.0971237 0.0656291
0.213825 0.097673 0.0646067
0.231632 0.0978408 0.0635996
0.250767 0.0975052 0.062562
0.269657 0.0969253 0.0613565
0.290959 0.096025 0.0596475
0.312779 0.0951705 0.0571603
0.334768 0.0941329 0.0526131
0.357351 0.0929732 0.047364
0.384405 0.0923171 0.0430152
0.418814 0.0923323 0.0406043
0.460563 0.0918441 0.0391394
0.499977 0.0860609 0.0380255
0.53431 0.0785077 0.0368353
0.56437 0.0768597 0.0357061
0.592065 0.0767224 0.0344549
0.618173 0.0767376 0.033402
0.642542 0.0767681 0.0330358
0.665599 0.0767834 0.033051
0.687648 0.0767987 0.0331273
0.708766 0.0766766 0.0336919
0.729137 0.0764324 0.0349889
0.748821 0.0760967 0.0360418
0.768032 0.0757458 0.03682
0.786831 0.075288 0.037583
0.804364 0.0748608 0.0383001
0.82002 0.074464 0.0389258
0.103563 0.106126 0.0802319
0.117479 0.106691 0.0803235
0.131304 0.107591 0.0776989
0.145861 0.108446 0.0747845
0.161883 0.108919 0.0720836
0.179767 0.109514 0.0693523
0.198352 0.110109 0.0676585
0.216587 0.110948 0.0664073
0.235645 0.111559 0.0653697
0.255299 0.111345 0.0641489
0.27332 0.110384 0.0626841
0.292256 0.108614 0.0606088
0.311666 0.106996 0.0580148
0.332677 0.105547 0.0539101
0.355474 0.104402 0.0487984
0.382132 0.103853 0.0447242
0.416358 0.104295 0.0420539
0.458228 0.104845 0.0404822
0.500938 0.101015 0.0391699
0.537682 0.0935531 0.0381933
0.569604 0.090425 0.0372473
0.59733 0.0903944 0.0362249
0.623346 0.0904097 0.0353857
0.647669 0.0905165 0.0359655
0.670802 0.0905776 0.0364538
0.692851 0.0906081 0.0366674
0.71397 0.0905013 0.0370794
0.734234 0.0903182 0.0377813
0.753918 0.0899977 0.0385138
0.773053 0.0896468 0.0392004
0.79176 0.0892195 0.0399634
0.809018 0.0888685 0.0406348
0.82475 0.0884718 0.0412451
0.102159 0.119234 0.0841993
0.114611 0.120119 0.0873426
0.129824 0.120974 0.0837262
0.145617 0.121859 0.0800793
0.161975 0.122591 0.0768597
0.180255 0.123415 0.0736248
0.199161 0.12398 0.0709087
0.21706 0.124559 0.0688792
0.235096 0.124697 0.0670176
0.254871 0.124544 0.0653697
0.274174 0.123766 0.063386
0.294194 0.122225 0.0608377
0.313329 0.120256 0.0576333
0.333288 0.118486 0.0535897
0.355749 0.11722 0.0487068
0.382239 0.116747 0.0453651
0.41619 0.117586 0.0427405
0.457465 0.118944 0.0413367
0.50164 0.118105 0.0399481
0.5402 0.110903 0.0392767
0.573541 0.105379 0.0387274
0.601678 0.104616 0.0385595
0.62771 0.104479 0.037995
0.652064 0.104601 0.0386053
0.675166 0.104723 0.0388495
0.697292 0.104707 0.0390631
0.718456 0.104662 0.0393835
0.738766 0.104509 0.0398871
0.758495 0.104173 0.040589
0.7776 0.103838 0.0412451
0.796292 0.103471 0.0419623
0.813443 0.103075 0.042649
0.829068 0.10277 0.0432288
0.10277 0.132601 0.0861677
0.115724 0.133165 0.0918135
0.128969 0.134585 0.0911574
0.142718 0.13608 0.0905623
0.15877 0.137362 0.0873121
0.177356 0.138582 0.0831006
0.197253 0.138781 0.077348
0.215152 0.138537 0.0729534
0.231708 0.137713 0.069398
0.251026 0.137331 0.0671702
0.27155 0.137087 0.0652476
0.294484 0.136782 0.0631723
0.317052 0.13611 0.0601053
0.338872 0.135073 0.0555581
0.361334 0.133898 0.0506447
0.386526 0.133059 0.047303
0.418463 0.133364 0.0452888
0.458534 0.134722 0.043946
0.502464 0.135698 0.0425727
0.542168 0.130907 0.041474
0.57641 0.123232 0.0404364
0.605371 0.119387 0.0410773
0.63122 0.118914 0.0407568
0.655543 0.118944 0.0407263
0.678721 0.119036 0.0407263
0.700984 0.119081 0.0408789
0.722362 0.119051 0.0411688
0.74284 0.118914 0.0416571
0.762661 0.118608 0.0423285
0.781994 0.118288 0.0430457
0.80061 0.117937 0.0437629
0.817716 0.117601 0.0444343
0.833295 0.117311 0.0449836
0.10341 0.146273 0.0876478
0.117159 0.146593 0.0948196
0.128878 0.14844 0.0970169
0.141207 0.150332 0.0994888
0.156802 0.152087 0.0967422
0.174945 0.153704 0.0928664
0.19498 0.154147 0.0862745
0.212543 0.153811 0.0807965
0.228473 0.152422 0.0754406
0.247517 0.151217 0.0708934
0.26862 0.150805 0.0675822
0.293446 0.151232 0.0652171
0.319631 0.151843 0.0622568
0.345083 0.152193 0.0572061
0.369787 0.151965 0.0523384
0.39501 0.151202 0.0493935
0.424186 0.150713 0.0478981
0.461265 0.151629 0.0466163
0.503365 0.153368 0.0453803
0.543725 0.151873 0.0448157
0.578378 0.143511 0.0433509
0.607752 0.136339 0.0428779
0.633402 0.133791 0.0424964
0.657832 0.133639 0.0423285
0.681331 0.1337 0.0422675
0.70396 0.133761 0.0424201
0.725765 0.133715 0.0427253
0.746639 0.133532 0.0432288
0.766659 0.133288 0.0438849
0.786191 0.132967 0.0446021
0.804868 0.132631 0.0453193
0.822095 0.132296 0.0459907
0.837583 0.132036 0.0465705
0.104448 0.160784 0.0856031
0.119554 0.161105 0.0904097
0.131579 0.162707 0.0964218
0.144076 0.164355 0.102998
0.157839 0.166552 0.103578
0.173724 0.168795 0.103182
0.192172 0.170809 0.0996567
0.211154 0.171847 0.094255
0.23183 0.171862 0.0869001
0.255833 0.170733 0.0778973
0.279072 0.169924 0.0716869
0.305394 0.170016 0.0672618
0.331868 0.17116 0.0636149
0.358877 0.172412 0.0572824
0.386267 0.173281 0.0529793
0.413657 0.173114 0.0511482
0.441871 0.172305 0.0501106
0.474479 0.172259 0.0492103
0.510384 0.172824 0.0484779
0.547814 0.172457 0.0476234
0.581903 0.166125 0.0460365
0.611261 0.157015 0.0446937
0.63682 0.151369 0.0439612
0.661173 0.150134 0.0437629
0.684688 0.149508 0.0436866
0.70753 0.148974 0.0438392
0.72961 0.148699 0.0441596
0.750744 0.148577 0.0447089
0.770977 0.14844 0.0453498
0.790677 0.14815 0.0460822
0.809445 0.147906 0.0468299
0.826688 0.147509 0.0474708
0.842206 0.147219 0.0480354
0.103532 0.176593 0.0839551
0.119951 0.176989 0.0865644
0.133135 0.178363 0.0945449
0.146609 0.179721 0.102663
0.159777 0.182025 0.106676
0.174884 0.184573 0.10988
0.192035 0.187289 0.109209
0.210407 0.18941 0.106111
0.231907 0.190921 0.100664
0.256428 0.191012 0.0917983
0.281331 0.190249 0.0830396
0.306493 0.18909 0.074876
0.331212 0.188327 0.0675364
0.357137 0.18819 0.0590677
0.38471 0.188952 0.0539406
0.413169 0.189487 0.0518196
0.442161 0.189258 0.0506447
0.47451 0.18941 0.0498207
0.510796 0.190463 0.0492866
0.550134 0.191531 0.0488746
0.587472 0.190204 0.0480812
0.618952 0.183932 0.0467689
0.645258 0.17792 0.0457465
0.669306 0.174609 0.0452735
0.692439 0.17171 0.0451209
0.714748 0.168887 0.045243
0.736233 0.167346 0.0456397
0.756878 0.167437 0.0463111
0.776745 0.167773 0.0470283
0.796063 0.168109 0.0478065
0.814618 0.168246 0.0485084
0.831724 0.167956 0.0491188
0.847425 0.167361 0.0496681
0.0982834 0.193927 0.0841688
0.115267 0.194507 0.0854353
0.131823 0.195361 0.0909743
0.147967 0.196262 0.0979019
0.162356 0.198291 0.105486
0.178103 0.200931 0.113466
0.194369 0.204242 0.116228
0.211154 0.207401 0.116716
0.230655 0.210101 0.114504
0.253605 0.211383 0.107851
0.279088 0.21117 0.0975052
0.30605 0.210117 0.0854505
0.330556 0.208652 0.0742351
0.354894 0.207172 0.0633402
0.380896 0.20676 0.056199
0.409354 0.207233 0.0524453
0.43978 0.207721 0.0504311
0.472419 0.208469 0.0495766
0.509377 0.210529 0.0495613
0.548974 0.213336 0.0498817
0.589349 0.215442 0.0500496
0.623423 0.214542 0.0495613
0.651194 0.212131 0.0487221
0.674784 0.208652 0.0477913
0.697398 0.204349 0.0471962
0.719432 0.200397 0.0470741
0.740826 0.19826 0.0473487
0.761532 0.198276 0.0480049
0.781552 0.199054 0.0487526
0.801007 0.2 0.0495155
0.819883 0.200824 0.0502785
0.837156 0.200824 0.0508888
0.853315 0.200183 0.0514229
0.093019 0.211627 0.0858473
0.10985 0.212238 0.0868391
0.127428 0.212909 0.089128
0.144884 0.213977 0.0928511
0.162509 0.21561 0.100252
0.181628 0.217884 0.110674
0.199069 0.221225 0.117723
0.215778 0.224704 0.121279
0.233753 0.228031 0.12285
0.253239 0.230594 0.121813
0.274144 0.231174 0.114961
0.298116 0.230182 0.102647
0.323064 0.229389 0.0888685
0.348638 0.228428 0.0753948
0.375586 0.227253 0.0638437
0.405829 0.226551 0.0545663
0.438087 0.227085 0.0496681
0.471351 0.228717 0.0487221
0.509041 0.231937 0.0493019
0.548898 0.235798 0.0503243
0.590677 0.239902 0.0513771
0.626947 0.242069 0.0517128
0.656428 0.242206 0.0514076
0.680583 0.24007 0.0505226
0.703197 0.237293 0.0497749
0.725109 0.234791 0.0494392
0.746303 0.233524 0.0495155
0.766918 0.233722 0.0499886
0.787076 0.234348 0.0506447
0.806714 0.23534 0.0513313
0.825803 0.236454 0.0520638
0.843366 0.236881 0.0526894
0.859709 0.236332 0.0532235
0.0903792 0.229694 0.0879072
0.105653 0.23032 0.0888685
0.122179 0.230915 0.0896773
0.139727 0.232181 0.0905776
0.16022 0.233722 0.0949111
0.183551 0.235752 0.105165
0.203296 0.239078 0.116167
0.220905 0.242741 0.12285
0.238285 0.246067 0.127123
0.256199 0.248661 0.128603
0.274052 0.249744 0.126101
0.294682 0.24976 0.119173
0.317189 0.249287 0.106966
0.342885 0.249454 0.0942397
0.371557 0.249699 0.0823224
0.402197 0.249561 0.0716106
0.434546 0.249561 0.0626078
0.469398 0.250416 0.0560006
0.508583 0.253391 0.0522927
0.549111 0.25835 0.0521859
0.591211 0.263752 0.0530861
0.629145 0.267552 0.053666
0.660029 0.269093 0.0536355
0.685481 0.268513 0.0530251
0.708476 0.267216 0.0523995
0.730739 0.266316 0.052079
0.752224 0.266011 0.052018
0.772931 0.266072 0.0522621
0.793332 0.266148 0.0527352
0.813291 0.266606 0.053315
0.832578 0.267399 0.0539101
0.850248 0.267659 0.0544442
0.866285 0.267247 0.0550088
0.0898146 0.248997 0.0896925
0.10396 0.249729 0.0906844
0.119417 0.250294 0.0914321
0.13579 0.251774 0.0915847
0.155291 0.253422 0.092195
0.180819 0.255818 0.0965896
0.205509 0.258808 0.110079
0.225452 0.262501 0.120546
0.244007 0.266041 0.128283
0.26183 0.268788 0.132479
0.27808 0.270207 0.133471
0.295903 0.270771 0.13109
0.315816 0.271015 0.122515
0.339727 0.272007 0.112856
0.367971 0.273396 0.102602
0.399725 0.274601 0.0921798
0.433371 0.275105 0.0813916
0.467933 0.275593 0.0715648
0.504723 0.277592 0.0645151
0.545586 0.282109 0.0596323
0.589715 0.288136 0.0563363
0.629526 0.294118 0.0561837
0.661479 0.297307 0.0563363
0.688167 0.297932 0.0558022
0.712001 0.297108 0.0551614
0.734905 0.2963 0.0547494
0.757183 0.296071 0.0546273
0.778592 0.295949 0.0547189
0.79942 0.295949 0.0549477
0.819898 0.2963 0.0554208
0.839612 0.297124 0.0558938
0.857404 0.297322 0.0562905
0.873213 0.29691 0.0567788
0.0894484 0.270588 0.0911574
0.10341 0.271321 0.0922408
0.118654 0.271809 0.0931411
0.134035 0.273228 0.0932937
0.150637 0.275044 0.093492
0.172976 0.278187 0.0937057
0.201266 0.281468 0.0992905
0.227298 0.285115 0.110979
0.250217 0.289281 0.124102
0.271855 0.293492 0.13254
0.292042 0.296849 0.13576
0.311757 0.299565 0.135775
0.331075 0.301854 0.133867
0.351843 0.303395 0.130083
0.375784 0.304646 0.124392
0.404303 0.305837 0.115938
0.436301 0.307256 0.106264
0.469718 0.308339 0.0961166
0.504051 0.309636 0.0866102
0.541039 0.312947 0.0791028
0.581811 0.318578 0.0734874
0.624231 0.324285 0.0674601
0.660578 0.327703 0.0633097
0.69044 0.328969 0.0609445
0.716472 0.328588 0.0590677
0.740917 0.328145 0.0580606
0.764019 0.327886 0.0576638
0.785946 0.327886 0.0575723
0.807034 0.328069 0.0576791
0.827634 0.328649 0.057908
0.847456 0.32961 0.0582742
0.865019 0.329839 0.0585641
0.881117 0.329442 0.0588693
0.089189 0.293339 0.0920577
0.102907 0.294148 0.0933242
0.118029 0.294728 0.0944076
0.133104 0.296345 0.0947433
0.148714 0.298268 0.0949874
0.167193 0.301244 0.0943008
0.192874 0.304967 0.0941787
0.224475 0.309575 0.0987106
0.253635 0.313787 0.112032
0.279026 0.318257 0.125399
0.302617 0.323018 0.131594
0.32575 0.327932 0.1355
0.347082 0.332143 0.139025
0.366812 0.33492 0.140902
0.386572 0.336217 0.140291
0.408469 0.336492 0.136202
0.434195 0.336812 0.129198
0.463935 0.338201 0.12076
0.495384 0.339956 0.112001
0.529381 0.342504 0.103532
0.567651 0.346975 0.0964218
0.608621 0.353124 0.0908827
0.647059 0.358343 0.0857404
0.68162 0.360967 0.0795453
0.713115 0.361379 0.0727703
0.742184 0.361059 0.0668956
0.768154 0.360952 0.0637217
0.791485 0.361242 0.0624857
0.813626 0.3617 0.061738
0.83476 0.362539 0.0613565
0.854765 0.363882 0.0613718
0.872496 0.364157 0.0614328
0.889036 0.363806 0.0614481
0.0888838 0.316808 0.0928206
0.102541 0.317678 0.0942092
0.117479 0.318441 0.0954147
0.132479 0.320211 0.0957656
0.147738 0.322225 0.0959793
0.164248 0.325048 0.0950484
0.186236 0.328832 0.0932326
0.218463 0.334432 0.090547
0.253147 0.339483 0.0969253
0.284184 0.34403 0.110842
0.310719 0.348959 0.122683
0.33669 0.354955 0.133013
0.361089 0.361013 0.141253
0.383459 0.365743 0.146731
0.403708 0.36849 0.149371
0.42295 0.369192 0.148806
0.442939 0.368521 0.145403
0.465827 0.368246 0.13991
0.492058 0.369223 0.133288
0.521385 0.371435 0.12665
0.555352 0.375143 0.120333
0.593668 0.380957 0.115038
0.631434 0.387442 0.110994
0.665385 0.391897 0.106371
0.696529 0.394308 0.100679
0.72604 0.395315 0.0938735
0.755077 0.395895 0.0867475
0.783215 0.396246 0.0796979
0.809735 0.396674 0.0741741
0.833722 0.39762 0.0708782
0.856046 0.398993 0.0686046
0.876036 0.399268 0.0665599
0.893904 0.398978 0.0653697
0.0886244 0.34139 0.0932326
0.10222 0.342214 0.0946365
0.117082 0.343069 0.0957656
0.131914 0.3449 0.0961471
0.147021 0.346944 0.0963149
0.162799 0.349905 0.095201
0.181079 0.353491 0.0924544
0.208667 0.359197 0.0868238
0.246387 0.365972 0.0838178
0.285634 0.371847 0.0930343
0.317113 0.376867 0.109819
0.34522 0.382559 0.125902
0.371038 0.388708 0.138277
0.395727 0.394766 0.147219
0.419196 0.399908 0.152972
0.44123 0.403479 0.155505
0.461067 0.40444 0.155093
0.479698 0.403326 0.152224
0.499138 0.402152 0.148699
0.52192 0.40264 0.145251
0.55111 0.405875 0.142397
0.585184 0.411185 0.139269
0.620401 0.4177 0.136614
0.652827 0.422492 0.132906
0.682795 0.425589 0.128008
0.711223 0.427359 0.121874
0.739025 0.429099 0.115663
0.766079 0.430594 0.109239
0.792798 0.431968 0.102556
0.819593 0.433112 0.0955367
0.844953 0.434577 0.0895552
0.867948 0.434928 0.08365
0.888731 0.434669 0.079118
0.088426 0.367147 0.092668
0.102007 0.368063 0.0940414
0.11693 0.368948 0.0950332
0.131502 0.370871 0.0953384
0.146319 0.372946 0.095201
0.161746 0.376013 0.0931868
0.177676 0.379812 0.0888991
0.199222 0.385473 0.0826123
0.234287 0.39324 0.0770123
0.280674 0.401511 0.079118
0.3205 0.407431 0.0955215
0.351858 0.412695 0.11342
0.379187 0.418128 0.129305
0.405005 0.42385 0.142916
0.430686 0.43003 0.153735
0.456153 0.43592 0.161288
0.480156 0.440253 0.165866
0.50106 0.442084 0.16762
0.51902 0.441428 0.166964
0.5364 0.439948 0.165423
0.558495 0.440696 0.164431
0.586526 0.44477 0.163424
0.617197 0.450782 0.162646
0.646479 0.455711 0.160555
0.673899 0.458793 0.156481
0.699962 0.460685 0.151034
0.725658 0.46244 0.14522
0.750835 0.464302 0.139422
0.775814 0.466224 0.133577
0.800595 0.468208 0.12755
0.825162 0.470161 0.121386
0.847486 0.471061 0.115129
0.869123 0.471107 0.108431
0.0883497 0.394705 0.0909743
0.101976 0.39556 0.0922103
0.116899 0.396475 0.0927291
0.131273 0.39826 0.0923629
0.145861 0.400504 0.0912032
0.161028 0.40383 0.0877546
0.176608 0.408148 0.0825666
0.19443 0.414084 0.0788586
0.221164 0.42179 0.0762951
0.268971 0.43209 0.0741741
0.320027 0.440208 0.0829633
0.356191 0.445762 0.0985428
0.386465 0.450858 0.115053
0.414145 0.456168 0.131518
0.441245 0.462028 0.147051
0.468711 0.46862 0.159213
0.496056 0.475044 0.168963
0.521126 0.480095 0.176013
0.542016 0.482506 0.180011
0.55996 0.482368 0.181567
0.578485 0.481926 0.182132
0.600519 0.483772 0.182696
0.625025 0.487755 0.183627
0.649119 0.491981 0.184543
0.672251 0.495003 0.183429
0.694804 0.496696 0.179995
0.717433 0.498344 0.175692
0.740108 0.500175 0.171008
0.763119 0.5019 0.165637
0.786084 0.503883 0.160266
0.808667 0.506065 0.154925
0.829007 0.507012 0.149126
0.848005 0.507286 0.143252
0.0885786 0.423499 0.0874037
0.10222 0.424201 0.0878462
0.117159 0.424964 0.0867018
0.131502 0.426673 0.0845808
0.145968 0.428687 0.0824598
0.160937 0.432166 0.0803235
0.176074 0.43769 0.0781415
0.19237 0.445136 0.0775616
0.213565 0.452247 0.0769055
0.25594 0.462684 0.0741283
0.313985 0.473823 0.074464
0.359304 0.481193 0.0863355
0.394415 0.48748 0.100481
0.425055 0.492958 0.116915
0.45304 0.4981 0.133745
0.480873 0.503594 0.149752
0.508934 0.509819 0.163973
0.535973 0.515984 0.175662
0.559899 0.520806 0.184283
0.581308 0.523842 0.190463
0.601801 0.525673 0.19469
0.622812 0.52752 0.197406
0.644388 0.529564 0.198672
0.666056 0.531685 0.199344
0.686748 0.533181 0.199634
0.706798 0.534325 0.199084
0.726833 0.535912 0.197726
0.746685 0.537652 0.195697
0.766796 0.539376 0.192538
0.786755 0.541253 0.188907
0.806226 0.54345 0.185245
0.823362 0.544259 0.180865
0.84007 0.544549 0.176028
0.0889448 0.450614 0.0776837
0.102663 0.451377 0.0780957
0.117647 0.452537 0.0777142
0.13193 0.454856 0.0774548
0.146319 0.457664 0.0777295
0.161059 0.461814 0.0780346
0.175891 0.466835 0.0784009
0.191745 0.473411 0.0782483
0.20943 0.480751 0.0779889
0.238224 0.490288 0.0763867
0.297261 0.50338 0.0731518
0.359808 0.514061 0.0787823
0.399802 0.522087 0.0895705
0.434791 0.529244 0.10428
0.466377 0.535225 0.120836
0.495567 0.540185 0.137911
0.523613 0.545129 0.154513
0.550683 0.550546 0.169314
0.575677 0.555856 0.180636
0.598993 0.560357 0.189715
0.621546 0.564111 0.197131
0.643549 0.567285 0.203021
0.665156 0.570031 0.207446
0.685969 0.572 0.210254
0.705501 0.572992 0.211658
0.723827 0.573434 0.212177
0.741421 0.573999 0.212329
0.758587 0.57496 0.212085
0.77583 0.57641 0.211673
0.792905 0.578073 0.210864
0.809903 0.580011 0.209308
0.824704 0.58088 0.207095
0.838911 0.581003 0.204013
0.0893721 0.478523 0.071397
0.10312 0.479225 0.0728923
0.118166 0.480552 0.0740215
0.132448 0.482872 0.0751202
0.146853 0.48571 0.0763256
0.161303 0.489754 0.0772869
0.175906 0.494835 0.0781567
0.191424 0.501472 0.0783093
0.20795 0.508919 0.0783703
0.232105 0.518196 0.077409
0.288365 0.531609 0.0740368
0.357504 0.544656 0.0744793
0.401282 0.553903 0.0817731
0.43978 0.562356 0.0936446
0.475578 0.569802 0.108248
0.508766 0.575921 0.124971
0.538674 0.580987 0.142214
0.565377 0.585565 0.157626
0.589624 0.589746 0.170596
0.612924 0.593851 0.181796
0.635813 0.597635 0.19173
0.65832 0.601251 0.200443
0.680583 0.60499 0.208408
0.702388 0.608408 0.214939
0.723079 0.610971 0.219745
0.741985 0.612314 0.22266
0.759365 0.613016 0.224079
0.77525 0.61326 0.224353
0.790494 0.613535 0.224369
0.805325 0.614099 0.224338
0.819898 0.615152 0.224399
0.832517 0.615488 0.224048
0.844343 0.615396 0.223377
0.0897841 0.506584 0.068986
0.103578 0.507195 0.0707866
0.118761 0.508415 0.0724498
0.133059 0.510689 0.0738994
0.147417 0.513619 0.075288
0.161776 0.517601 0.0764019
0.176135 0.522622 0.0774548
0.191211 0.529213 0.077821
0.206928 0.536477 0.0781262
0.228229 0.545403 0.0775921
0.276677 0.557778 0.0750744
0.3505 0.57319 0.0724956
0.398947 0.584131 0.0762646
0.440345 0.593835 0.0847486
0.479072 0.602594 0.0963302
0.515908 0.610254 0.11046
0.549218 0.61677 0.127031
0.578134 0.621912 0.14229
0.602502 0.625452 0.15552
0.625116 0.628321 0.167742
0.647303 0.631098 0.1794
0.669627 0.634226 0.190692
0.692241 0.63798 0.202029
0.71487 0.6421 0.212345
0.737179 0.646174 0.221225
0.757855 0.649287 0.228
0.77615 0.651179 0.232349
0.792111 0.651743 0.234424
0.80676 0.651926 0.235523
0.820249 0.651576 0.235874
0.833295 0.651423 0.235813
0.844556 0.650828 0.235538
0.854932 0.649851 0.235111
0.0904097 0.534432 0.0677958
0.10425 0.534859 0.0695659
0.119493 0.535988 0.0711833
0.133867 0.538109 0.0726329
0.148104 0.540825 0.0740368
0.162203 0.544686 0.0751812
0.176257 0.549477 0.0761578
0.190723 0.555611 0.0766003
0.205615 0.562554 0.0768749
0.223911 0.570718 0.0766766
0.259754 0.581262 0.0754101
0.336126 0.597879 0.0717479
0.391928 0.611185 0.0724651
0.437186 0.622644 0.0779126
0.47921 0.633112 0.0870832
0.51902 0.642084 0.0989242
0.555779 0.649897 0.114137
0.588205 0.656229 0.129671
0.615427 0.660716 0.144213
0.639429 0.663523 0.158221
0.661601 0.665537 0.171496
0.683207 0.667659 0.184237
0.705364 0.670832 0.196796
0.727794 0.674632 0.208347
0.749996 0.678752 0.218753
0.770352 0.682109 0.227268
0.788174 0.684321 0.233616
0.804227 0.685664 0.237995
0.819364 0.686549 0.241291
0.833692 0.687251 0.243702
0.84715 0.687541 0.245045
0.858412 0.687099 0.245762
0.868559 0.686061 0.246006
0.0910506 0.561639 0.0666056
0.104997 0.561868 0.0683146
0.120302 0.562753 0.0698405
0.134569 0.564569 0.0712291
0.148562 0.566888 0.0725109
0.16231 0.570092 0.0735332
0.17612 0.574441 0.0743572
0.190295 0.580255 0.0746777
0.204807 0.587213 0.0747539
0.221424 0.596353 0.0746014
0.247898 0.605539 0.0742046
0.320867 0.62121 0.0710307
0.383383 0.63624 0.0702373
0.431861 0.648875 0.0730602
0.476387 0.660792 0.0800488
0.518776 0.671214 0.0895094
0.55816 0.680049 0.102541
0.592828 0.687205 0.116518
0.62266 0.692515 0.130861
0.649271 0.696239 0.145617
0.673381 0.698726 0.160372
0.695476 0.700511 0.174487
0.717113 0.702739 0.188067
0.738994 0.705715 0.2009
0.760647 0.709056 0.212467
0.779889 0.711559 0.221759
0.797269 0.713329 0.229419
0.813764 0.714977 0.235752
0.829648 0.716579 0.241047
0.84477 0.718059 0.245411
0.859098 0.71928 0.248798
0.871122 0.719707 0.25124
0.881971 0.719539 0.253147
0.0915999 0.586664 0.065507
0.10573 0.586618 0.0671244
0.121172 0.587411 0.0685588
0.1355 0.589014 0.0698405
0.149264 0.591119 0.0709544
0.162631 0.593927 0.071809
0.176135 0.597955 0.0726024
0.190295 0.603677 0.0732586
0.20415 0.610864 0.0714122
0.220386 0.62063 0.0716716
0.241856 0.629618 0.0720226
0.310719 0.644511 0.0700542
0.378378 0.66067 0.068925
0.429114 0.673793 0.0706035
0.474189 0.686076 0.0755169
0.518502 0.697536 0.0831769
0.559823 0.707286 0.0939345
0.596475 0.715251 0.106126
0.627726 0.721111 0.11902
0.656184 0.72549 0.133043
0.68246 0.728801 0.147845
0.706416 0.731258 0.162539
0.728893 0.733455 0.176837
0.75053 0.735637 0.190585
0.770779 0.737621 0.203082
0.788754 0.738872 0.213718
0.805875 0.740154 0.222583
0.8224 0.741619 0.230213
0.838361 0.743175 0.236912
0.853712 0.744823 0.242695
0.868528 0.746548 0.24773
0.881224 0.747677 0.251774
0.892897 0.748348 0.255421
0.0920272 0.609216 0.0645304
0.106462 0.609201 0.0660258
0.122011 0.61033 0.0673381
0.136385 0.612009 0.0685588
0.150057 0.614008 0.0696269
0.163027 0.616449 0.0703746
0.176226 0.620447 0.0710002
0.190082 0.626062 0.0714275
0.20473 0.633555 0.0716869
0.220584 0.642435 0.0717632
0.239887 0.651957 0.0718547
0.304311 0.66601 0.0707408
0.375326 0.683055 0.0690929
0.427955 0.696696 0.0701305
0.473045 0.709316 0.0730755
0.518227 0.721462 0.0789044
0.561318 0.732143 0.0877546
0.599695 0.740963 0.098146
0.632059 0.747448 0.10956
0.661555 0.752285 0.122057
0.689219 0.756146 0.135744
0.714794 0.759213 0.14995
0.738582 0.761807 0.164248
0.760281 0.763653 0.178119
0.779034 0.764431 0.190814
0.79617 0.764752 0.202426
0.812894 0.76556 0.212558
0.829145 0.766552 0.221622
0.844831 0.767666 0.229496
0.859922 0.768917 0.236133
0.874815 0.770535 0.24242
0.8878 0.771801 0.247791
0.899901 0.772869 0.252674
0.0920119 0.631998 0.0636149
0.106752 0.632044 0.0649271
0.122683 0.633219 0.0661479
0.137316 0.634958 0.0673228
0.15108 0.636835 0.0683146
0.164111 0.639185 0.0690776
0.177188 0.642832 0.0697642
0.191012 0.648234 0.0703593
0.205768 0.655756 0.0708324
0.221439 0.664576 0.0712444
0.239948 0.674083 0.0715343
0.300221 0.687221 0.071107
0.372457 0.704509 0.0694896
0.426398 0.718654 0.0700236
0.471199 0.731563 0.0717784
