public/filters/konnect/Presets B Darker Skin Tone/Captivate v2_30.2021-06-15 11-45-45.cube
TITLE "Generated by Resolve"
LUT_3D_SIZE 5
0 0.0336461 0.0280613
0.370748 0.0592966 0.0518502
0.680293 0.0922255 0.0915389
0.988922 0.115007 0.11545
1 0.141466 0.142458
0 0.292882 0
0.276509 0.292927 0
0.560967 0.289235 0
1 0.430945 0.157656
1 0.52079 0.251789
0 0.557824 0
0.248264 0.554742 0
0.537697 0.547143 0
0.831083 0.537835 0
1 0.537926 0
0 0.826856 0
0.223529 0.823713 0
0.513954 0.820218 0
0.804715 0.812924 0
1 0.805661 0
0 1 0
0.210132 1 0
0.487098 1 0
0.780591 1 0
1 1 0
0.0231022 0.0233768 0.345632
0.314351 0.0119173 0.331731
0.609415 0.0106661 0.328054
0.964019 0.082948 0.384146
1 0.142336 0.43827
0 0.289906 0.306523
0.277943 0.283589 0.313161
0.704021 0.410285 0.425116
1 0.508186 0.523705
1 0.529915 0.546349
0 0.557641 0.271992
0.236545 0.559915 0.259434
0.530892 0.55108 0.247074
0.818479 0.54049 0.253697
1 0.811231 0.534585
0 0.827482 0.251377
0.21799 0.828473 0.242115
0.505089 0.821637 0.228962
0.793164 0.807874 0.225772
1 0.804318 0.230579
0 1 0.23508
0.203067 1 0.229648
0.47451 1 0.218647
0.774166 1 0.21355
1 1 0.215137
0.0169528 0.0207828 0.64744
0.299489 0.0109712 0.636606
0.589426 0.00267033 0.62295
0.877134 0 0.610361
1 0.00216678 0.607645
0 0.283238 0.617868
0.273686 0.27715 0.626963
0.579568 0.266728 0.617914
0.868818 0.26894 0.60502
1 0.415198 0.742733
0 0.555611 0.587228
0.234363 0.554665 0.588937
0.538979 0.548363 0.59855
1 0.746685 0.779721
1 0.91931 0.950088
0 0.824262 0.566064
0.211948 0.827314 0.552956
0.493614 0.827161 0.53785
0.780133 0.805661 0.516396
1 0.792798 0.522744
0 1 0.540871
0.197406 1 0.53106
0.473381 1 0.517617
0.764721 1 0.502419
1 1 0.492164
0.0156252 0.0163729 0.938781
0.29073 0.00956741 0.935531
0.577096 0.00149538 0.926802
0.864744 0 0.914412
1 0 0.90193
0 0.278294 0.919448
0.270436 0.274006 0.926421
0.56321 0.26566 0.924468
0.858854 0.259083 0.91252
1 0.255543 0.898482
0 0.548241 0.894606
0.240986 0.547051 0.903136
0.533364 0.540108 0.911223
0.844923 0.530709 0.904524
1 0.530098 0.889128
0 0.820783 0.86836
0.214878 0.822568 0.871672
0.493233 0.821729 0.873808
0.804501 0.817472 0.886809
1 1 1
0 1 0.840162
0.196277 1 0.843641
0.468254 1 0.836011
0.756985 1 0.822919
1 1 0.774212
0.0121462 0.0131685 1
0.284703 0.00749218 1
0.568002 0.000167849 1
0.854749 0 1
1 0 1
0 0.274754 1
0.267811 0.27158 1
0.554147 0.26482 1
0.846128 0.257939 1
1 0.252338 1
0 0.544076 1
0.24445 0.542931 1
0.530144 0.536843 1
0.828031 0.528984 1
1 0.522988 1
0 0.8168 1
0.220493 0.817868 1
0.499672 0.814008 1
0.796948 0.806989 1
1 0.798444 1
0 1 1
0.199268 1 1
0.472358 1 1
0.756222 1 1
1 1 1
