public/filters/konnect/Presets B Darker Skin Tone/Captivate v2_30.2021-06-15 11-45-45.cube
TITLE "Generated by Resolve"
LUT_3D_SIZE 9
0 0.0336461 0.0280613
0.18999 0.0315404 0.0227054
0.370748 0.0592966 0.0518502
0.543038 0.0928664 0.0850385
0.680293 0.0922255 0.0915389
0.833066 0.101747 0.102358
0.988922 0.115007 0.11545
1 0.128115 0.128878
1 0.141466 0.142458
0.0043946 0.161852 0.0062562
0.15407 0.155581 0.00138857
0.30457 0.149187 0.00445563
0.475502 0.188846 0.0255589
0.708659 0.287877 0.120562
0.880949 0.288685 0.155062
1 0.302327 0.170214
1 0.31603 0.184985
1 0.329854 0.199619
0 0.292882 0
0.132036 0.290715 0
0.276509 0.292927 0
0.418372 0.295262 0
0.560967 0.289235 0
0.739315 0.294026 0.0167849
1 0.430945 0.157656
1 0.498177 0.227298
1 0.52079 0.251789
0 0.424582 0
0.114626 0.426642 0
0.25861 0.424842 0
0.405798 0.418845 0
0.550591 0.413718 0
0.699229 0.405875 0
0.849836 0.406592 0
1 0.418952 0.00537118
1 0.50605 0.0953384
0 0.557824 0
0.106447 0.557687 0
0.248264 0.554742 0
0.393973 0.550546 0
0.537697 0.547143 0
0.681041 0.543191 0
0.831083 0.537835 0
0.975647 0.534432 0
1 0.537926 0
0 0.692027 0
0.097612 0.692439 0
0.237156 0.690364 0
0.38085 0.687053 0
0.52636 0.683131 0
0.672206 0.679072 0
0.817639 0.675212 0
0.962798 0.671458 0
1 0.667918 0
0 0.826856 0
0.0851453 0.826734 0
0.223529 0.823713 0
0.36614 0.821103 0
0.513954 0.820218 0
0.659266 0.816617 0
0.804715 0.812924 0
0.950271 0.809232 0
1 0.805661 0
0 0.959518 0
0.0711223 0.95436 0
0.211048 0.950652 0
0.35079 0.947417 0
0.502007 0.956802 0
0.64715 0.95436 0
0.792264 0.950957 0
0.937484 0.947524 0
1 0.943908 0
0 1 0
0.074464 1 0
0.210132 1 0
0.343923 1 0
0.487098 1 0
0.636057 1 0
0.780591 1 0
0.926162 1 0
1 1 0
0.025452 0.0256046 0.19501
0.176486 0.0177005 0.185672
0.325505 0.0151369 0.184314
0.502968 0.048249 0.216373
0.685588 0.0917678 0.255772
0.842222 0.106844 0.255756
0.997238 0.119432 0.265599
1 0.13286 0.278172
1 0.146273 0.290822
0.00265507 0.159304 0.168048
0.146883 0.155566 0.172366
0.333669 0.181918 0.18854
0.533013 0.237217 0.24303
0.727062 0.293462 0.299016
0.888441 0.30248 0.309667
1 0.306737 0.315099
1 0.320668 0.329061
1 0.334676 0.343145
0 0.293004 0.144976
0.123323 0.293721 0.135302
0.282673 0.285985 0.127153
0.437049 0.279667 0.131411
0.657359 0.370611 0.220844
0.92015 0.499458 0.35256
1 0.49781 0.361883
1 0.51165 0.377508
1 0.525765 0.39292
0 0.425406 0.130114
0.111452 0.426719 0.123812
0.258686 0.423392 0.116182
0.404837 0.421698 0.114061
0.548653 0.416678 0.115114
0.69276 0.413413 0.119051
0.877394 0.431189 0.147402
1 0.612955 0.33344
1 0.704509 0.427649
0 0.558541 0.119387
0.101472 0.559442 0.114641
0.242741 0.557748 0.108476
0.386099 0.554879 0.103975
0.534157 0.548592 0.102678
0.678874 0.54313 0.10338
0.825956 0.538262 0.105821
0.98584 0.53994 0.113771
1 0.555596 0.133303
0 0.692882 0.11104
0.0935225 0.69395 0.107668
0.232136 0.692302 0.102266
0.376699 0.688823 0.0976272
0.524315 0.684337 0.0957809
0.666239 0.678676 0.0950027
0.80914 0.673823 0.0959335
0.965682 0.67126 0.0981918
1 0.667887 0.099443
0 0.827817 0.103746
0.086244 0.829084 0.101411
0.223148 0.827787 0.09691
0.363989 0.82417 0.0924239
0.510231 0.82118 0.090074
0.657954 0.817594 0.0893263
0.8047 0.813153 0.0889906
0.951659 0.809339 0.0901045
1 0.805859 0.0913863
0 0.963424 0.0967117
0.0788891 0.964721 0.0954452
0.210422 0.958282 0.0931868
0.349508 0.954192 0.0879835
0.492195 0.951247 0.0839246
0.644541 0.954955 0.0830701
0.790875 0.951171 0.0823835
0.93753 0.947784 0.0830549
1 0.944472 0.0840772
0 1 0.0901198
0.0695048 1 0.090837
0.197879 1 0.0899062
0.335073 1 0.0840467
0.472465 1 0.0789654
0.62974 1 0.0779278
0.779263 1 0.0778668
0.925353 1 0.0776226
1 1 0.0782483
0.0231022 0.0233768 0.345632
0.166384 0.0175021 0.341573
0.314351 0.0119173 0.331731
0.46041 0.00817884 0.32285
0.609415 0.0106661 0.328054
0.778592 0.0408789 0.356161
0.964019 0.082948 0.384146
1 0.117037 0.415442
1 0.142336 0.43827
0.00634775 0.154925 0.328771
0.148547 0.150378 0.335042
0.308019 0.142458 0.328359
0.455726 0.146105 0.325139
0.658198 0.209369 0.381613
0.875456 0.289784 0.457099
1 0.312078 0.474525
1 0.325017 0.485206
1 0.339193 0.498009
0 0.289906 0.306523
0.121767 0.290379 0.308476
0.277943 0.283589 0.313161
0.480873 0.323568 0.341009
0.704021 0.410285 0.425116
0.920333 0.492042 0.506035
1 0.508186 0.523705
1 0.515572 0.532036
1 0.529915 0.546349
0 0.423972 0.287037
0.107088 0.426337 0.28368
0.249256 0.42623 0.272679
0.412879 0.418082 0.262455
0.570535 0.412161 0.267826
0.829938 0.547616 0.405753
1 0.704616 0.566979
1 0.708873 0.57792
1 0.722805 0.593759
0 0.557641 0.271992
0.0971847 0.559686 0.267597
0.236545 0.559915 0.259434
0.386908 0.55642 0.250004
0.530892 0.55108 0.247074
0.674449 0.543069 0.248066
0.818479 0.54049 0.253697
1 0.572519 0.291997
1 0.811231 0.534585
0 0.692332 0.260716
0.0893873 0.69398 0.256565
0.225986 0.693263 0.249332
0.370581 0.690745 0.241535
0.515724 0.684962 0.236362
0.661906 0.677531 0.234455
0.80473 0.670588 0.23473
0.954376 0.668116 0.239628
1 0.674327 0.248997
0 0.827482 0.251377
0.0827497 0.829236 0.248127
0.21799 0.828473 0.242115
0.359045 0.825757 0.234836
0.505089 0.821637 0.228962
0.653773 0.816693 0.226398
0.793164 0.807874 0.225772
0.936019 0.802625 0.227588
1 0.804318 0.230579
0 0.963012 0.242908
0.0760357 0.965148 0.240406
0.210575 0.964553 0.23563
0.349676 0.961624 0.229084
0.491508 0.956374 0.222858
0.638285 0.953002 0.219745
0.787793 0.950256 0.219059
0.935454 0.945937 0.219257
1 0.94287 0.221607
0 1 0.23508
0.069337 1 0.233326
0.203067 1 0.229648
0.335485 1 0.22536
0.47451 1 0.218647
0.617243 1 0.214191
0.774166 1 0.21355
0.921584 1 0.212634
1 1 0.215137
0.0211643 0.0215152 0.496178
0.16054 0.0167239 0.492164
0.305928 0.0114137 0.485679
0.453239 0.00740063 0.480507
0.599664 0.0053254 0.478248
0.741878 0.00381476 0.473075
0.887205 0.00657664 0.468528
1 0.0336614 0.488441
1 0.0696574 0.520592
0.00746166 0.152117 0.482399
0.146426 0.148272 0.486168
0.296468 0.14226 0.484138
0.447807 0.137301 0.475624
0.595895 0.134981 0.467216
0.740337 0.140368 0.46743
0.923171 0.188968 0.510201
1 0.251041 0.567102
1 0.304158 0.617151
0 0.286427 0.4645
0.126345 0.2851 0.470207
0.276295 0.279835 0.475639
0.438254 0.272053 0.469886
0.5832 0.276173 0.463966
0.802365 0.356542 0.536141
1 0.475257 0.649699
1 0.517006 0.689265
1 0.533898 0.704555
0 0.421149 0.445518
0.108507 0.4224 0.447822
0.248661 0.421958 0.44947
0.407813 0.415335 0.455497
0.631724 0.467521 0.495659
0.869917 0.577508 0.601221
1 0.681422 0.703365
1 0.719188 0.741176
1 0.726253 0.750973
0 0.556054 0.428962
0.0959335 0.557733 0.427512
0.232624 0.559136 0.423529
0.377798 0.559319 0.412848
0.543801 0.550958 0.400946
0.703304 0.545205 0.407065
1 0.73254 0.599649
1 0.900526 0.772641
1 0.920119 0.795712
0 0.69163 0.416251
0.0873426 0.69279 0.412299
0.221912 0.693294 0.406455
0.364279 0.693248 0.397787
0.51632 0.689647 0.387671
0.655802 0.678706 0.38175
0.79884 0.668452 0.381521
0.943252 0.666484 0.387945
1 0.716228 0.441642
0 0.826276 0.408804
0.0802777 0.828473 0.40087
0.214038 0.82855 0.395148
0.353445 0.82707 0.387015
0.499382 0.824109 0.378347
0.646998 0.816846 0.371496
0.790372 0.806592 0.36846
0.930236 0.797681 0.368612
1 0.791775 0.371695
0 0.958877 0.398291
0.0730297 0.964324 0.390936
0.206928 0.964843 0.386175
0.344976 0.963088 0.379126
0.487251 0.959579 0.370977
0.633906 0.954711 0.364111
0.782498 0.948547 0.360388
0.918898 0.935668 0.358694
1 0.929976 0.360372
0 1 0.385626
0.0658732 1 0.382361
0.200214 1 0.378439
0.337606 1 0.372534
0.477653 1 0.364904
0.620401 1 0.357824
0.767788 1 0.354803
0.918791 1 0.354131
1 1 0.353246
0.0169528 0.0207828 0.64744
0.156664 0.0157931 0.641321
0.299489 0.0109712 0.636606
0.444343 0.00646983 0.630091
0.589426 0.00267033 0.62295
0.734005 0 0.616434
0.877134 0 0.610361
1 0 0.604196
1 0.00216678 0.607645
0.00819409 0.149905 0.632593
0.144732 0.14667 0.635813
0.289998 0.141588 0.634714
0.438483 0.136721 0.629816
0.586465 0.13344 0.622705
0.730236 0.133516 0.617014
0.871107 0.133364 0.610742
1 0.136812 0.609079
1 0.174517 0.64329
0 0.283238 0.617868
0.128222 0.281514 0.623468
0.273686 0.27715 0.626963
0.426444 0.271489 0.625956
0.579568 0.266728 0.617914
0.728054 0.26479 0.608942
0.868818 0.26894 0.60502
1 0.329992 0.659709
1 0.415198 0.742733
0 0.41854 0.60209
0.111528 0.418097 0.606317
0.253086 0.416022 0.611261
0.405921 0.4112 0.617151
0.569085 0.403754 0.612421
0.709377 0.405295 0.601572
0.934142 0.490944 0.678172
1 0.650767 0.83241
1 0.718334 0.900404
0 0.555611 0.587228
0.0977646 0.554421 0.587381
0.234363 0.554665 0.588937
0.378103 0.554559 0.591485
0.538979 0.548363 0.59855
0.784421 0.614786 0.653498
1 0.746685 0.779721
1 0.866911 0.897047
1 0.91931 0.950088
0 0.692027 0.575219
0.0873579 0.690669 0.570733
0.22089 0.691051 0.568231
0.360861 0.69247 0.564599
0.507897 0.693233 0.554696
0.675654 0.684825 0.541543
0.835981 0.679149 0.54847
1 0.919753 0.795911
1 1 0.979477
0 0.824262 0.566064
0.0789197 0.826749 0.556878
0.211948 0.827314 0.552956
0.349508 0.827222 0.546593
0.493614 0.827161 0.53785
0.646387 0.823468 0.52723
0.780133 0.805661 0.516396
0.922805 0.793469 0.514611
1 0.792798 0.522744
0 0.951324 0.556802
0.0700084 0.96199 0.544991
0.204486 0.964172 0.541085
0.341176 0.963516 0.53463
0.481956 0.961471 0.525841
0.628931 0.958206 0.516701
0.779492 0.951324 0.509575
0.920455 0.936858 0.503807
1 0.921874 0.500526
0 1 0.540871
0.0609751 1 0.534905
0.197406 1 0.53106
0.333989 1 0.525444
0.473381 1 0.517617
0.61677 1 0.509148
0.764721 1 0.502419
0.913405 1 0.498283
1 1 0.492164
0.0137636 0.0200504 0.793698
0.15314 0.014725 0.789227
0.294621 0.0103609 0.786297
0.4383 0.0059968 0.781445
0.582574 0.00204471 0.775128
0.727459 0 0.769024
0.870649 0 0.762066
1 0 0.758755
1 0 0.754681
0.00848402 0.147723 0.781064
0.143191 0.145235 0.784192
0.285786 0.140932 0.783978
0.431693 0.136446 0.781048
0.578622 0.132448 0.775464
0.724865 0.12932 0.768429
0.869627 0.127016 0.761181
1 0.125185 0.754223
1 0.124071 0.748501
0 0.280568 0.769055
0.129351 0.27924 0.774273
0.271763 0.275257 0.776791
0.419562 0.270481 0.776715
0.570001 0.265919 0.772641
0.719326 0.262623 0.765347
0.862638 0.262379 0.757397
1 0.261616 0.750072
1 0.264683 0.750042
0 0.415366 0.755383
0.114687 0.414923 0.760555
0.254826 0.411978 0.764645
0.402838 0.407919 0.768582
0.557427 0.40267 0.76846
0.71191 0.398047 0.760861
0.860395 0.396002 0.751354
1 0.39794 0.744183
1 0.469795 0.812406
0 0.550881 0.740826
0.100908 0.551492 0.744717
0.237613 0.549966 0.747845
0.382162 0.548119 0.753063
0.536873 0.543893 0.759533
0.70013 0.536583 0.755398
0.834867 0.533501 0.738231
1 0.616876 0.81207
1 0.8318 1
0 0.687724 0.727016
0.0895705 0.688121 0.72871
0.223194 0.687648 0.729229
0.363012 0.687755 0.730892
0.509148 0.688121 0.734447
0.671275 0.682475 0.742306
0.926284 0.754406 0.803601
1 0.923278 0.965911
1 1 1
0 0.82237 0.714672
0.0799725 0.824704 0.714031
0.212482 0.825101 0.712688
0.348974 0.824964 0.709926
0.490913 0.826566 0.706813
0.639323 0.82797 0.697963
0.808652 0.819883 0.683894
0.964157 0.80975 0.686336
1 1 1
0 0.950973 0.703822
0.071458 0.961349 0.700694
0.203677 0.962463 0.698512
0.339239 0.962295 0.694041
0.478416 0.961868 0.687495
0.623713 0.961852 0.678782
0.776364 0.957763 0.667735
0.89955 0.929702 0.648798
1 0.91429 0.644984
0 1 0.689906
0.0621195 1 0.688457
0.196109 1 0.68661
0.33164 1 0.682033
0.469932 1 0.675166
0.612177 1 0.666468
0.760906 1 0.657938
0.913466 1 0.650706
1 1 0.640833
0.0156252 0.0163729 0.938781
0.150423 0.0135195 0.937591
0.29073 0.00956741 0.935531
0.433387 0.00544747 0.931868
0.577096 0.00149538 0.926802
0.72108 0 0.920836
0.864744 0 0.914412
1 0 0.907759
1 0 0.90193
0.00518807 0.148074 0.929122
0.141619 0.143816 0.93257
0.282582 0.140154 0.932906
0.426719 0.13611 0.931136
0.572351 0.132158 0.927184
0.718135 0.128679 0.921462
0.863264 0.125795 0.914809
1 0.123323 0.907851
1 0.124987 0.900786
0 0.278294 0.919448
0.129732 0.277302 0.924117
0.270436 0.274006 0.926421
0.415473 0.269902 0.926772
0.56321 0.26566 0.924468
0.711543 0.261936 0.919356
0.858854 0.259083 0.91252
1 0.256947 0.90518
1 0.255543 0.898482
0 0.412772 0.907561
0.116808 0.412558 0.912856
0.256077 0.409857 0.916487
0.400839 0.405921 0.919112
0.550332 0.401343 0.919524
0.702129 0.396994 0.915923
0.852613 0.39379 0.908812
0.999344 0.392325 0.900328
1 0.391455 0.894163
0 0.548241 0.894606
0.104082 0.548821 0.899458
0.240986 0.547051 0.903136
0.383658 0.543923 0.907012
0.533364 0.540108 0.911223
0.689265 0.535164 0.911635
0.844923 0.530709 0.904524
0.996048 0.528725 0.894972
1 0.530098 0.889128
0 0.684413 0.881361
0.0924239 0.685618 0.885054
0.22681 0.684794 0.887495
0.366278 0.682948 0.890333
0.512673 0.681315 0.895857
0.668818 0.677562 0.902708
0.831434 0.669978 0.898466
0.959991 0.661128 0.874113
1 0.764599 0.974044
0 0.820783 0.86836
0.0822919 0.822599 0.870878
0.214878 0.822568 0.871672
0.351522 0.821653 0.8719
0.493233 0.821729 0.873808
0.641306 0.822507 0.878218
0.804501 0.817472 0.886809
1 0.879225 0.938872
1 1 1
0 0.951644 0.852476
0.0731365 0.959823 0.857252
0.204837 0.960479 0.856825
0.340078 0.960159 0.854978
0.478264 0.959716 0.852125
0.621714 0.961456 0.849546
0.771756 0.963821 0.842283
0.942779 0.956191 0.827771
1 0.959777 0.845319
0 1 0.840162
0.0646982 1 0.844602
0.196277 1 0.843641
0.330999 1 0.840665
0.468254 1 0.836011
0.609415 1 0.830213
0.756985 1 0.822919
0.908415 1 0.810483
1 1 0.774212
0.0138552 0.0147402 1
0.14818 0.0121614 1
0.287465 0.00856031 1
0.429175 0.00468452 1
0.572213 0.000854505 1
0.715831 0 1
0.859525 0 1
1 0 1
1 0 1
0.00776684 0.143893 1
0.140154 0.142412 1
0.279927 0.139208 1
0.422675 0.135531 1
0.567117 0.131762 1
0.712245 0.128206 1
0.857328 0.125048 1
1 0.122194 1
1 0.119768 1
0 0.276432 1
0.129168 0.276051 1
0.269078 0.272755 1
0.412375 0.269169 1
0.558145 0.265293 1
0.705119 0.261585 1
0.852079 0.258366 1
0.99881 0.255634 1
1 0.253513 1
0 0.410651 1
0.117983 0.410483 1
0.256535 0.408118 1
0.399619 0.404746 1
0.546258 0.400732 1
0.695262 0.396643 1
0.844755 0.393133 1
0.993667 0.390417 1
1 0.388586 1
0 0.546029 1
0.106233 0.546517 1
0.243153 0.544808 1
0.384955 0.541894 1
0.531289 0.537972 1
0.681941 0.533471 1
0.834836 0.529335 1
0.986984 0.526314 1
1 0.52488 1
0 0.68217 1
0.0949721 0.683284 1
0.229984 0.682322 1
0.369604 0.680156 1
0.513832 0.676875 1
0.664759 0.673152 1
0.821714 0.668528 1
0.978943 0.664225 1
1 0.662623 1
0 0.818784 1
0.0846571 0.820432 1
0.217929 0.820203 1
0.355261 0.818891 1
0.496269 0.816709 1
0.644022 0.815106 1
0.801389 0.811872 1
0.962753 0.803342 1
1 0.800534 1
0 0.955901 1
0.0750134 0.957916 1
0.207004 0.958297 1
0.342687 0.957702 1
0.48101 0.95642 1
0.623957 0.956283 1
0.773785 0.957519 1
0.938521 0.953246 1
1 0.992996 1
0 1 0.999741
0.0663157 1 1
0.197467 1 1
0.332204 1 1
0.469673 1 0.998978
0.609201 1 0.996231
0.754467 1 0.99469
0.90576 1 0.988815
1 1 0.973281
0.0121462 0.0131685 1
0.146532 0.0106508 1
0.284703 0.00749218 1
0.42562 0.00386053 1
0.568002 0.000167849 1
0.711192 0 1
0.854749 0 1
0.999008 0 1
1 0 1
0.00683604 0.142412 1
0.13875 0.141131 1
0.277638 0.138231 1
0.419303 0.134844 1
0.562737 0.131289 1
0.707134 0.127794 1
0.851896 0.124544 1
0.997116 0.121462 1
1 0.118746 1
0 0.274754 1
0.129137 0.274128 1
0.267811 0.27158 1
0.409842 0.26836 1
0.554147 0.26482 1
0.69987 0.26125 1
0.846128 0.257939 1
0.992737 0.254902 1
1 0.252338 1
0 0.408865 1
0.118578 0.408774 1
0.25655 0.406638 1
0.398413 0.403616 1
0.543252 0.400076 1
0.690242 0.396323 1
0.838285 0.392782 1
0.98677 0.389654 1
1 0.387152 1
0 0.544076 1
0.107637 0.544549 1
0.24445 0.542931 1
0.385504 0.540276 1
0.530144 0.536843 1
0.677958 0.532891 1
0.828031 0.528984 1
0.978958 0.525521 1
1 0.522988 1
0 0.680171 1
0.0968948 0.681163 1
0.232242 0.680156 1
0.371847 0.678019 1
0.515251 0.674968 1
0.662776 0.671061 1
0.814328 0.666636 1
0.968521 0.662547 1
1 0.659724 1
0 0.8168 1
0.0866865 0.818265 1
0.220493 0.817868 1
0.358358 0.816388 1
0.499672 0.814008 1
0.64509 0.810636 1
0.796948 0.806989 1
0.955108 0.802579 1
1 0.798444 1
0 0.953948 1
0.0768292 0.95581 1
0.209354 0.955978 1
0.345632 0.955154 1
0.484733 0.953582 1
0.626993 0.951202 1
0.776211 0.949538 1
0.935073 0.94728 1
1 0.941085 1
0 1 1
0.0677501 1 1
0.199268 1 1
0.334386 1 1
0.472358 1 1
0.61207 1 1
0.756222 1 1
0.907713 1 1
1 1 1
