public/filters/konnect/Presets B Darker Skin Tone/Captivate v2_30.2021-06-15 11-45-45.cube
TITLE "Generated by Resolve"
LUT_3D_SIZE 33
0 0.0336461 0.0280613
0.0435492 0.0278477 0.0177462
0.0951095 0.0256962 0.0163729
0.143282 0.0277562 0.0183261
0.18999 0.0315404 0.0227054
0.235615 0.0368505 0.0284276
0.280964 0.0433814 0.035462
0.326238 0.0509041 0.0435798
0.370748 0.0592966 0.0518502
0.414939 0.068101 0.0605173
0.45864 0.0768902 0.0692454
0.501503 0.0853132 0.0775921
0.543038 0.0928664 0.0850385
0.580926 0.0971389 0.090135
0.614954 0.0972 0.0921798
0.646906 0.0941024 0.0920119
0.680293 0.0922255 0.0915389
0.716762 0.0924239 0.0928206
0.755306 0.095201 0.0957809
0.794186 0.0984665 0.0990616
0.833066 0.101747 0.102358
0.871992 0.105043 0.105669
0.910933 0.108339 0.108965
0.94992 0.111666 0.112291
0.988922 0.115007 0.11545
1 0.118364 0.118578
1 0.121599 0.121828
1 0.124849 0.125322
1 0.128115 0.128878
1 0.131441 0.132296
1 0.134768 0.135668
1 0.138109 0.139055
1 0.141466 0.142458
0.016495 0.0638437 0.0171054
0.0561074 0.0617685 0.0125429
0.0939498 0.0609903 0.00993362
0.130175 0.0627451 0.00523384
0.168734 0.0658732 0.00166323
0.218006 0.0770581 0.00987259
0.269169 0.0891585 0.0223239
0.316716 0.0981765 0.0330816
0.362997 0.107164 0.0434272
0.408927 0.116732 0.0541085
0.454276 0.126482 0.0647593
0.498726 0.135927 0.0749828
0.541878 0.144625 0.0843214
0.582879 0.150805 0.0923323
0.620615 0.151751 0.0981613
0.656123 0.147662 0.101884
0.692012 0.142321 0.104692
0.729427 0.140047 0.107362
0.76791 0.141146 0.110353
0.806836 0.144457 0.113802
0.845731 0.147768 0.11722
0.884672 0.15111 0.120653
0.923644 0.154482 0.124086
0.962615 0.157839 0.127535
1 0.161227 0.130983
1 0.16463 0.134432
1 0.167926 0.137774
1 0.171298 0.141192
1 0.174685 0.14461
1 0.178073 0.148028
1 0.181476 0.151431
1 0.184863 0.154849
1 0.188266 0.158251
0.0115663 0.0964981 0.0126192
0.0493324 0.0948653 0.00914015
0.090959 0.091783 0.00862135
0.131044 0.0890364 0.00961318
0.168353 0.0882582 0.00920119
0.204746 0.0906081 0.00694286
0.24155 0.0961318 0.00303655
0.284627 0.107515 0.005066
0.337362 0.126711 0.0185092
0.394903 0.148821 0.0394141
0.450507 0.168505 0.0600443
0.500542 0.183017 0.0758984
0.545586 0.193133 0.0871748
0.588418 0.201511 0.0966201
0.628504 0.205005 0.104585
0.665797 0.202289 0.110414
0.702815 0.195056 0.115404
0.740856 0.189914 0.119493
0.779706 0.188556 0.123095
0.818708 0.191119 0.12665
0.857694 0.194461 0.13022
0.896696 0.197818 0.133791
0.935744 0.201205 0.137346
0.974762 0.204593 0.140902
1 0.208011 0.144457
1 0.211429 0.148013
1 0.214755 0.151461
1 0.218158 0.154971
1 0.221576 0.15848
1 0.224994 0.16199
1 0.228412 0.165484
1 0.23183 0.168994
1 0.235264 0.172473
0.00773632 0.129152 0.00920119
0.0432136 0.128252 0.00634775
0.0823377 0.126146 0.0047303
0.122408 0.123583 0.00469978
0.161532 0.121172 0.00544747
0.199435 0.119081 0.00624094
0.236774 0.118227 0.00691234
0.274311 0.120119 0.00717174
0.312291 0.125444 0.00645457
0.355215 0.138064 0.00953689
0.403494 0.156481 0.0184329
0.457511 0.179522 0.0348974
0.51632 0.205676 0.05832
0.574365 0.229953 0.082475
0.62855 0.248631 0.104005
0.674235 0.254719 0.118151
0.712337 0.248539 0.124636
0.751263 0.240955 0.130449
0.790784 0.237415 0.135119
0.830274 0.238071 0.139071
0.869398 0.241443 0.142779
0.908522 0.244816 0.146456
0.947646 0.248219 0.150134
0.986755 0.251637 0.153811
1 0.25507 0.157473
1 0.258503 0.16112
1 0.261952 0.164767
1 0.265278 0.168276
1 0.268711 0.171878
1 0.272145 0.175463
1 0.275578 0.179049
1 0.279011 0.18262
1 0.28246 0.186191
0.0043946 0.161852 0.0062562
0.0387884 0.161334 0.00393683
0.0759899 0.159899 0.002121
0.114977 0.157824 0.00129702
0.15407 0.155581 0.00138857
0.192508 0.153429 0.0019379
0.230152 0.151446 0.00256352
0.267124 0.149691 0.00311284
0.30457 0.149187 0.00445563
0.342855 0.150942 0.00639353
0.381933 0.155764 0.00836194
0.426368 0.168872 0.0146792
0.475502 0.188846 0.0255589
0.524453 0.209369 0.0371557
0.577386 0.232898 0.0544289
0.64239 0.26305 0.0862593
0.708659 0.287877 0.120562
0.760967 0.292317 0.140398
0.801373 0.287007 0.146426
0.841581 0.285786 0.151171
0.880949 0.288685 0.155062
0.920165 0.292073 0.158877
0.959381 0.295476 0.162661
0.998596 0.298894 0.166445
1 0.302327 0.170214
1 0.305776 0.173953
1 0.309239 0.177707
1 0.312581 0.181308
1 0.31603 0.184985
1 0.319463 0.188663
1 0.322927 0.192325
1 0.326375 0.195972
1 0.329854 0.199619
0.00132753 0.194598 0.00358587
0.0351263 0.194293 0.00163272
0.0710002 0.193332 0
0.108873 0.191699 0
0.147433 0.189761 0
0.18587 0.187716 0
0.223835 0.185718 0
0.261204 0.183841 0
0.298054 0.182086 0
0.334691 0.180667 0.000289921
0.37232 0.180697 0.00204471
0.411063 0.182589 0.00492866
0.450813 0.186999 0.00842298
0.493309 0.196674 0.0141604
0.545678 0.218997 0.029572
0.603037 0.245823 0.0510567
0.670451 0.278477 0.0841535
0.743755 0.310552 0.123842
0.805234 0.328405 0.150958
0.852171 0.333837 0.162585
0.892332 0.336141 0.167208
0.93167 0.339544 0.17113
0.970993 0.342931 0.175036
1 0.346365 0.178912
1 0.349798 0.182773
1 0.353262 0.186633
1 0.356725 0.190463
1 0.360082 0.194156
1 0.363531 0.197925
1 0.366995 0.201678
1 0.370443 0.205417
1 0.373922 0.20914
1 0.377386 0.212848
0 0.227329 0.00112917
0.0319371 0.227146 0
0.0524605 0.237232 0
0.0891127 0.239597 0
0.12636 0.241733 0
0.165789 0.241367 0
0.206073 0.23888 0
0.24535 0.236545 0
0.283665 0.234394 0
0.321141 0.232425 0
0.357885 0.23064 0
0.394003 0.229023 0
0.429786 0.227726 0
0.466316 0.227802 0
0.503594 0.229221 0
0.543053 0.230869 0
0.586877 0.233677 0.00114443
0.67274 0.274586 0.0537118
0.765393 0.3234 0.111879
0.834592 0.351888 0.145739
0.889021 0.369253 0.164691
0.936675 0.380835 0.176928
0.980774 0.388891 0.185595
1 0.393942 0.191196
1 0.397391 0.195178
1 0.400854 0.19913
1 0.404318 0.203037
1 0.407675 0.206821
1 0.411139 0.210666
1 0.414603 0.214511
1 0.418067 0.218311
1 0.421546 0.22211
1 0.42504 0.22591
0 0.26009 0
0.0289616 0.259998 0
0.0631266 0.259617 0
0.0981155 0.259785 0
0.132631 0.261769 0
0.166903 0.265446 0
0.202304 0.268757 0
0.239322 0.269734 0
0.277104 0.268666 0
0.314748 0.266651 0
0.35172 0.26479 0
0.388098 0.263066 0
0.423957 0.261494 0
0.459388 0.260075 0
0.49482 0.259159 0
0.531746 0.258885 0
0.571588 0.258473 0
0.615625 0.258625 0
0.665766 0.263539 0.0130312
0.757443 0.313039 0.0695048
0.83563 0.35259 0.112139
0.899947 0.380682 0.141009
0.95848 0.403052 0.164111
1 0.420706 0.182437
1 0.434089 0.196445
1 0.4439 0.206821
1 0.450904 0.214359
1 0.455467 0.219425
1 0.458946 0.223362
1 0.462409 0.227283
1 0.465888 0.231159
1 0.469368 0.235035
1 0.472862 0.238895
0 0.292882 0
0.0261997 0.292851 0
0.0597543 0.292668 0
0.0953994 0.291875 0
0.132036 0.290715 0
0.169207 0.289372 0
0.205921 0.288869 0
0.241703 0.290013 0
0.276509 0.292927 0
0.311299 0.295766 0
0.346593 0.297108 0
0.382452 0.29662 0
0.418372 0.295262 0
0.454017 0.293767 0
0.489296 0.292409 0
0.524285 0.291173 0
0.560967 0.289235 0
0.601053 0.287221 0
0.645594 0.285695 0
0.691585 0.287282 0.00463874
0.739315 0.294026 0.0167849
0.813794 0.331365 0.0557412
0.888914 0.370184 0.0954147
0.958343 0.403388 0.129381
1 0.430945 0.157656
1 0.453605 0.180972
1 0.471977 0.199969
1 0.487022 0.215595
1 0.498177 0.227298
1 0.506737 0.236362
1 0.513069 0.243183
1 0.517281 0.247837
1 0.52079 0.251789
0 0.325719 0
0.0235599 0.325704 0
0.056611 0.325689 0
0.091783 0.325048 0
0.127962 0.324102 0
0.164736 0.322881 0
0.201877 0.321492 0
0.239155 0.319966 0
0.276219 0.318654 0
0.312596 0.318227 0
0.347921 0.319249 0
0.382223 0.321447 0
0.416098 0.323705 0
0.450111 0.325017 0
0.48455 0.325109 0
0.51928 0.324392 0
0.554665 0.322683 0
0.591882 0.319265 0
0.632898 0.315694 0
0.677089 0.313726 0
0.720958 0.314702 0
0.763516 0.318166 0.00653086
0.805722 0.323949 0.0132296
0.862928 0.344778 0.0349126
0.939208 0.384771 0.0756847
1 0.421927 0.113588
1 0.454154 0.146502
1 0.481621 0.17464
1 0.504509 0.198138
1 0.523537 0.217746
1 0.539712 0.23447
1 0.552041 0.247333
1 0.561883 0.257649
0 0.358602 0
0.0210422 0.358587 0
0.0536355 0.358709 0
0.0884108 0.358221 0
0.124193 0.357412 0
0.160601 0.356359 0
0.197421 0.355123 0
0.23447 0.353735 0
0.27158 0.352255 0
0.308659 0.350713 0
0.345586 0.349187 0
0.382086 0.348089 0
0.417762 0.347875 0
0.452293 0.348852 0
0.485847 0.350637 0
0.518868 0.352483 0
0.552041 0.353658 0
0.587152 0.352468 0
0.624918 0.348821 0
0.666667 0.34435 0
0.709453 0.342748 0
0.751278 0.343648 0
0.791089 0.346441 0
0.831312 0.350195 0.0043183
0.872663 0.355123 0.0101167
0.917464 0.363577 0.0193942
0.988052 0.397864 0.0544594
1 0.438071 0.0953994
1 0.474052 0.132052
1 0.505425 0.16408
1 0.532418 0.191684
1 0.555535 0.215396
1 0.575128 0.235508
0 0.391562 0
0.0186313 0.391531 0
0.050782 0.391775 0
0.0852369 0.391394 0
0.120699 0.390723 0
0.156771 0.389792 0
0.193286 0.388693 0
0.230091 0.387442 0
0.267033 0.386084 0
0.304006 0.384619 0
0.340932 0.383124 0
0.377768 0.381628 0
0.414496 0.380148 0
0.450965 0.378866 0
0.486885 0.378119 0
0.521843 0.378225 0
0.555642 0.379248 0
0.589395 0.379919 0
0.624643 0.379049 0
0.662501 0.376211 0
0.702083 0.37348 0
0.742138 0.372824 0
0.781262 0.373938 0
0.820035 0.376089 0
0.859373 0.378912 0
0.899367 0.382437 0.00230411
0.940246 0.386923 0.00762951
0.983246 0.393072 0.0145724
1 0.413199 0.035462
1 0.452247 0.0752117
1 0.491051 0.114687
1 0.525811 0.150103
1 0.556527 0.18143
0 0.424582 0
0.0164797 0.42446 0
0.048127 0.424826 0
0.0822919 0.424506 0
0.114626 0.426642 0
0.14963 0.426947 0
0.185199 0.426993 0
0.221622 0.426261 0
0.25861 0.424842 0
0.295567 0.423362 0
0.332448 0.421851 0
0.369192 0.42034 0
0.405798 0.418845 0
0.442252 0.417411 0
0.478553 0.416037 0
0.514687 0.414786 0
0.550591 0.413718 0
0.586679 0.412406 0
0.623423 0.41062 0
0.661265 0.408194 0
0.699229 0.405875 0
0.736706 0.404288 0
0.774029 0.404166 0
0.811658 0.405051 0
0.849836 0.406592 0
0.888548 0.408728 0
0.927794 0.411475 0
0.968048 0.414801 0.000396735
1 0.418952 0.00537118
1 0.424323 0.0115053
1 0.432975 0.0209049
1 0.465858 0.0544747
1 0.50605 0.0953384
0 0.45771 0
0.0147097 0.457435 0
0.045594 0.457984 0
0.0794842 0.45774 0
0.114366 0.457221 0
0.149569 0.456779 0
0.184787 0.456703 0
0.219974 0.456962 0
0.255467 0.457038 0
0.291554 0.456474 0
0.328084 0.455314 0
0.364767 0.453895 0
0.401373 0.452476 0
0.437842 0.451087 0
0.47422 0.449775 0
0.51046 0.448524 0
0.546563 0.447333 0
0.582788 0.446006 0
0.619638 0.444297 0
0.657328 0.442176 0
0.695399 0.439994 0
0.732799 0.4383 0
0.769345 0.437079 0
0.805661 0.436545 0
0.842664 0.43679 0
0.880339 0.437781 0
0.918517 0.439353 0
0.95761 0.441428 0
0.996933 0.444099 0
1 0.447318 0
1 0.45124 0.00334173
1 0.456092 0.00895705
1 0.462593 0.0161593
0 0.49102 0
0.0127108 0.490654 0
0.0432288 0.491279 0
0.0768902 0.491051 0
0.111513 0.490578 0
0.146777 0.489921 0
0.182498 0.489113 0
0.21857 0.488182 0
0.254688 0.487388 0
0.290608 0.48687 0
0.326192 0.486656 0
0.361746 0.486381 0
0.397559 0.48574 0
0.433722 0.484703 0
0.470039 0.483497 0
0.506325 0.482277 0
0.542473 0.481086 0
0.578485 0.479912 0
0.614984 0.478477 0
0.652262 0.476692 0
0.690532 0.474586 0
0.728496 0.472755 0
0.765682 0.471336 0
0.801862 0.470314 0
0.837827 0.469413 0
0.874296 0.469108 0
0.911421 0.46952 0
0.949126 0.470588 0
0.987839 0.472114 0
1 0.47422 0
1 0.476829 0
1 0.479973 0
1 0.48368 0.00146487
0 0.524392 0
0.0108186 0.52401 0
0.0410468 0.524697 0
0.0744793 0.524514 0
0.108873 0.524071 0
0.143908 0.523461 0
0.179416 0.522698 0
0.21529 0.521843 0
0.251453 0.520882 0
0.287831 0.519844 0
0.324285 0.518776 0
0.360601 0.517861 0
0.396582 0.517189 0
0.432151 0.516716 0
0.467521 0.516213 0
0.502983 0.515541 0
0.538659 0.514626 0
0.574502 0.513573 0
0.610681 0.512352 0
0.647639 0.510811 0
0.685588 0.50901 0
0.72401 0.507164 0
0.761685 0.505669 0
0.798428 0.504524 0
0.834455 0.503594 0
0.87042 0.502678 0
0.906432 0.501915 0
0.943038 0.501793 0
0.980774 0.502251 0
1 0.503365 0
1 0.504982 0
1 0.507088 0
1 0.509651 0
0 0.557824 0
0.00894179 0.557427 0
0.038941 0.558206 0
0.072221 0.558068 0
0.106447 0.557687 0
0.141299 0.557137 0
0.176593 0.556435 0
0.212268 0.555627 0
0.248264 0.554742 0
0.284474 0.553765 0
0.320867 0.552728 0
0.357382 0.551644 0
0.393973 0.550546 0
0.430472 0.549493 0
0.466682 0.548562 0
0.502419 0.547799 0
0.537697 0.547143 0
0.572732 0.546487 0
0.607813 0.545724 0
0.643824 0.544625 0
0.681041 0.543191 0
0.719509 0.541512 0
0.757626 0.540032 0
0.794873 0.538811 0
0.831083 0.537835 0
0.867124 0.536919 0
0.903105 0.536034 0
0.93904 0.535149 0
0.975647 0.534432 0
1 0.534447 0
1 0.535119 0
1 0.536278 0
1 0.537926 0
0 0.591302 0
0.00709544 0.590921 0
0.0369116 0.591745 0
0.0700236 0.591684 0
0.104097 0.591348 0
0.138781 0.59086 0
0.173938 0.590234 0
0.209445 0.589487 0
0.245274 0.588647 0
0.281331 0.587732 0
0.317586 0.586755 0
0.353979 0.585733 0
0.390478 0.58468 0
0.427039 0.583597 0
0.463615 0.582498 0
0.50016 0.581415 0
0.536492 0.580392 0
0.572396 0.579461 0
0.607767 0.578637 0
0.643122 0.577768 0
0.679149 0.576745 0
0.71632 0.575525 0
0.753964 0.574273 0
0.791196 0.573144 0
0.82771 0.572137 0
0.863798 0.571206 0
0.899855 0.570306 0
0.935851 0.569421 0
0.972259 0.568429 0
1 0.567559 0
1 0.567117 0
1 0.567269 0
1 0.568032 0
0 0.624842 0
0.00529488 0.62443 0
0.0349432 0.625315 0
0.0679484 0.625284 0
0.101884 0.624994 0
0.136431 0.624552 0
0.171389 0.624018 0
0.20676 0.623331 0
0.242435 0.622553 0
0.278355 0.621698 0
0.314458 0.620783 0
0.350729 0.619806 0
0.387121 0.618799 0
0.42359 0.617777 0
0.460121 0.616709 0
0.496666 0.615656 0
0.533211 0.614588 0
0.569741 0.613519 0
0.606119 0.612497 0
0.642252 0.611475 0
0.67834 0.610483 0
0.714626 0.609476 0
0.751278 0.608438 0
0.7879 0.607446 0
0.824338 0.60647 0
0.860502 0.605539 0
0.896605 0.604639 0
0.932662 0.603738 0
0.969131 0.602747 0
1 0.601846 0
1 0.600961 0
1 0.600168 0
1 0.599908 0
0 0.658412 0
0.00349432 0.657984 0
0.0330053 0.658915 0
0.0658885 0.658946 0
0.0997177 0.658701 0
0.134127 0.658305 0
0.168994 0.657786 0
0.204227 0.65716 0
0.239734 0.656443 0
0.275517 0.65565 0
0.311482 0.65478 0
0.347631 0.65388 0
0.383917 0.652934 0
0.420294 0.651942 0
0.456733 0.650919 0
0.493217 0.649897 0
0.529747 0.648859 0
0.566247 0.647822 0
0.602747 0.646784 0
0.639216 0.645762 0
0.675654 0.644739 0
0.712047 0.643732 0
0.748409 0.642756 0
0.784726 0.641779 0
0.820981 0.640833 0
0.857191 0.639887 0
0.893355 0.638987 0
0.929458 0.638086 0
0.965972 0.637079 0
1 0.636179 0
1 0.635294 0
1 0.634424 0
1 0.63357 0
0 0.692027 0
0.00173953 0.6916 0
0.0311284 0.692576 0
0.0638895 0.692638 0
0.097612 0.692439 0
0.131914 0.692088 0
0.166659 0.6916 0
0.201755 0.69102 0
0.237156 0.690364 0
0.272801 0.689616 0
0.308644 0.688807 0
0.344671 0.687953 0
0.38085 0.687053 0
0.417136 0.686107 0
0.453483 0.68513 0
0.489906 0.684138 0
0.52636 0.683131 0
0.562844 0.682124 0
0.599313 0.681102 0
0.635767 0.680079 0
0.672206 0.679072 0
0.708629 0.678096 0
0.745007 0.677119 0
0.781338 0.676158 0
0.817639 0.675212 0
0.853895 0.674281 0
0.890105 0.673365 0
0.926268 0.672465 0
0.962798 0.671458 0
0.999023 0.670558 0
1 0.669657 0
1 0.668772 0
1 0.667918 0
0 0.725719 0
0 0.725414 0
0.0276036 0.72668 0
0.0596323 0.726879 0
0.0929732 0.72668 0
0.126955 0.726284 0
0.16144 0.725719 0
0.196277 0.725017 0
0.231434 0.724239 0
0.266987 0.7234 0
0.303151 0.722545 0
0.33994 0.721767 0
0.377005 0.721019 0
0.413825 0.720211 0
0.45034 0.719326 0
0.486702 0.718364 0
0.523095 0.717403 0
0.559533 0.716426 0
0.595972 0.715434 0
0.632425 0.714443 0
0.668864 0.713451 0
0.705272 0.712474 0
0.741665 0.711513 0
0.778027 0.710552 0
0.814343 0.709606 0
0.850614 0.708675 0
0.886854 0.707759 0
0.923064 0.706859 0
0.95964 0.705852 0
0.994171 0.704784 0
1 0.703563 0
1 0.702205 0
1 0.701015 0
0 0.762005 0
0 0.760998 0
0.0179599 0.761746 0
0.0525063 0.761151 0
0.0877394 0.760388 0
0.122637 0.759701 0
0.157641 0.758984 0
0.192798 0.758221 0
0.228092 0.757412 0
0.263508 0.756558 0
0.299397 0.755764 0
0.335897 0.755108 0
0.373098 0.754635 0
0.410315 0.754131 0
0.447181 0.753475 0
0.483604 0.752605 0
0.519951 0.751675 0
0.556329 0.750729 0
0.592752 0.749767 0
0.62916 0.748806 0
0.665583 0.747845 0
0.701991 0.746883 0
0.738384 0.745922 0
0.774746 0.744976 0
0.811078 0.74403 0
0.847395 0.743114 0
0.883665 0.742199 0
0.91989 0.741283 0
0.956497 0.740291 0
0.992798 0.739376 0
1 0.738476 0
1 0.737423 0
1 0.73611 0
0 0.794171 0
0 0.793744 0
0.0165713 0.794705 0
0.05066 0.794202 0
0.085832 0.793454 0
0.120623 0.792782 0
0.155535 0.792081 0
0.190585 0.791348 0
0.225757 0.79057 0
0.261082 0.789746 0
0.29659 0.788907 0
0.332677 0.788296 0
0.369436 0.787945 0
0.406806 0.787808 0
0.4439 0.787457 0
0.480598 0.786816 0
0.516899 0.785946 0
0.553231 0.785031 0
0.589593 0.7841 0
0.625986 0.783169 0
0.662379 0.782223 0
0.698772 0.781277 0
0.735164 0.780346 0
0.771527 0.7794 0
0.807874 0.77847 0
0.844205 0.777554 0
0.880491 0.776638 0
0.916747 0.775753 0
0.953368 0.774746 0
0.989715 0.773846 0
1 0.772946 0
1 0.772045 0
1 0.771176 0
0 0.826856 0
0 0.826429 0
0.0213169 0.827573 0
0.0522011 0.827451 0
0.0851453 0.826734 0
0.11899 0.825956 0
0.153567 0.825238 0
0.188495 0.824521 0
0.223529 0.823713 0
0.258732 0.822919 0
0.294057 0.82208 0
0.329778 0.821424 0
0.36614 0.821103 0
0.403235 0.82118 0
0.440528 0.82121 0
0.47747 0.820905 0
0.513954 0.820218 0
0.550225 0.819333 0
0.586542 0.818448 0
0.622889 0.817533 0
0.659266 0.816617 0
0.695628 0.815686 0
0.732006 0.814771 0
0.768383 0.813855 0
0.804715 0.812924 0
0.841047 0.812009 0
0.877363 0.811124 0
0.913634 0.810224 0
0.950271 0.809232 0
0.986633 0.808316 0
1 0.807416 0
1 0.806531 0
1 0.805661 0
0 0.860639 0
0 0.860182 0
0.0221714 0.861326 0
0.0542916 0.861524 0
0.0871138 0.861295 0
0.12018 0.860624 0
0.153536 0.859556 0
0.187381 0.858351 0
0.221775 0.857237 0
0.256626 0.856275 0
0.291768 0.855406 0
0.327169 0.854643 0
0.36318 0.854292 0
0.399893 0.854414 0
0.437278 0.854871 0
0.474403 0.854932 0
0.511086 0.85452 0
0.547326 0.853681 0
0.583581 0.852796 0
0.619883 0.851911 0
0.656199 0.850996 0
0.692546 0.850095 0
0.728908 0.84918 0
0.765255 0.84828 0
0.801602 0.847379 0
0.837949 0.846479 0
0.87425 0.845579 0
0.910552 0.844709 0
0.947204 0.843717 0
0.983581 0.842817 0
1 0.841932 0
1 0.841047 0
1 0.840162 0
0 0.894469 0
0 0.894011 0
0.0204623 0.895171 0
0.0527047 0.89543 0
0.0859236 0.89543 0
0.119692 0.895262 0
0.153735 0.894835 0
0.187854 0.894057 0
0.221988 0.892866 0
0.256199 0.891386 0
0.290593 0.889845 0
0.325292 0.888457 0
0.360647 0.887633 0
0.396857 0.887572 0
0.433982 0.888212 0
0.471244 0.888716 0
0.508141 0.888655 0
0.544488 0.887999 0
0.580682 0.887129 0
0.616938 0.886244 0
0.653223 0.885359 0
0.689525 0.884474 0
0.725856 0.883574 0
0.762188 0.882689 0
0.79852 0.881804 0
0.834867 0.880934 0
0.871183 0.880064 0
0.9075 0.879194 0
0.944167 0.878233 0
0.980575 0.877348 0
1 0.876448 0
1 0.875563 0
1 0.874678 0
0 0.92845 0
0 0.927962 0
0.0184176 0.928939 0
0.0498817 0.928908 0
0.0822156 0.928084 0
0.114992 0.926741 0
0.148257 0.925078 0
0.182025 0.923415 0
0.216083 0.921736 0
