public/filters/konnect/Presets B Darker Skin Tone/Contrast v2_20.2021-06-15 11-45-45.cube
TITLE "Generated by Resolve"
LUT_3D_SIZE 5
0.0264439 0.0209659 0.0400244
0.145159 0.0375982 0.0536202
0.337575 0.0241855 0.0436713
0.583307 0 0.0224002
0.78265 0 0.0216526
0.0615396 0.168856 0.0719921
0.181186 0.20087 0.0886549
0.393637 0.215824 0.0914321
0.669154 0.205203 0.0961166
0.886915 0.22887 0.116564
0.0728771 0.415808 0.0833906
0.221759 0.459083 0.123293
0.451408 0.480644 0.135698
0.725933 0.489815 0.143008
0.938857 0.517067 0.165133
0.107164 0.709773 0.116243
0.257435 0.749706 0.150546
0.500267 0.768414 0.17055
0.764035 0.771664 0.171344
0.957946 0.785626 0.181247
0.192859 0.965927 0.199084
0.332906 0.989899 0.224094
0.551431 0.979583 0.21532
0.803708 0.968338 0.201846
0.978836 0.966171 0.198291
0.0355077 0.0263981 0.159518
0.13994 0.0366064 0.171496
0.343465 0.0243534 0.179706
0.589532 0.0043946 0.153155
0.790524 0.0056611 0.155978
0.063798 0.176043 0.199039
0.193545 0.205066 0.228016
0.400626 0.228931 0.250034
0.677501 0.219867 0.243015
0.898039 0.243091 0.266148
0.0848859 0.429191 0.228977
0.239155 0.471015 0.275975
0.461463 0.493416 0.293584
0.717357 0.504799 0.297673
0.948211 0.53048 0.321538
0.120089 0.722698 0.269734
0.276158 0.762951 0.314305
0.513146 0.775601 0.327153
0.763287 0.77467 0.325612
0.96199 0.791562 0.338018
0.193149 0.973068 0.353506
0.340002 0.994614 0.379797
0.552804 0.978256 0.367971
0.804562 0.96791 0.355123
0.979675 0.96701 0.356481
0.0299229 0.0222782 0.371847
0.139864 0.032517 0.375677
0.337545 0.021622 0.373693
0.593317 0.00410468 0.365682
0.796475 0.00822461 0.374502
0.0584268 0.178912 0.409064
0.194812 0.206134 0.429221
0.410727 0.221775 0.447089
0.680385 0.234363 0.46891
0.904768 0.251301 0.491554
0.0807355 0.439719 0.449088
0.246479 0.479164 0.48954
0.47451 0.499321 0.509606
0.706905 0.512657 0.519951
0.941741 0.535531 0.545235
0.0944381 0.729366 0.498421
0.284947 0.769162 0.540322
0.52459 0.778531 0.557824
0.758602 0.773037 0.553491
0.935622 0.776028 0.551904
0.148745 0.967559 0.577783
0.342473 0.993835 0.606516
0.565927 0.98233 0.60029
0.800977 0.961791 0.580423
0.961273 0.952407 0.568734
0.0258946 0.0168154 0.591745
0.137377 0.0272679 0.601267
0.337163 0.0184329 0.593805
0.590127 0.00300603 0.58265
0.795895 0.0104219 0.596841
0.060502 0.178897 0.635554
0.197696 0.209125 0.661967
0.42237 0.225147 0.675959
0.693416 0.234226 0.689403
0.91017 0.25803 0.719799
0.0929427 0.44622 0.676509
0.248051 0.487541 0.714992
0.483375 0.508125 0.727718
0.743679 0.521691 0.740749
0.955001 0.54522 0.772
0.117418 0.737102 0.721569
0.288533 0.775921 0.762768
0.531701 0.784726 0.771801
0.76936 0.777569 0.764431
0.927062 0.777493 0.763729
0.165896 0.962646 0.795026
0.342123 0.993088 0.824689
0.569223 0.98024 0.815305
0.808469 0.959014 0.799176
0.94464 0.940688 0.779355
0.0249638 0.0159152 0.757961
0.138811 0.0270542 0.768261
0.343374 0.0194247 0.75993
0.598596 0.0068513 0.747814
0.803571 0.0178531 0.761608
0.0678721 0.184222 0.80383
0.206043 0.217563 0.835691
0.437049 0.234485 0.85069
0.709361 0.244099 0.860029
0.922744 0.26865 0.887602
0.105684 0.457938 0.845502
0.256275 0.499702 0.88542
0.495003 0.519768 0.900923
0.762341 0.531838 0.908751
0.967803 0.556756 0.935164
0.14313 0.750423 0.888075
0.295857 0.787732 0.925536
0.533211 0.795087 0.929549
0.783902 0.790982 0.918379
0.958831 0.799268 0.924758
0.207279 0.981231 0.959899
0.343725 0.997086 0.976837
0.569635 0.983413 0.962142
0.813092 0.9617 0.938781
0.973816 0.960983 0.937438
