public/filters/konnect/Presets B Darker Skin Tone/Contrast v2_20.2021-06-15 11-45-45.cube
TITLE "Generated by Resolve"
LUT_3D_SIZE 33
0.0264439 0.0209659 0.0400244
0.0323796 0.0227359 0.0427405
0.0439155 0.0251774 0.0428321
0.0606088 0.0289769 0.0457771
0.0767071 0.0315557 0.0480507
0.0928054 0.0336461 0.0499428
0.109377 0.0353552 0.0515145
0.126711 0.0366827 0.0527352
0.145159 0.0375982 0.0536202
0.165087 0.0380407 0.0540627
0.186633 0.0380102 0.054078
0.210056 0.0375067 0.0536507
0.235721 0.0365911 0.0527962
0.262882 0.035172 0.0515145
0.289158 0.0327306 0.0496681
0.313634 0.0289769 0.0470283
0.337575 0.0241855 0.0436713
0.364111 0.0197299 0.0403143
0.392981 0.0161135 0.0373846
0.424002 0.0131228 0.0347753
0.455863 0.0100404 0.032105
0.488121 0.00695811 0.0294194
0.520409 0.00395209 0.0268406
0.552285 0.0011902 0.0244755
0.583307 0 0.0224002
0.613016 0 0.0207523
0.641199 0 0.0195926
0.667872 0 0.0189212
0.693049 0 0.0186923
0.716793 0 0.0189212
0.739437 0 0.0195468
0.761273 0 0.0204776
0.78265 0 0.0216526
0.0401465 0.0388952 0.0510719
0.0475319 0.0417945 0.0530251
0.0559701 0.0450904 0.0528725
0.0672465 0.0485695 0.052079
0.0806592 0.0518807 0.0519112
0.095613 0.0545205 0.05243
0.111513 0.0563058 0.0534218
0.128237 0.0575875 0.0543984
0.146075 0.0585489 0.0551308
0.165331 0.0591135 0.0555428
0.186206 0.0592508 0.0555886
0.208804 0.0589303 0.0552377
0.233234 0.0581521 0.0544747
0.259495 0.0569314 0.053315
0.286412 0.0543832 0.0518959
0.313588 0.0502174 0.0501411
0.340978 0.0442664 0.0479286
0.369802 0.0387579 0.0453956
0.399664 0.0345006 0.0428779
0.430915 0.0315557 0.0404364
0.463035 0.0287633 0.0379492
0.495552 0.0259709 0.0354772
0.528099 0.0233005 0.0331426
0.560265 0.0208896 0.0310063
0.591577 0.0188449 0.029221
0.621592 0.0173037 0.0278782
0.650095 0.0163272 0.027039
0.677073 0.0159152 0.0266728
0.702586 0.0160525 0.0267948
0.72668 0.0167391 0.0273747
0.749676 0.0178683 0.0283513
0.771893 0.019379 0.0296635
0.793637 0.0211643 0.0312047
0.0443275 0.0549325 0.0551919
0.0541085 0.0570993 0.0578012
0.06392 0.0593881 0.0592355
0.0747845 0.0616007 0.0599222
0.0867933 0.06421 0.06009
0.100191 0.0676585 0.0597391
0.115297 0.0717784 0.0590677
0.132052 0.0754406 0.0586862
0.150103 0.0778515 0.058732
0.169436 0.0789502 0.0589609
0.190234 0.0792859 0.0590066
0.212757 0.0791638 0.0587167
0.237095 0.0785992 0.0580301
0.263264 0.0776074 0.0569924
0.290639 0.0756695 0.0557565
0.318578 0.0718395 0.0543832
0.347127 0.0660258 0.0528115
0.376623 0.0595254 0.0508736
0.406973 0.054551 0.0487831
0.43856 0.051133 0.0465705
0.470954 0.0486915 0.0443885
0.503792 0.0462806 0.042237
0.53666 0.044007 0.0402075
0.569146 0.0420081 0.0383917
0.600778 0.0403754 0.0369268
0.631098 0.0392615 0.0359197
0.659922 0.0387121 0.0354009
0.687236 0.0387274 0.0354009
0.7131 0.0393072 0.035874
0.737545 0.0404212 0.0368353
0.760906 0.0419928 0.0381933
0.78352 0.043946 0.0398871
0.805676 0.0461738 0.0418555
0.0480354 0.071519 0.0588083
0.0585794 0.0735943 0.0613413
0.0691844 0.075761 0.0632944
0.0802777 0.0779126 0.0645609
0.0922866 0.079881 0.0654307
0.105379 0.081651 0.0661784
0.1196 0.0836042 0.0666209
0.135317 0.0862745 0.0665141
0.152941 0.0899672 0.0657816
0.172702 0.0939651 0.064744
0.194324 0.0972305 0.0638132
0.217441 0.09897 0.0631113
0.242069 0.0993057 0.0624247
0.26836 0.0987564 0.0615549
0.296071 0.0976577 0.0604868
0.324529 0.0946212 0.0594644
0.353735 0.0894026 0.058381
0.383841 0.0821546 0.0570382
0.414755 0.0763409 0.0554208
0.446891 0.0722667 0.0535439
0.479698 0.0700542 0.0516518
0.512871 0.0680552 0.0498054
0.54609 0.0662089 0.0480964
0.578897 0.064622 0.0466163
0.61088 0.0634318 0.0454871
0.64152 0.0627604 0.044831
0.67068 0.0626688 0.0446937
0.698344 0.0631266 0.0450599
0.724544 0.0641642 0.0459297
0.749355 0.0657359 0.0472877
0.773114 0.0677653 0.0490578
0.796139 0.070161 0.0511635
0.818708 0.0728466 0.0535439
0.0514229 0.088777 0.062089
0.0624857 0.090898 0.0646067
0.0737469 0.0930648 0.0667887
0.0853285 0.0952621 0.0684825
0.0975814 0.0973831 0.069749
0.11075 0.0993668 0.0707408
0.125017 0.101122 0.0715648
0.14052 0.102617 0.0722362
0.157519 0.104051 0.0726482
0.176394 0.105821 0.0725414
0.197482 0.108415 0.0717479
0.22089 0.111757 0.0704509
0.246403 0.115129 0.0689555
0.273625 0.117662 0.0675364
0.301976 0.118914 0.0663005
0.331029 0.117784 0.0653697
0.360784 0.113664 0.0646067
0.391485 0.106859 0.063798
0.422995 0.100237 0.0627451
0.455787 0.0955215 0.061265
0.489174 0.092958 0.0596475
0.522744 0.0914015 0.0581064
0.556313 0.0899977 0.056733
0.589471 0.0888685 0.0556039
0.62179 0.0881361 0.0548409
0.652781 0.0879225 0.0545663
0.682261 0.0882887 0.0548104
0.710277 0.0892348 0.0555734
0.736858 0.0907301 0.0568551
0.762051 0.0927749 0.0586404
0.786221 0.0952926 0.0608377
0.809628 0.098146 0.0633707
0.832624 0.101274 0.0661479
0.0545052 0.106889 0.0650797
0.0659648 0.109148 0.067628
0.0777905 0.111421 0.0699626
0.0899519 0.113741 0.0719615
0.102632 0.11603 0.0736095
0.116106 0.118227 0.0749371
0.130587 0.120241 0.0760357
0.146334 0.122042 0.0769818
0.163516 0.123568 0.0777142
0.182467 0.124727 0.0782025
0.203326 0.125612 0.0783703
0.226322 0.126558 0.0780652
0.251652 0.128054 0.0771496
0.279164 0.130434 0.075639
0.308248 0.133425 0.0738994
0.33814 0.135836 0.0723735
0.368597 0.135286 0.0714122
0.399786 0.131334 0.0708476
0.431891 0.125231 0.0703441
0.465293 0.120455 0.069398
0.499352 0.117586 0.0681773
0.533272 0.116472 0.0670024
0.567208 0.115526 0.06598
0.600717 0.11487 0.0652323
0.633371 0.114611 0.0648661
0.664698 0.114885 0.0649882
0.694545 0.11574 0.0656443
0.722927 0.117174 0.0668345
0.749859 0.119142 0.0685283
0.775402 0.12163 0.0707103
0.799878 0.124544 0.0732738
0.823621 0.127779 0.0761578
0.846906 0.131258 0.0792859
0.0573129 0.126085 0.0678264
0.0691844 0.128527 0.0705119
0.0767529 0.136782 0.0701152
0.089662 0.141649 0.0708324
0.103563 0.146517 0.0713512
0.118654 0.150103 0.0725261
0.134813 0.152331 0.0742962
0.151843 0.154452 0.0759289
0.170092 0.156359 0.077348
0.189899 0.157977 0.0785077
0.211383 0.159274 0.0793774
0.234699 0.160204 0.0799268
0.259983 0.160754 0.0800946
0.287221 0.16112 0.079881
0.316014 0.161654 0.0792706
0.345907 0.162081 0.0785534
0.376715 0.160662 0.078172
0.408499 0.156695 0.0781415
0.441306 0.151019 0.0782788
0.475334 0.146609 0.0778668
0.509896 0.144121 0.0771191
0.544244 0.143389 0.0763104
0.578546 0.142916 0.0756847
0.612421 0.142748 0.0753338
0.645411 0.142977 0.0753643
0.677058 0.143725 0.0758831
0.707195 0.145022 0.0769207
0.735866 0.146853 0.0784619
0.763058 0.149218 0.0804913
0.788861 0.152071 0.0829938
0.813596 0.155306 0.0858625
0.837568 0.158862 0.0890364
0.861082 0.162615 0.0924086
0.0596323 0.146624 0.0700999
0.0719005 0.14934 0.0729534
0.0846876 0.152087 0.0757
0.097322 0.155886 0.0777905
0.110338 0.161074 0.0788739
0.124178 0.16762 0.0789807
0.139651 0.173526 0.0792554
0.156756 0.177844 0.0802014
0.175418 0.18056 0.0816968
0.195651 0.182528 0.0831464
0.217563 0.184192 0.0842908
0.241276 0.185489 0.0851148
0.266957 0.186389 0.0855879
0.294545 0.186938 0.0857252
0.323705 0.187198 0.0856031
0.354009 0.18735 0.0853285
0.385336 0.186175 0.0852979
0.417578 0.183398 0.0856184
0.450874 0.178882 0.0862593
0.485451 0.175128 0.0864424
0.520638 0.172854 0.0862135
0.555474 0.172351 0.0858167
0.590097 0.172351 0.0855573
0.624262 0.17261 0.0855573
0.657496 0.173251 0.0859236
0.689372 0.17438 0.0867628
0.719722 0.176059 0.0881208
0.748577 0.178225 0.0899367
0.775952 0.180896 0.0922408
0.801907 0.184024 0.0949874
0.82681 0.187518 0.098085
0.850935 0.191287 0.101442
0.874571 0.195239 0.104997
0.0615396 0.168856 0.0719921
0.0742809 0.171923 0.0751354
0.0875257 0.175006 0.0782025
0.101289 0.178134 0.0811475
0.115618 0.181262 0.0839246
0.130571 0.184588 0.0863813
0.146227 0.188861 0.0880446
0.162936 0.19443 0.088716
0.181186 0.20087 0.0886549
0.201389 0.20647 0.0887007
0.223575 0.210346 0.0892348
0.247715 0.212558 0.0900435
0.273838 0.213916 0.0907301
0.301839 0.214862 0.0911116
0.331365 0.215534 0.091249
0.362036 0.216037 0.0912642
0.393637 0.215824 0.0914321
0.426184 0.213977 0.092134
0.459754 0.210529 0.09337
0.495109 0.206531 0.0943923
0.531014 0.204059 0.0948501
0.566552 0.20325 0.0949874
0.601404 0.203616 0.0950942
0.635752 0.204227 0.0954452
0.669154 0.205203 0.0961166
0.701152 0.206653 0.0972152
0.731609 0.208591 0.0987716
0.760571 0.211017 0.100801
0.788022 0.213916 0.103288
0.814054 0.217243 0.106203
0.839033 0.22092 0.109438
0.863218 0.224811 0.112917
0.886915 0.22887 0.116564
0.0630045 0.193011 0.0734722
0.0762188 0.196475 0.076936
0.0899672 0.199939 0.0803082
0.10425 0.203418 0.0836042
0.119127 0.206928 0.0867475
0.134722 0.210391 0.0897078
0.151217 0.213809 0.0924544
0.168841 0.217105 0.0949264
0.187793 0.220691 0.0968338
0.208331 0.225055 0.0978866
0.230564 0.230488 0.0979324
0.254688 0.236103 0.0974289
0.280873 0.240787 0.0970016
0.30901 0.243839 0.0969253
0.33875 0.245548 0.0971084
0.369696 0.246571 0.0973526
0.401389 0.247257 0.0976577
0.433982 0.246464 0.0985885
0.467674 0.244068 0.100175
0.503761 0.239994 0.101976
0.54052 0.237156 0.10312
0.576913 0.235966 0.103777
0.612024 0.236484 0.104128
0.646494 0.237369 0.104677
0.679957 0.23859 0.105547
0.712001 0.240269 0.106798
0.742489 0.24242 0.108522
0.771466 0.245029 0.110674
0.798901 0.248066 0.113268
0.824933 0.251514 0.116258
0.849882 0.255268 0.119554
0.874037 0.25922 0.123064
0.897704 0.26331 0.126711
0.0640421 0.219226 0.0745556
0.0777142 0.223072 0.0783246
0.0919509 0.226947 0.0820325
0.106752 0.230823 0.0856641
0.122194 0.23473 0.0891737
0.138354 0.23859 0.0925154
0.155444 0.24239 0.0956741
0.173663 0.246067 0.0985733
0.193317 0.249546 0.101183
0.214649 0.25272 0.103471
0.237766 0.255818 0.105303
0.26273 0.259174 0.106401
0.28954 0.263203 0.106569
0.317845 0.267781 0.105974
0.347341 0.272251 0.105119
0.377813 0.275959 0.104463
0.409033 0.27863 0.10425
0.441215 0.279515 0.104906
0.474784 0.27834 0.106538
0.511055 0.275105 0.108705
0.548699 0.272007 0.110521
0.58587 0.270481 0.11165
0.621607 0.27071 0.112276
0.656092 0.271794 0.112886
0.68954 0.273198 0.113817
0.721538 0.275029 0.11516
0.751965 0.277302 0.116945
0.78085 0.279988 0.119158
0.808209 0.283085 0.121767
0.834119 0.286564 0.124743
0.858961 0.290318 0.128008
0.883009 0.294255 0.131472
0.906523 0.298268 0.135027
0.0645762 0.247562 0.0751812
0.078706 0.251835 0.0792706
0.0934615 0.256138 0.083299
0.108797 0.260441 0.0872511
0.124788 0.264759 0.0910964
0.141558 0.269047 0.0948043
0.159243 0.273274 0.0983139
0.178088 0.277378 0.101625
0.198352 0.281224 0.104631
0.220233 0.284779 0.107362
0.243915 0.287984 0.109712
0.269566 0.290776 0.111666
0.297276 0.293217 0.11313
0.326726 0.295613 0.114
0.357351 0.298436 0.114168
0.388449 0.30193 0.113649
0.419593 0.305852 0.112795
0.450736 0.309331 0.112276
0.483116 0.310796 0.112917
0.518334 0.309865 0.114519
0.556054 0.307454 0.116625
0.593637 0.30605 0.11812
0.629908 0.30602 0.119066
0.664317 0.307225 0.119722
0.697658 0.308705 0.120684
0.729519 0.310597 0.122042
0.759793 0.312901 0.123827
0.78851 0.315602 0.125994
0.815686 0.318685 0.128542
0.841413 0.322103 0.131441
0.866056 0.325765 0.134585
0.889876 0.32958 0.137896
0.913222 0.333486 0.141329
0.0650034 0.277989 0.0756847
0.0796521 0.282689 0.0801862
0.0949111 0.287404 0.0846418
0.11078 0.292149 0.0890516
0.125887 0.299428 0.0912184
0.142885 0.305211 0.0946059
0.160861 0.310826 0.0977951
0.180224 0.315679 0.101106
0.201144 0.319722 0.104494
0.223606 0.32343 0.107637
0.247761 0.326802 0.110399
0.273732 0.329732 0.112718
0.301656 0.332235 0.114595
0.331365 0.334325 0.116075
0.362493 0.33611 0.117189
0.394568 0.337789 0.117952
0.426947 0.339681 0.118364
0.459159 0.341787 0.118654
0.492012 0.343191 0.119402
0.526909 0.343297 0.120668
0.563851 0.34229 0.122377
0.600885 0.341741 0.12372
0.636896 0.342031 0.124651
0.671244 0.343175 0.125307
0.704402 0.344686 0.126223
0.736019 0.346548 0.12752
0.766064 0.348791 0.129198
0.794522 0.3514 0.131258
0.821424 0.354376 0.133669
0.846952 0.357733 0.136461
0.871489 0.361395 0.13959
0.895338 0.365316 0.142977
0.918791 0.36939 0.146532
0.0657359 0.310369 0.0764782
0.0808576 0.315511 0.0813458
0.0966049 0.320653 0.0861219
0.112963 0.32578 0.0908217
0.129961 0.330861 0.0954147
0.147524 0.336248 0.0995956
0.165805 0.342031 0.103197
0.185 0.348074 0.106126
0.205753 0.353582 0.108904
0.22829 0.358175 0.111711
0.252735 0.361868 0.114458
0.279042 0.36495 0.116869
0.307286 0.367575 0.118791
0.337224 0.369772 0.120302
0.368521 0.371633 0.121477
0.400763 0.373266 0.122377
0.433539 0.374762 0.123156
0.466285 0.376303 0.123888
0.499596 0.377462 0.124819
0.534386 0.377966 0.125887
0.570672 0.377783 0.127214
0.607095 0.377783 0.128313
0.642802 0.378225 0.129137
0.677028 0.379278 0.129747
0.70988 0.380667 0.130556
0.741222 0.382437 0.131716
0.771054 0.384665 0.133349
0.799405 0.38732 0.135424
0.826307 0.390463 0.137957
0.851881 0.393988 0.140887
0.876478 0.397818 0.144152
0.900389 0.401862 0.147631
0.923873 0.406043 0.151278
0.0671702 0.344457 0.0779126
0.0827192 0.34995 0.0831159
0.0988785 0.355398 0.0882429
0.115602 0.3608 0.0932784
0.132982 0.36614 0.0981918
0.151125 0.371359 0.102937
0.170199 0.376425 0.107439
0.190341 0.381338 0.111604
0.211734 0.386236 0.115129
0.23444 0.391196 0.117861
0.258625 0.396017 0.11986
0.284672 0.400137 0.121477
0.31281 0.403311 0.122927
0.342824 0.405692 0.124208
0.374228 0.407584 0.125246
0.4065 0.409201 0.126055
0.439231 0.410681 0.126711
0.471931 0.412146 0.127367
0.505104 0.413352 0.128099
0.539681 0.413931 0.129
0.57557 0.413993 0.130236
0.611978 0.413916 0.131441
0.647639 0.414267 0.132357
0.681987 0.415198 0.13315
0.714763 0.416693 0.134127
0.746105 0.418647 0.135531
0.775921 0.421027 0.137346
0.804273 0.42385 0.139559
0.831174 0.427131 0.142214
0.856748 0.430777 0.145251
0.881361 0.434714 0.148577
0.905257 0.438834 0.152117
0.928771 0.443091 0.15581
0.0694743 0.379736 0.0801404
0.085359 0.385504 0.0855879
0.101823 0.39118 0.090959
0.118868 0.396811 0.0962234
0.136538 0.402319 0.101335
0.154971 0.407691 0.106264
0.174334 0.412879 0.110948
0.194797 0.417792 0.115312
0.216678 0.42237 0.119265
0.240116 0.426551 0.122774
0.265141 0.430411 0.125658
0.291798 0.434028 0.127764
0.319982 0.437415 0.128908
0.349538 0.440421 0.129427
0.380331 0.442878 0.129702
0.412161 0.44477 0.130053
0.444617 0.446265 0.130495
0.477089 0.447639 0.131029
0.509941 0.448814 0.131487
0.544167 0.449516 0.132204
0.579736 0.449866 0.133318
0.616403 0.449989 0.134768
0.652476 0.450492 0.136004
0.687236 0.451514 0.137133
0.720073 0.453147 0.138262
0.751385 0.455238 0.139788
0.781186 0.457755 0.141711
0.809491 0.4607 0.144015
0.836347 0.464057 0.146731
0.861875 0.467781 0.149828
0.886442 0.471763 0.153201
0.910307 0.475929 0.156756
0.933776 0.480186 0.160433
0.0728771 0.415808 0.0833906
0.0890059 0.421729 0.0890211
0.105714 0.427588 0.0945602
0.122957 0.433326 0.0999619
0.140841 0.438956 0.10518
0.159472 0.444389 0.110185
0.179019 0.449607 0.114931
0.199695 0.454536 0.119341
0.221759 0.459083 0.123293
0.245365 0.463203 0.126802
0.270665 0.466835 0.129793
0.29778 0.469963 0.132265
0.32668 0.472572 0.134127
0.35697 0.474845 0.135317
0.388098 0.47689 0.135821
0.419638 0.478798 0.135821
0.451408 0.480644 0.135698
0.483177 0.482429 0.135775
0.515602 0.483955 0.136004
0.549462 0.485069 0.136553
0.584787 0.485801 0.13753
0.621347 0.486305 0.138964
0.657786 0.486992 0.140444
0.692866 0.488136 0.141741
0.725933 0.489815 0.143008
0.757168 0.491997 0.144518
0.786877 0.494591 0.146456
0.815106 0.497597 0.148806
0.84184 0.500999 0.151537
0.867262 0.504738 0.154635
0.891722 0.508721 0.157992
0.915496 0.51284 0.161517
0.938857 0.517067 0.165133
0.076585 0.452522 0.0869306
0.0928664 0.458579 0.092668
0.109682 0.4645 0.0982528
0.127047 0.470298 0.10367
0.145037 0.475944 0.108827
0.16376 0.481376 0.113756
0.183398 0.486564 0.118379
0.20415 0.491417 0.122637
0.226291 0.495857 0.126436
0.249973 0.49984 0.129778
0.275319 0.503304 0.132647
0.302464 0.506233 0.135073
0.331456 0.508629 0.136965
0.362066 0.510658 0.13846
0.393896 0.512428 0.139635
0.426429 0.514076 0.14052
0.459052 0.51574 0.1411
0.491188 0.51754 0.141421
0.523568 0.519249 0.141421
0.55668 0.520714 0.141375
0.591058 0.521874 0.141802
0.626719 0.52282 0.142855
0.66302 0.523781 0.14435
0.698161 0.525078 0.1458
0.731395 0.526818 0.147219
0.762478 0.529046 0.148745
0.79205 0.531655 0.150683
0.820111 0.534661 0.153017
0.846693 0.538064 0.155734
0.871962 0.541756 0.15877
0.896269 0.545678 0.162051
0.91989 0.549752 0.165484
0.943099 0.553872 0.169009
0.0800488 0.489738 0.0902571
0.0963912 0.495796 0.0960098
0.113252 0.501717 0.10161
0.130648 0.507469 0.107042
0.148653 0.513039 0.112276
0.167376 0.518364 0.117235
0.186969 0.523537 0.120424
0.207736 0.528222 0.124529
0.229877 0.532464 0.128206
0.253635 0.536309 0.131502
0.279149 0.539712 0.134447
0.306569 0.542672 0.137133
0.335866 0.545159 0.13933
0.366735 0.54728 0.141115
0.39881 0.549126 0.142611
0.431647 0.55079 0.143877
0.464805 0.552422 0.145006
0.497795 0.554086 0.145983
0.531228 0.555611 0.146548
0.564935 0.557 0.146731
0.5991 0.558251 0.146929
0.633753 0.559442 0.147402
0.668925 0.560678 0.148394
0.70338 0.562127 0.149584
0.736339 0.563912 0.150942
0.7673 0.566125 0.152483
0.796689 0.568719 0.154376
0.824537 0.571664 0.156649
0.850904 0.57499 0.159289
0.875975 0.578592 0.162234
0.900084 0.582422 0.165393
0.923491 0.586343 0.168688
0.946502 0.590311 0.172045
0.0832685 0.527016 0.0933547
0.0995956 0.533013 0.0990463
0.116426 0.538842 0.10457
0.133761 0.544488 0.109865
0.151675 0.549905 0.114855
0.170321 0.555062 0.119585
0.18999 0.560052 0.124071
0.210864 0.564736 0.128237
0.233265 0.569085 0.132036
0.257298 0.573037 0.135393
0.283101 0.576547 0.138399
0.310796 0.579583 0.141009
0.340368 0.582132 0.143145
0.371466 0.584314 0.144854
0.403723 0.586191 0.146258
0.436698 0.5879 0.147433
0.469932 0.589548 0.148547
0.503059 0.591211 0.149584
0.536873 0.592691 0.150378
0.571328 0.593988 0.150942
0.606012 0.595178 0.151385
0.640665 0.596353 0.151812
0.675013 0.597604 0.152392
0.708644 0.599054 0.153231
0.741009 0.600824 0.15436
0.77174 0.602945 0.15584
0.800885 0.605447 0.157641
0.828504 0.608301 0.159823
0.854597 0.61149 0.162341
0.879423 0.614954 0.165148
0.903273 0.618601 0.168139
0.926436 0.622354 0.171237
0.949218 0.626123 0.174395
0.086305 0.563973 0.0962692
0.10251 0.569818 0.101839
0.11928 0.575509 0.107256
0.136629 0.581094 0.112566
0.154696 0.586572 0.117739
0.173587 0.591867 0.122698
0.193454 0.596948 0.127428
0.214572 0.60174 0.131853
0.237186 0.606149 0.135866
0.261448 0.610147 0.139437
0.28748 0.613687 0.142535
0.315404 0.616754 0.145113
0.345174 0.619303 0.147189
0.376455 0.621485 0.148821
0.408835 0.623331 0.150103
0.441901 0.625025 0.15111
0.475166 0.626627 0.152026
0.508309 0.628244 0.152926
0.542153 0.629664 0.153597
0.576623 0.630884 0.154055
0.611353 0.631983 0.154421
0.646021 0.633066 0.154833
0.680201 0.634211 0.155428
0.713512 0.635569 0.156207
0.745495 0.637217 0.15729
0.775921 0.639216 0.158709
0.804791 0.641566 0.160494
0.83212 0.644251 0.1626
0.857908 0.647257 0.164996
0.882445 0.650523 0.16762
0.905989 0.653941 0.170397
0.928862 0.65745 0.173266
0.951171 0.660914 0.176089
0.0891127 0.600626 0.0991531
0.104845 0.606775 0.104463
0.120958 0.612848 0.109529
0.137835 0.618708 0.114412
0.156191 0.624079 0.119203
0.175174 0.629313 0.123873
0.195132 0.634272 0.128344
0.216251 0.638911 0.132555
0.238849 0.643168 0.1364
0.26305 0.646998 0.139849
0.289342 0.650416 0.143252
0.317983 0.653437 0.146609
0.349004 0.656092 0.149889
0.381292 0.658351 0.152392
0.414267 0.660227 0.154116
0.44741 0.66183 0.155138
0.480659 0.663371 0.156024
0.513771 0.664881 0.156878
0.547585 0.666163 0.157488
0.581979 0.667247 0.157885
0.616602 0.668193 0.158145
0.651118 0.669139 0.158465
0.6851 0.67013 0.158938
0.718166 0.671305 0.159579
0.749874 0.672786 0.160494
0.779995 0.674601 0.161761
0.80853 0.676738 0.163333
0.835523 0.67921 0.165255
0.86099 0.681987 0.167422
0.884031 0.684657 0.169238
0.904936 0.687129 0.170626
0.923796 0.689281 0.171511
0.943145 0.691722 0.172961
0.0882429 0.638682 0.100542
0.104692 0.644526 0.106233
0.121874 0.650187 0.111788
0.139956 0.655619 0.11722
0.159594 0.660624 0.122469
0.179187 0.66566 0.127459
0.199542 0.670542 0.132189
0.220951 0.67512 0.136553
0.243763 0.679301 0.140505
0.268147 0.68307 0.143999
0.294392 0.686427 0.147173
0.322942 0.689433 0.150301
0.353918 0.692149 0.153414
0.386618 0.694545 0.156252
0.419974 0.696498 0.158282
0.453391 0.69807 0.159609
0.48658 0.699458 0.160555
0.519631 0.700816 0.16144
0.553384 0.70193 0.162051
0.587671 0.702815 0.162432
0.622156 0.703578 0.162646
0.656443 0.704295 0.162814
0.690196 0.705074 0.163027
0.722988 0.706035 0.163409
0.75436 0.707271 0.164065
0.784115 0.708827 0.165026
0.812299 0.710719 0.166308
0.838895 0.712886 0.16788
0.863966 0.715358 0.169741
0.887755 0.718044 0.171832
0.910582 0.720867 0.174044
0.931914 0.72343 0.175921
0.951583 0.725597 0.177249
0.0966354 0.674083 0.107515
0.111727 0.680186 0.112505
0.12813 0.685969 0.117647
0.146044 0.691432 0.122972
0.165713 0.696452 0.128191
0.185367 0.701473 0.13312
0.205737 0.706294 0.137667
0.227207 0.710811 0.141863
0.25008 0.714916 0.145602
0.27451 0.718578 0.148867
0.300633 0.721752 0.151644
0.329 0.724605 0.154345
0.359731 0.727214 0.157137
0.392584 0.729702 0.160174
0.42623 0.731746 0.162554
0.459953 0.733333 0.164202
0.493111 0.734554 0.165255
0.52604 0.735698 0.166155
0.559686 0.736568 0.166735
0.59382 0.737224 0.167025
0.628092 0.737728 0.167041
0.662165 0.738186 0.16701
0.695628 0.738689 0.16701
0.728069 0.739376 0.167163
0.759075 0.740307 0.167575
0.788449 0.741558 0.168292
0.816205 0.743114 0.169284
0.842405 0.744976 0.170581
0.867048 0.747097 0.172152
0.89044 0.749447 0.173938
0.912886 0.751904 0.175845
0.934661 0.754421 0.177813
0.956069 0.756924 0.179782
0.107164 0.709773 0.116243
0.123293 0.715831 0.121859
0.139376 0.72163 0.126925
0.155749 0.727047 0.131502
0.173877 0.731914 0.135882
0.192966 0.73669 0.140352
0.213199 0.74136 0.144884
0.234653 0.745754 0.149172
0.257435 0.749706 0.150546
0.281865 0.753201 0.153704
0.307988 0.756191 0.156374
0.336126 0.75877 0.158816
0.366583 0.761181 0.161379
0.399161 0.763531 0.16437
0.433036 0.765652 0.167132
0.466957 0.767254 0.169146
0.500267 0.768414 0.17055
0.533059 0.769284 0.171481
0.566522 0.769879 0.172
0.600458 0.77023 0.172107
0.634485 0.770413 0.171893
0.668254 0.77055 0.171588
0.701381 0.770733 0.171328
0.73344 0.771069 0.171206
0.764035 0.771664 0.171344
0.792996 0.77258 0.171756
0.82034 0.7738 0.172488
0.846113 0.775326 0.173495
0.870359 0.777127 0.174792
0.89337 0.779141 0.176287
0.91545 0.781277 0.177905
0.936873 0.783459 0.179583
0.957946 0.785626 0.181247
0.116091 0.745312 0.124743
0.132753 0.751324 0.130617
0.149935 0.757168 0.136324
0.167483 0.762783 0.141726
0.185428 0.767956 0.146578
0.203845 0.772534 0.150668
0.223102 0.776608 0.154116
0.243687 0.780301 0.157259
0.266041 0.783764 0.160281
0.290196 0.786923 0.163104
0.316197 0.789685 0.16553
0.344076 0.791928 0.167468
0.374197 0.794003 0.169497
0.406424 0.796078 0.171832
0.44036 0.798215 0.174289
0.474403 0.799771 0.176043
0.50782 0.800839 0.177157
0.540459 0.801419 0.177646
0.573693 0.801663 0.177752
0.607355 0.801633 0.177493
0.641077 0.801465 0.176974
0.674525 0.801236 0.176379
0.707286 0.801053 0.175814
0.738979 0.801053 0.175402
0.769177 0.801328 0.175265
0.797742 0.801907 0.175433
0.824689 0.802792 0.175875
0.850065 0.803998 0.176623
0.873915 0.805478 0.177646
0.896559 0.807172 0.178851
0.918288 0.808988 0.180209
0.939376 0.810864 0.181598
0.960128 0.812696 0.182971
0.126101 0.780087 0.13431
0.142687 0.786007 0.140124
0.159808 0.79173 0.145754
0.177478 0.797238 0.151186
0.195789 0.802518 0.156374
0.214832 0.807477 0.161242
0.234668 0.811902 0.16553
0.255421 0.815641 0.169039
0.277348 0.81857 0.17171
0.30071 0.820859 0.173739
0.325887 0.822705 0.175357
0.353094 0.824216 0.176684
0.382589 0.825666 0.178027
0.414313 0.827298 0.17966
0.447883 0.829114 0.181552
0.481987 0.83064 0.183093
0.515404 0.831571 0.183902
0.548028 0.831922 0.183978
0.581003 0.831754 0.18349
0.614359 0.831357 0.182757
0.647776 0.830808 0.181842
