public/filters/konnect/Presets B Darker Skin Tone/Contrast v2_20.2021-06-15 11-45-45.cube
TITLE "Generated by Resolve"
LUT_3D_SIZE 9
0.0264439 0.0209659 0.0400244
0.0767071 0.0315557 0.0480507
0.145159 0.0375982 0.0536202
0.235721 0.0365911 0.0527962
0.337575 0.0241855 0.0436713
0.455863 0.0100404 0.032105
0.583307 0 0.0224002
0.693049 0 0.0186923
0.78265 0 0.0216526
0.0514229 0.088777 0.062089
0.0975814 0.0973831 0.069749
0.157519 0.104051 0.0726482
0.246403 0.115129 0.0689555
0.360784 0.113664 0.0646067
0.489174 0.092958 0.0596475
0.62179 0.0881361 0.0548409
0.736858 0.0907301 0.0568551
0.832624 0.101274 0.0661479
0.0615396 0.168856 0.0719921
0.115618 0.181262 0.0839246
0.181186 0.20087 0.0886549
0.273838 0.213916 0.0907301
0.393637 0.215824 0.0914321
0.531014 0.204059 0.0948501
0.669154 0.205203 0.0961166
0.788022 0.213916 0.103288
0.886915 0.22887 0.116564
0.0650034 0.277989 0.0756847
0.125887 0.299428 0.0912184
0.201144 0.319722 0.104494
0.301656 0.332235 0.114595
0.426947 0.339681 0.118364
0.563851 0.34229 0.122377
0.704402 0.344686 0.126223
0.821424 0.354376 0.133669
0.918791 0.36939 0.146532
0.0728771 0.415808 0.0833906
0.140841 0.438956 0.10518
0.221759 0.459083 0.123293
0.32668 0.472572 0.134127
0.451408 0.480644 0.135698
0.584787 0.485801 0.13753
0.725933 0.489815 0.143008
0.84184 0.500999 0.151537
0.938857 0.517067 0.165133
0.086305 0.563973 0.0962692
0.154696 0.586572 0.117739
0.237186 0.606149 0.135866
0.345174 0.619303 0.147189
0.475166 0.626627 0.152026
0.611353 0.631983 0.154421
0.745495 0.637217 0.15729
0.857908 0.647257 0.164996
0.951171 0.660914 0.176089
0.107164 0.709773 0.116243
0.173877 0.731914 0.135882
0.257435 0.749706 0.150546
0.366583 0.761181 0.161379
0.500267 0.768414 0.17055
0.634485 0.770413 0.171893
0.764035 0.771664 0.171344
0.870359 0.777127 0.174792
0.957946 0.785626 0.181247
0.140337 0.842603 0.151202
0.206806 0.859007 0.167834
0.289311 0.87277 0.181872
0.393133 0.878401 0.187289
0.530022 0.887495 0.19617
0.661433 0.884718 0.193042
0.785397 0.880629 0.188083
0.88571 0.881102 0.18732
0.968078 0.884688 0.189502
0.192859 0.965927 0.199084
0.256413 0.981262 0.214832
0.332906 0.989899 0.224094
0.426764 0.980896 0.217533
0.551431 0.979583 0.21532
0.684337 0.976699 0.21088
0.803708 0.968338 0.201846
0.89958 0.965377 0.198291
0.978836 0.966171 0.198291
0.0354467 0.0261845 0.0897078
0.0791943 0.0334173 0.0969711
0.139513 0.0373693 0.108141
0.226917 0.0353094 0.111971
0.340581 0.0265812 0.105165
0.458488 0.0132906 0.0870527
0.58616 0.00230411 0.0769818
0.696757 0 0.0738994
0.786465 0.00238041 0.0776989
0.0534981 0.0912947 0.110109
0.101717 0.102266 0.120836
0.159167 0.115999 0.133394
0.247623 0.118441 0.135607
0.364034 0.116091 0.133303
0.491066 0.103044 0.121721
0.625391 0.0939193 0.113558
0.741573 0.0970626 0.116609
0.838193 0.108125 0.127153
0.0650339 0.172457 0.126543
0.122011 0.184802 0.141588
0.186862 0.197772 0.15317
0.278035 0.206744 0.157382
0.397345 0.220981 0.162661
0.526238 0.224674 0.164385
0.674296 0.213138 0.158846
0.793866 0.221866 0.166659
0.893111 0.236759 0.180591
0.0708934 0.283619 0.13492
0.135271 0.302861 0.155093
0.211841 0.321187 0.172473
0.308309 0.339696 0.183352
0.42948 0.35053 0.187366
0.561471 0.355612 0.189029
0.708492 0.353246 0.190585
0.826642 0.36202 0.198474
0.924514 0.377157 0.211826
0.0806744 0.422965 0.146014
0.149645 0.445914 0.169665
0.230152 0.466789 0.188891
0.331884 0.481422 0.19939
0.456764 0.488151 0.202136
0.588129 0.49369 0.202701
0.726513 0.498222 0.207568
0.847501 0.508751 0.218311
0.944549 0.524712 0.232212
0.0940566 0.570886 0.16025
0.163012 0.593439 0.183169
0.24625 0.612909 0.20148
0.354665 0.625818 0.212467
0.483452 0.633265 0.219196
0.612879 0.637888 0.220829
0.743679 0.642481 0.222492
0.863081 0.653849 0.232074
0.956024 0.667231 0.243473
0.115267 0.716991 0.181994
0.185519 0.739986 0.205585
0.269413 0.758312 0.223392
0.376715 0.76762 0.231189
0.507042 0.773159 0.23621
0.640757 0.775402 0.237583
0.768536 0.776089 0.235004
0.874098 0.781415 0.240269
0.961151 0.789792 0.247959
0.155657 0.853162 0.222568
0.223896 0.873167 0.243809
0.301305 0.88336 0.257786
0.405295 0.88751 0.26041
0.530282 0.886992 0.253712
0.66566 0.887251 0.251072
0.787976 0.882689 0.243473
0.887785 0.883207 0.247364
0.96997 0.886976 0.255024
0.197482 0.970489 0.265141
0.25359 0.976532 0.279866
0.327504 0.980026 0.287068
0.42681 0.979599 0.281682
0.543954 0.972396 0.26508
0.685191 0.976608 0.269047
0.805951 0.969604 0.264454
0.900984 0.966537 0.260075
0.980117 0.967468 0.263172
0.0355077 0.0263981 0.159518
0.0818952 0.0333715 0.164385
0.13994 0.0366064 0.171496
0.224475 0.0327764 0.175494
0.343465 0.0243534 0.179706
0.4654 0.0161898 0.171527
0.589532 0.0043946 0.153155
0.70103 0.00108339 0.151537
0.790524 0.0056611 0.155978
0.0508431 0.0933547 0.178805
0.101915 0.101976 0.183139
0.160525 0.109758 0.19234
0.249088 0.115373 0.205982
0.368017 0.115129 0.210758
0.494453 0.111055 0.20827
0.629343 0.099443 0.194598
0.746624 0.102434 0.198169
0.843793 0.113848 0.21001
0.063798 0.176043 0.199039
0.124926 0.188571 0.211398
0.193545 0.205066 0.228016
0.278065 0.224399 0.246021
0.400626 0.228931 0.250034
0.532555 0.2336 0.254002
0.677501 0.219867 0.243015
0.798444 0.228351 0.251469
0.898039 0.243091 0.266148
0.0719768 0.289174 0.213413
0.140826 0.308202 0.234852
0.220676 0.325811 0.256764
0.317189 0.340917 0.270069
0.440543 0.350408 0.27245
0.56109 0.364843 0.279316
0.689342 0.369162 0.282673
0.830274 0.368231 0.285008
0.928603 0.383291 0.299184
0.0848859 0.429191 0.228977
0.155978 0.451789 0.254108
0.239155 0.471015 0.275975
0.343862 0.483864 0.288991
0.461463 0.493416 0.293584
0.585748 0.500023 0.295293
0.717357 0.504799 0.297673
0.849714 0.514549 0.306844
0.948211 0.53048 0.321538
0.0991226 0.576455 0.245457
0.168948 0.598978 0.27013
0.25359 0.617914 0.291035
0.361059 0.629984 0.304356
0.483818 0.636316 0.310567
0.614252 0.641276 0.312016
0.741848 0.644388 0.310124
0.865492 0.658671 0.324147
0.958495 0.671626 0.334142
0.120089 0.722698 0.269734
0.191669 0.745235 0.294713
0.276158 0.762951 0.314305
0.385672 0.772213 0.323949
0.513146 0.775601 0.327153
0.644053 0.776913 0.327993
0.763287 0.77467 0.325612
0.867018 0.778973 0.329076
0.96199 0.791562 0.338018
0.156649 0.857786 0.31136
0.228916 0.87718 0.333684
0.310018 0.890501 0.349065
0.415198 0.893629 0.352453
0.535241 0.888548 0.347982
0.665675 0.88603 0.345388
0.788281 0.882368 0.341299
0.886793 0.882292 0.340124
0.969329 0.886625 0.3449
0.193149 0.973068 0.353506
0.263966 0.987076 0.370779
0.340002 0.994614 0.379797
0.435966 0.987289 0.376974
0.552804 0.978256 0.367971
0.677943 0.970764 0.360739
0.804562 0.96791 0.355123
0.897978 0.964202 0.34902
0.979675 0.96701 0.356481
0.0334478 0.0245518 0.258259
0.0818647 0.0312047 0.260929
0.140993 0.0352178 0.268223
0.227008 0.0324407 0.276493
0.342977 0.022858 0.275471
0.468605 0.0146639 0.271458
0.594491 0.005066 0.258946
0.705272 0.00201419 0.256123
0.794842 0.00721752 0.261433
0.0463874 0.0933394 0.277119
0.101411 0.101518 0.281254
0.162829 0.108797 0.287114
0.250065 0.111849 0.295293
0.371618 0.109438 0.300862
0.501701 0.11043 0.309422
0.631327 0.107668 0.307988
0.750851 0.106111 0.305013
0.848402 0.117845 0.318273
0.0592203 0.178485 0.298314
0.123796 0.191409 0.308003
0.193469 0.20473 0.315908
0.282689 0.215671 0.328222
0.405554 0.224765 0.344808
0.538628 0.231907 0.355749
0.67303 0.234501 0.360021
0.801617 0.233906 0.36083
0.901686 0.247578 0.375708
0.0707256 0.293446 0.315648
0.142672 0.31281 0.335073
0.22475 0.330327 0.352667
0.323644 0.347982 0.369863
0.429358 0.365835 0.384634
0.55938 0.370626 0.388708
0.688426 0.374289 0.391882
0.823011 0.375448 0.395712
0.931151 0.387625 0.409567
0.0845502 0.434409 0.334951
0.159197 0.456565 0.359335
0.244648 0.474708 0.38117
0.352377 0.485969 0.398337
0.471153 0.495369 0.406088
0.600885 0.50222 0.405097
0.711208 0.508339 0.407507
0.822553 0.517143 0.416297
0.949889 0.534081 0.432654
0.097322 0.58117 0.353628
0.173205 0.603021 0.378531
0.259159 0.621561 0.400671
0.370153 0.633021 0.415824
0.496712 0.639902 0.424063
0.615625 0.643381 0.425208
0.734234 0.644984 0.423423
0.845045 0.652338 0.428351
0.956878 0.672053 0.443824
0.114885 0.726879 0.380514
0.195941 0.748928 0.405402
0.2813 0.766155 0.426215
0.391775 0.774746 0.437964
0.515557 0.775677 0.441291
0.637034 0.773373 0.440314
0.759441 0.772946 0.437522
0.860807 0.775082 0.437217
0.953857 0.786984 0.446403
0.14258 0.859174 0.422873
0.231022 0.879286 0.444877
0.313329 0.892012 0.461143
0.419837 0.895003 0.466712
0.542351 0.891051 0.463874
0.66772 0.884978 0.457862
0.786038 0.879576 0.451606
0.87657 0.875257 0.44802
0.957427 0.87866 0.451896
0.173709 0.973358 0.463157
0.262852 0.987076 0.4813
0.342321 0.99469 0.492622
0.443976 0.992111 0.491325
0.560662 0.982132 0.480613
0.679377 0.969497 0.469749
0.800137 0.963653 0.46453
0.895537 0.961501 0.461753
0.974151 0.961975 0.460883
0.0299229 0.0222782 0.371847
0.080354 0.0282292 0.372534
0.139864 0.032517 0.375677
0.223499 0.0305791 0.376638
0.337545 0.021622 0.373693
0.464378 0.011902 0.370474
0.593317 0.00410468 0.365682
0.703975 0.00227359 0.365713
0.796475 0.00822461 0.374502
0.0420844 0.0922713 0.389517
0.100237 0.100374 0.394125
0.163836 0.107454 0.39881
0.251698 0.111437 0.404578
0.369604 0.11133 0.409979
0.500114 0.10901 0.413306
0.634226 0.107759 0.416388
0.753475 0.109895 0.42063
0.852232 0.121096 0.434028
0.0584268 0.178912 0.409064
0.123033 0.193042 0.420203
0.194812 0.206134 0.429221
0.288502 0.216297 0.437491
0.410727 0.221775 0.447089
0.547646 0.225971 0.457511
0.680385 0.234363 0.46891
0.798703 0.24181 0.478569
0.904768 0.251301 0.491554
0.0684062 0.297353 0.428229
0.143069 0.317266 0.446403
0.224537 0.335424 0.461204
0.325536 0.349737 0.469169
0.443 0.35993 0.479454
0.571206 0.3682 0.49276
0.700618 0.373571 0.500038
0.818143 0.38088 0.509148
0.932235 0.391623 0.525032
0.0807355 0.439719 0.449088
0.160845 0.461097 0.471031
0.246479 0.479164 0.48954
0.356649 0.490211 0.500786
0.47451 0.499321 0.509606
0.577295 0.509392 0.517143
0.706905 0.512657 0.519951
0.819562 0.519463 0.526589
0.941741 0.535531 0.545235
0.0841535 0.587747 0.470619
0.175036 0.607233 0.491737
0.26273 0.625544 0.512657
0.376593 0.6365 0.52755
0.506142 0.642405 0.539651
0.629099 0.649104 0.545098
0.753384 0.652583 0.541253
0.835798 0.650217 0.537758
0.922942 0.660471 0.547967
0.0944381 0.729366 0.498421
0.197055 0.7523 0.519982
0.284947 0.769162 0.540322
0.397009 0.777111 0.55227
0.52459 0.778531 0.557824
0.651652 0.778241 0.559701
0.758602 0.773037 0.553491
0.850172 0.770123 0.547997
0.935622 0.776028 0.551904
0.110246 0.854017 0.539315
0.228672 0.880568 0.559045
0.31577 0.893248 0.575814
0.423392 0.895705 0.581811
0.546517 0.891188 0.58027
0.667475 0.882628 0.574121
0.776425 0.873671 0.566674
0.870863 0.871305 0.561502
0.947784 0.87068 0.558236
0.148745 0.967559 0.577783
0.253132 0.9841 0.59379
0.342473 0.993835 0.606516
0.446662 0.991485 0.607507
0.565927 0.98233 0.60029
0.687556 0.970947 0.589487
0.800977 0.961791 0.580423
0.892332 0.958144 0.575616
0.961273 0.952407 0.568734
0.0264286 0.0201572 0.486091
0.0778515 0.0257115 0.487007
0.138643 0.0296635 0.490227
0.223194 0.0281376 0.489754
0.336599 0.0201114 0.484901
0.46302 0.0110781 0.481468
0.590814 0.00335698 0.476249
0.702205 0.00291447 0.479774
0.794797 0.0113832 0.494728
0.0425879 0.089601 0.502708
0.098436 0.0986038 0.50956
0.163867 0.106142 0.515267
0.253681 0.109514 0.518654
0.371893 0.107836 0.519326
0.502419 0.105791 0.521584
0.637781 0.105074 0.525429
0.755032 0.110826 0.534478
0.853239 0.123644 0.550652
0.058854 0.178744 0.524559
0.122744 0.193896 0.537362
0.196109 0.207477 0.547906
0.293172 0.217517 0.555901
0.415702 0.224125 0.562936
0.54725 0.230732 0.572152
0.683894 0.234806 0.580545
0.804334 0.242451 0.592508
0.907286 0.25449 0.609674
0.0723735 0.29929 0.544396
0.144381 0.320272 0.563256
0.225376 0.339132 0.578851
0.328557 0.35288 0.588037
0.451347 0.3617 0.594125
0.582391 0.367575 0.603189
0.719219 0.371389 0.612787
0.82916 0.382116 0.623789
0.934722 0.395331 0.642771
0.0854047 0.442878 0.566003
0.162249 0.465064 0.587564
0.246723 0.483345 0.604303
0.3552 0.495384 0.612863
0.479545 0.504219 0.615106
0.603143 0.512856 0.623758
0.727077 0.517113 0.6327
0.83534 0.524163 0.641505
0.950072 0.539971 0.663447
0.0891737 0.590784 0.586206
0.176791 0.611231 0.608423
0.264408 0.62977 0.627665
0.378378 0.641093 0.639338
0.510658 0.646769 0.645075
0.629038 0.64979 0.648005
0.721752 0.65005 0.646464
0.831037 0.653315 0.649653
0.928862 0.665156 0.662013
0.0966354 0.732921 0.614267
0.198657 0.755581 0.637201
0.287053 0.772229 0.656077
0.400229 0.780026 0.666468
0.530465 0.780972 0.671107
0.660471 0.779553 0.675837
0.77319 0.780529 0.676539
0.865736 0.775143 0.662715
0.933165 0.774212 0.662043
0.122667 0.856107 0.653758
0.230137 0.882231 0.676097
0.316472 0.894133 0.691112
0.425345 0.896254 0.696315
0.549981 0.891218 0.694606
0.675563 0.883421 0.690272
0.790188 0.877989 0.687419
0.866636 0.868544 0.675547
0.930587 0.861509 0.666026
0.147173 0.96878 0.692912
0.251423 0.983795 0.709163
0.342107 0.992966 0.721538
0.44712 0.990127 0.721767
0.567803 0.980743 0.714992
0.690455 0.968978 0.705089
0.799771 0.957809 0.696376
0.882826 0.94992 0.689616
0.955749 0.948241 0.683879
0.0258946 0.0168154 0.591745
0.0753948 0.0233158 0.597513
0.137377 0.0272679 0.601267
0.223346 0.025864 0.600168
0.337163 0.0184329 0.593805
0.461646 0.0101167 0.587488
0.590127 0.00300603 0.58265
0.701915 0.00285344 0.58529
0.795895 0.0104219 0.596841
0.0419776 0.0887617 0.612619
0.0969863 0.0971847 0.620645
0.163867 0.105364 0.62771
0.255818 0.109133 0.631113
0.375326 0.107927 0.630625
0.505653 0.106554 0.631388
0.640345 0.106645 0.634424
0.757443 0.113298 0.643946
0.854917 0.127749 0.661326
0.060502 0.178897 0.635554
0.123262 0.194629 0.649485
0.197696 0.209125 0.661967
0.297246 0.219562 0.670771
0.42237 0.225147 0.675959
0.55639 0.229694 0.681971
0.693416 0.234226 0.689403
0.811887 0.243626 0.702037
0.91017 0.25803 0.719799
0.0781109 0.301518 0.655512
0.14641 0.323796 0.676097
0.227527 0.343023 0.692866
0.332082 0.356451 0.703014
0.458122 0.364324 0.708141
0.588113 0.370611 0.712993
0.717525 0.376638 0.718914
0.836179 0.385519 0.73225
0.9393 0.399725 0.752712
0.0929427 0.44622 0.676509
0.165057 0.468925 0.698238
0.248051 0.487541 0.714992
0.356023 0.500084 0.724208
0.483375 0.508125 0.727718
0.61297 0.515618 0.732189
0.743679 0.521691 0.740749
0.858259 0.530785 0.754208
0.955001 0.54522 0.772
0.106035 0.59292 0.695048
0.179538 0.615763 0.718013
0.2663 0.634653 0.73637
0.37882 0.646464 0.746426
0.509468 0.65272 0.749142
0.638224 0.658518 0.748562
0.757198 0.664439 0.75378
0.853956 0.665232 0.759045
0.954147 0.677989 0.775845
0.117418 0.737102 0.721569
0.202747 0.759747 0.745708
0.288533 0.775921 0.762768
0.401175 0.783673 0.77084
0.531701 0.784726 0.771801
0.664317 0.782696 0.769528
0.76936 0.777569 0.764431
0.834623 0.769299 0.755337
0.927062 0.777493 0.763729
0.140032 0.866072 0.762875
0.232593 0.884627 0.782849
0.317342 0.895979 0.79588
0.426139 0.897719 0.799023
0.552392 0.892729 0.795651
0.6813 0.884611 0.790082
0.797818 0.878447 0.788891
0.882612 0.878019 0.78793
0.957122 0.878157 0.782864
0.165896 0.962646 0.795026
0.260182 0.986831 0.816068
0.342123 0.993088 0.824689
0.446998 0.9897 0.822965
0.569223 0.98024 0.815305
0.694392 0.968322 0.805417
0.808469 0.959014 0.799176
0.896056 0.956069 0.797803
0.94464 0.940688 0.779355
0.0246891 0.0156252 0.684276
0.0746624 0.0222629 0.690333
0.137392 0.0263828 0.694087
0.224659 0.0251621 0.692714
0.33962 0.0181125 0.685786
0.464698 0.0104677 0.678767
0.593393 0.00416571 0.673579
0.704997 0.00494392 0.676097
0.797375 0.0155489 0.688869
0.0432441 0.0872511 0.704433
0.0972915 0.0975052 0.713848
0.165347 0.106264 0.721874
0.259037 0.110475 0.725582
0.380163 0.109773 0.724788
0.511193 0.109041 0.724697
0.645716 0.10988 0.726879
0.762707 0.117403 0.736461
0.860746 0.131472 0.753277
0.0645304 0.18056 0.727993
0.125338 0.197742 0.743343
0.201022 0.212497 0.757794
0.302373 0.223316 0.767376
0.429297 0.229007 0.772183
0.564157 0.233677 0.776928
0.700603 0.238453 0.782818
0.818067 0.248249 0.794629
0.915465 0.262776 0.811734
0.0829328 0.305943 0.74934
0.150362 0.32842 0.770642
0.231418 0.348013 0.788479
0.33698 0.361395 0.799512
0.464866 0.368612 0.804349
0.597971 0.373693 0.807965
0.731884 0.378973 0.813382
0.84773 0.389578 0.825711
0.94519 0.405264 0.844038
0.10013 0.451255 0.769146
0.1691 0.474067 0.791074
0.251331 0.492988 0.808423
0.359396 0.50576 0.818662
0.488548 0.513313 0.822919
0.621592 0.51986 0.826551
0.750378 0.526284 0.830976
0.860258 0.536355 0.841352
0.960586 0.551202 0.861418
0.114595 0.598352 0.786343
0.184848 0.621607 0.809415
0.269841 0.640864 0.827832
0.381003 0.65275 0.83772
0.511299 0.658732 0.840375
0.642893 0.663203 0.840436
0.766979 0.667933 0.84184
0.871717 0.675227 0.850355
0.960708 0.684779 0.862928
0.137819 0.74374 0.813428
0.207446 0.76524 0.835554
0.291737 0.781338 0.851865
0.402747 0.788891 0.858564
0.531807 0.78967 0.85742
0.662562 0.787808 0.852369
0.780484 0.78761 0.846769
0.872389 0.792157 0.850233
0.954803 0.796948 0.859098
0.16585 0.871458 0.852415
0.23827 0.888716 0.870695
0.319432 0.899458 0.882078
0.427131 0.900832 0.883528
0.552804 0.895521 0.877836
0.682139 0.887358 0.869108
0.800687 0.880476 0.861723
0.871168 0.869108 0.850462
0.913237 0.85832 0.838849
0.204746 0.977951 0.889479
0.266072 0.989212 0.9019
0.342565 0.994537 0.90811
0.447074 0.99086 0.904875
0.56965 0.981216 0.895552
0.696773 0.969345 0.884337
0.813016 0.959625 0.876356
0.902205 0.956512 0.876966
0.971283 0.958633 0.878798
0.0249638 0.0159152 0.757961
0.0753643 0.0227054 0.764294
0.138811 0.0270542 0.768261
0.227222 0.0260777 0.766903
0.343374 0.0194247 0.75993
0.469398 0.0123751 0.752895
0.598596 0.0068513 0.747814
0.710307 0.00854505 0.750607
0.803571 0.0178531 0.761608
0.0445106 0.088777 0.778759
0.099321 0.0995499 0.788968
0.168399 0.108827 0.797726
0.263554 0.113512 0.801877
0.386175 0.113359 0.801282
0.518425 0.113252 0.801236
0.653407 0.114794 0.803388
0.770214 0.122988 0.81297
0.867491 0.13785 0.829389
0.0678721 0.184222 0.80383
0.129534 0.201541 0.820462
0.206043 0.217563 0.835691
0.308721 0.228687 0.845838
0.437049 0.234485 0.85069
0.572931 0.2392 0.854932
0.709361 0.244099 0.860029
0.826017 0.254047 0.871122
0.922744 0.26865 0.887602
0.0883955 0.311986 0.826215
0.15581 0.334646 0.848066
0.237003 0.354437 0.866636
0.343221 0.367666 0.878126
0.47219 0.374334 0.882719
0.606714 0.37911 0.885786
0.741131 0.384573 0.890471
0.856306 0.395575 0.902037
0.953017 0.411536 0.919646
0.105684 0.457938 0.845502
0.174014 0.480568 0.867491
0.256275 0.499702 0.88542
0.364645 0.512535 0.896269
0.495003 0.519768 0.900923
0.629999 0.525689 0.904295
0.762341 0.531838 0.908751
0.87422 0.542489 0.919432
0.967803 0.556756 0.935164
0.120012 0.605386 0.861982
0.190097 0.628702 0.885084
0.274571 0.64802 0.903578
0.385046 0.6598 0.913558
0.515419 0.665324 0.916274
0.648493 0.668788 0.91632
0.775113 0.672236 0.916609
0.879454 0.679438 0.922621
0.966384 0.689082 0.933303
0.14313 0.750423 0.888075
0.212406 0.77171 0.909728
0.295857 0.787732 0.925536
0.405341 0.794903 0.931533
0.533211 0.795087 0.929549
0.663401 0.792676 0.923995
0.783902 0.790982 0.918379
0.879332 0.794064 0.918715
0.958831 0.799268 0.924758
0.176944 0.877287 0.925765
0.2421 0.893431 0.94258
0.321736 0.9037 0.953033
0.428275 0.904799 0.953521
0.552926 0.899168 0.946563
0.681025 0.890852 0.936263
0.798642 0.88397 0.926528
0.888487 0.883543 0.921904
0.959533 0.886931 0.924773
0.207279 0.981231 0.959899
0.267857 0.99205 0.971466
0.343725 0.997086 0.976837
0.447547 0.99324 0.972702
0.569635 0.983413 0.962142
0.696468 0.971481 0.94931
0.813092 0.9617 0.938781
0.904418 0.958419 0.935149
0.973816 0.960983 0.937438
