public/filters/konnect/Presets B Darker Skin Tone/Cool v2_24.2021-06-15 11-45-45.cube
TITLE "Generated by Resolve"
LUT_3D_SIZE 5
0.00419623 0.0123598 0.0373236
0.202945 0.00198367 0.00993362
0.415183 0.0234836 0.059968
0.615473 0.0242618 0.0657206
0.802243 0.0299229 0.0679637
0.0246738 0.222721 0.0608988
0.198535 0.248493 0.0264286
0.432059 0.264988 0.0475013
0.662409 0.2701 0.112428
0.867826 0.302205 0.128344
0.0392615 0.4916 0.0706951
0.243259 0.526345 0.0899519
0.483558 0.551476 0.0823377
0.726253 0.582742 0.177935
0.934691 0.619654 0.192782
0.11133 0.80148 0.150576
0.308949 0.836347 0.134035
0.562768 0.863798 0.163928
0.803265 0.89247 0.246021
1 0.921798 0.277256
0.215351 1 0.265553
0.405188 1 0.241474
0.639048 1 0.256931
0.875395 1 0.303014
1 1 0.319753
0.0255741 0.0213016 0.27396
0.195163 0.0164187 0.278767
0.41976 0.010193 0.287785
0.623224 0.0172122 0.277195
0.800641 0.0364385 0.29102
0.0250248 0.22417 0.27602
0.20705 0.246204 0.296422
0.438254 0.267491 0.313649
0.67158 0.27805 0.329992
0.876188 0.311666 0.363073
0.052369 0.499413 0.30277
0.25069 0.535134 0.334524
0.488411 0.560159 0.35436
0.72192 0.588998 0.387274
0.943984 0.631678 0.434028
0.132342 0.812024 0.382589
0.323232 0.848524 0.409552
0.566583 0.869795 0.426108
0.797818 0.888045 0.4477
1 0.928618 0.499443
0.219348 1 0.484474
0.410208 1 0.49865
0.622538 1 0.486122
0.873075 1 0.520363
1 1 0.567086
0.0150607 0.013489 0.502007
0.195117 0.0248417 0.504341
0.412879 0.0119631 0.508141
0.626932 0.0138857 0.510826
0.812726 0.0290227 0.52517
0.0216373 0.225254 0.506966
0.214771 0.244465 0.524666
0.447822 0.259861 0.542931
0.679667 0.285405 0.568154
0.887938 0.316808 0.59765
0.050309 0.50782 0.540215
0.262608 0.543175 0.574533
0.499031 0.569696 0.600137
0.719432 0.588251 0.616571
0.94464 0.633997 0.662852
0.0981918 0.819471 0.619791
0.343328 0.85919 0.655283
0.578027 0.878996 0.673106
0.793927 0.885496 0.678126
0.983993 0.909346 0.7075
0.147158 1 0.706706
0.432334 1 0.743145
0.646006 1 0.741253
0.871748 1 0.750637
1 1 0.763546
0.0197147 0.0151675 0.69601
0.195682 0.0256504 0.700786
0.408774 0.0227207 0.700786
0.621744 0.0240787 0.707912
0.811688 0.0396582 0.727275
0.0295872 0.228428 0.707424
0.221408 0.250828 0.727275
0.455451 0.270161 0.746487
0.689738 0.293843 0.77406
0.894438 0.329305 0.806439
0.0687114 0.517067 0.747127
0.275044 0.554009 0.782238
0.519417 0.582742 0.810559
0.756664 0.610407 0.840818
0.963806 0.649363 0.876326
0.122621 0.830945 0.825391
0.356695 0.870115 0.863081
0.595514 0.892485 0.887053
0.810727 0.903517 0.90016
0.982406 0.911971 0.909987
0.172686 1 0.909682
0.441444 1 0.945983
0.67013 1 0.960769
0.890929 1 0.975189
1 1 0.969955
0.0273594 0.0219883 0.845319
0.199481 0.0296025 0.85301
0.413367 0.0286564 0.853605
0.62594 0.0349126 0.860533
0.815213 0.0568399 0.881315
0.0429847 0.236194 0.860716
0.231998 0.261769 0.885267
0.467811 0.28307 0.906645
0.701167 0.30988 0.932754
0.905043 0.346471 0.966735
0.0895705 0.530709 0.907149
0.290501 0.568994 0.943679
0.534386 0.598215 0.9729
0.772076 0.629267 1
0.976806 0.666789 1
0.170397 0.847288 0.988342
0.371374 0.884016 1
0.609262 0.905592 1
0.836286 0.924926 1
1 0.949737 1
0.257847 1 1
0.45098 1 1
0.68127 1 1
0.904875 1 1
1 1 1
