public/filters/konnect/Presets B Darker Skin Tone/Cool v2_24.2021-06-15 11-45-45.cube
TITLE "Generated by Resolve"
LUT_3D_SIZE 33
0.00419623 0.0123598 0.0373236
0.0106355 0.00970474 0.0310826
0.0192264 0.00700389 0.0242618
0.0305943 0.00550851 0.019852
0.0766155 0.00387579 0.0155947
0.112367 0.00270085 0.0123445
0.142412 0.0019379 0.0100252
0.172427 0.00170901 0.00920119
0.202945 0.00198367 0.00993362
0.233722 0.00296025 0.0124971
0.263935 0.00459297 0.0164034
0.293172 0.00715648 0.0219577
0.321508 0.0110933 0.0296635
0.348196 0.0164492 0.0395819
0.372152 0.0210422 0.0487221
0.393942 0.0234226 0.0556344
0.415183 0.0234836 0.059968
0.43859 0.0230106 0.062623
0.463996 0.0228122 0.0642252
0.490501 0.0230716 0.0650645
0.516869 0.0229038 0.0648051
0.542596 0.0228733 0.0646372
0.56759 0.0231022 0.064744
0.591882 0.0235599 0.065095
0.615473 0.0242618 0.0657206
0.638468 0.0251926 0.0665751
0.661067 0.026276 0.0676127
0.683436 0.027512 0.0688182
0.705699 0.0288853 0.0701762
0.728344 0.030045 0.0711223
0.751842 0.0306859 0.0711986
0.776593 0.0306401 0.0701305
0.802243 0.0299229 0.0679637
0.0182193 0.0356603 0.0509346
0.0260014 0.0323033 0.0436561
0.0311437 0.0287022 0.0341955
0.0375982 0.0253452 0.0242161
0.0671702 0.0225376 0.0170901
0.107607 0.0199741 0.0126192
0.13756 0.0179294 0.010071
0.16669 0.0163882 0.00843824
0.196109 0.0162966 0.00805676
0.225696 0.0178073 0.00895705
0.255116 0.0207523 0.0110781
0.284001 0.0251316 0.0145571
0.312016 0.0310674 0.0197299
0.338903 0.0387121 0.0269932
0.364233 0.0445411 0.0362554
0.388968 0.047013 0.0453956
0.413764 0.0466621 0.053727
0.439445 0.0462806 0.0598764
0.465797 0.0464332 0.0637827
0.492302 0.0475319 0.0658274
0.518639 0.0481575 0.0665751
0.544549 0.0483406 0.0666514
0.569726 0.0487831 0.0670176
0.594217 0.0495003 0.067689
0.618021 0.0504616 0.0686351
0.64123 0.0516518 0.0698405
0.664057 0.0530251 0.0712596
0.686671 0.054551 0.0728161
0.709239 0.056199 0.0745098
0.731929 0.0579385 0.0763104
0.755199 0.0593118 0.0775921
0.779538 0.059968 0.0778821
0.804501 0.0598917 0.0771649
0.0198672 0.0662852 0.05449
0.0324254 0.0653391 0.0502632
0.0431373 0.0637827 0.0447852
0.0523537 0.0621042 0.0379644
0.0860456 0.0624247 0.0303655
0.112612 0.0649424 0.0225071
0.137438 0.0693065 0.0155947
0.164004 0.0730602 0.0108492
0.192218 0.0753643 0.00857557
0.221241 0.0765393 0.00822461
0.250477 0.0777905 0.00935378
0.279423 0.0795758 0.0117647
0.307744 0.0818799 0.0156405
0.335103 0.0845808 0.0213474
0.361212 0.0865949 0.0293889
0.386816 0.0858778 0.0386511
0.412818 0.0821546 0.0480659
0.439643 0.0773938 0.0564889
0.46688 0.0745403 0.0624247
0.493919 0.0737926 0.0658427
0.520424 0.0743267 0.067277
0.546593 0.0747692 0.0676127
0.572198 0.0753948 0.0678416
0.597177 0.0762951 0.0682689
0.621561 0.0774548 0.0688945
0.645441 0.0788739 0.0697185
0.66894 0.0805524 0.0708324
0.692241 0.0824292 0.0722057
0.71548 0.0844739 0.0737774
0.738811 0.0866407 0.0755169
0.762356 0.0889143 0.0774548
0.78648 0.0911574 0.0792096
0.810834 0.0934005 0.0804913
0.0196536 0.0931411 0.0545815
0.0345464 0.0940414 0.0529946
0.0485084 0.094316 0.0499733
0.0617533 0.0941176 0.0456855
0.0933242 0.0935988 0.0403143
0.118288 0.0928206 0.0343481
0.141588 0.0926375 0.0281071
0.165896 0.0940871 0.0218509
0.191913 0.0979171 0.0163119
0.219715 0.103182 0.0127413
0.248615 0.108095 0.0113222
0.277714 0.111574 0.0120699
0.30631 0.113863 0.0148775
0.334051 0.115755 0.0196841
0.360723 0.117571 0.0265354
0.386801 0.117021 0.035462
0.413275 0.113558 0.0449989
0.440604 0.107439 0.0545968
0.468315 0.103136 0.0619211
0.495827 0.101228 0.0666361
0.522606 0.101778 0.068986
0.548974 0.102632 0.0701762
0.574884 0.103655 0.0708324
0.600168 0.104982 0.0717174
0.624842 0.1066 0.0728161
0.649042 0.108476 0.0740673
0.672877 0.110597 0.0755322
0.696498 0.112917 0.0772717
0.720058 0.115404 0.0792096
0.743725 0.118013 0.0813153
0.767666 0.120699 0.0835431
0.792004 0.123445 0.0859541
0.81622 0.12636 0.0885176
0.0218662 0.119112 0.05832
0.0387274 0.12018 0.0579995
0.0553902 0.120882 0.0565042
0.0715496 0.12134 0.0538491
0.0996262 0.121767 0.0502327
0.123095 0.121981 0.045304
0.145541 0.121889 0.0393988
0.16907 0.121523 0.033341
0.194141 0.121309 0.0277562
0.220844 0.122301 0.0234531
0.248859 0.125383 0.020325
0.277592 0.130419 0.0185855
0.306355 0.136278 0.0187839
0.334524 0.141619 0.0213626
0.361685 0.145708 0.0264439
0.38819 0.146975 0.0344701
0.415091 0.144457 0.0439612
0.442893 0.138582 0.0542153
0.471305 0.132982 0.0631418
0.499489 0.130068 0.0694133
0.526864 0.130007 0.0731212
0.553506 0.131258 0.075227
0.579721 0.132708 0.0764782
0.605325 0.134447 0.0778668
0.63032 0.136507 0.079469
0.65481 0.138827 0.0812238
0.678981 0.141375 0.0830549
0.702968 0.144121 0.085069
0.726925 0.147036 0.0872969
0.750973 0.150057 0.0896925
0.77528 0.15317 0.092195
0.800061 0.156298 0.0948196
0.824598 0.159655 0.0979171
0.0231479 0.144198 0.0601968
0.0412909 0.145418 0.0608988
0.0599832 0.146395 0.0607919
0.0786145 0.147234 0.0598154
0.104616 0.148211 0.0580758
0.127413 0.149142 0.0552071
0.149477 0.149844 0.050721
0.172488 0.150256 0.0450446
0.196963 0.150332 0.0388952
0.223148 0.150271 0.0338293
0.250813 0.150301 0.030396
0.279423 0.151141 0.0285191
0.30837 0.153567 0.0280766
0.336965 0.158022 0.0292668
0.364691 0.163897 0.0323796
0.391608 0.169299 0.0381323
0.418738 0.170947 0.0460365
0.446693 0.168383 0.0555276
0.475624 0.163226 0.0654307
0.504417 0.160067 0.0731212
0.532448 0.159487 0.0783551
0.55938 0.161135 0.081529
0.585885 0.163012 0.0836042
0.611826 0.165179 0.0855726
0.63714 0.167666 0.0877546
0.661936 0.170428 0.0901045
0.686397 0.173434 0.0925307
0.710735 0.176623 0.0949721
0.735042 0.17995 0.0974594
0.759472 0.183383 0.100084
0.784161 0.186877 0.1028
0.809308 0.190372 0.105592
0.834241 0.194049 0.108675
0.0240177 0.169512 0.0611429
0.0426337 0.170886 0.0622568
0.0330358 0.18088 0.0379339
0.0453956 0.185061 0.0319677
0.0611582 0.189334 0.0257572
0.109346 0.19173 0.02121
0.137209 0.192386 0.0179446
0.164401 0.192996 0.0152743
0.192157 0.19353 0.0131685
0.220844 0.194003 0.0122988
0.250294 0.194476 0.0127871
0.280049 0.195056 0.014786
0.309697 0.195773 0.0179904
0.338872 0.196948 0.0227207
0.367193 0.198962 0.0292973
0.394736 0.201266 0.0380865
0.422568 0.201434 0.0480812
0.451209 0.198611 0.0590982
0.480797 0.19379 0.0702678
0.510185 0.190906 0.079118
0.538735 0.190616 0.0852369
0.566125 0.192523 0.0890211
0.593042 0.194797 0.0915389
0.619333 0.197391 0.0941176
0.644999 0.200305 0.0969253
0.670115 0.20351 0.0998856
0.694881 0.206928 0.102937
0.719463 0.210529 0.105974
0.74403 0.214252 0.108904
0.76875 0.218036 0.111757
0.793744 0.221851 0.11458
0.819409 0.225559 0.116625
0.845289 0.229236 0.117403
0.0224918 0.195727 0.0580911
0.0374609 0.197436 0.0560464
0.0514382 0.198962 0.0528267
0.0637064 0.201831 0.0476081
0.0902113 0.206714 0.0400854
0.117113 0.213336 0.0315099
0.141115 0.219089 0.0246433
0.166766 0.222766 0.0199435
0.194018 0.224353 0.0169528
0.222446 0.225193 0.0151064
0.251865 0.225925 0.0146639
0.281819 0.226612 0.0157473
0.311849 0.22739 0.018265
0.341573 0.228321 0.0223392
0.370657 0.22948 0.028397
0.399084 0.230991 0.03682
0.427634 0.231128 0.0478065
0.456748 0.229496 0.0595407
0.486793 0.22591 0.071809
0.516686 0.223636 0.0822919
0.545785 0.223453 0.0903487
0.573617 0.225528 0.0959182
0.600793 0.22826 0.0999008
0.627451 0.23125 0.102983
0.653437 0.234531 0.106325
0.678843 0.238102 0.10985
0.703868 0.241886 0.113466
0.728664 0.245823 0.117052
0.753429 0.249866 0.120531
0.778317 0.253956 0.123812
0.803479 0.25803 0.126894
0.829114 0.262058 0.129809
0.85478 0.266102 0.131914
0.0246738 0.222721 0.0608988
0.0414893 0.22475 0.06009
0.0576791 0.226627 0.0581979
0.073228 0.228473 0.055314
0.102251 0.230579 0.051545
0.126925 0.233021 0.0464637
0.149889 0.236698 0.0402686
0.17351 0.242039 0.0332952
0.198535 0.248493 0.0264286
0.225422 0.253971 0.0211948
0.254108 0.257404 0.018555
0.28397 0.259037 0.0183261
0.314244 0.260075 0.0201114
0.344381 0.261173 0.023621
0.373983 0.262486 0.0290684
0.403037 0.264027 0.0368658
0.432059 0.264988 0.0475013
0.461631 0.26421 0.0598154
0.492058 0.261707 0.0728923
0.522835 0.259068 0.0853285
0.552773 0.258564 0.0952316
0.581399 0.260243 0.102296
0.608927 0.263294 0.10692
0.63595 0.266575 0.109926
0.662409 0.2701 0.112428
0.688334 0.273869 0.114794
0.713924 0.277775 0.116869
0.739361 0.281788 0.118654
0.764721 0.285878 0.120516
0.790173 0.289982 0.122408
0.815854 0.294072 0.124269
0.841962 0.298085 0.126131
0.867826 0.302205 0.128344
0.021561 0.251789 0.0551156
0.038407 0.254032 0.0560006
0.0558785 0.256138 0.0561532
0.0738842 0.258259 0.0556039
0.104936 0.26067 0.0545052
0.130678 0.263172 0.0525826
0.154604 0.26569 0.049546
0.179171 0.268101 0.0455634
0.204837 0.270909 0.0407568
0.231617 0.274769 0.0354162
0.259464 0.280064 0.0301976
0.288273 0.285817 0.0266575
0.317784 0.290761 0.0254826
0.347707 0.294194 0.0271305
0.377523 0.296513 0.0316472
0.407034 0.298466 0.0389258
0.436408 0.300282 0.0487373
0.466255 0.300572 0.0611429
0.496941 0.299184 0.0745556
0.528588 0.296391 0.0885023
0.559472 0.29543 0.100237
0.588952 0.29662 0.109087
0.616815 0.299825 0.1149
0.644022 0.303395 0.118883
0.670649 0.307164 0.121767
0.696712 0.311147 0.124514
0.722408 0.315282 0.127001
0.747906 0.319478 0.129107
0.773342 0.323735 0.131075
0.798825 0.327993 0.13312
0.824521 0.332219 0.13518
0.850614 0.336339 0.137179
0.876493 0.340536 0.13933
0.0228428 0.281743 0.0561227
0.0408331 0.284321 0.0579385
0.0600748 0.286748 0.0594186
0.0802014 0.289189 0.0604105
0.110033 0.291966 0.0610361
0.135348 0.294865 0.0609293
0.159365 0.29778 0.0598917
0.183932 0.300603 0.0573739
0.209613 0.303258 0.0534218
0.236698 0.305669 0.0488594
0.265141 0.30808 0.0443122
0.29456 0.311055 0.0408179
0.324361 0.31519 0.0384375
0.35404 0.320409 0.0375677
0.383337 0.325917 0.0391394
0.412375 0.330877 0.0438697
0.441505 0.334874 0.0518044
0.471183 0.336996 0.0633555
0.5019 0.336934 0.0767071
0.533852 0.335073 0.0912184
0.565652 0.333806 0.10457
0.595956 0.334661 0.115129
0.624445 0.33753 0.122484
0.651774 0.341329 0.127489
0.678508 0.345281 0.130907
0.704646 0.349432 0.134081
0.730358 0.353704 0.136995
0.755856 0.358053 0.139544
0.781292 0.362402 0.141588
0.80679 0.36672 0.143481
0.832471 0.370977 0.145388
0.858534 0.375113 0.14725
0.884352 0.379294 0.149248
0.0243076 0.313252 0.0571145
0.0428779 0.316228 0.0593576
0.0631266 0.31902 0.061677
0.0847791 0.321798 0.0638895
0.114336 0.32491 0.066041
0.139712 0.328161 0.0677501
0.164019 0.331441 0.0687114
0.188907 0.334646 0.068513
0.214755 0.337697 0.066392
0.241825 0.340551 0.0626688
0.270237 0.343145 0.0579995
0.29984 0.345495 0.054078
0.330236 0.347784 0.051667
0.360876 0.350484 0.0509041
0.391165 0.354086 0.0519112
0.42089 0.358801 0.0551308
0.450126 0.364187 0.0608225
0.479088 0.369207 0.0697795
0.508873 0.372137 0.081239
0.539986 0.372854 0.0945296
0.572015 0.372412 0.108537
0.602823 0.373419 0.120302
0.631891 0.376074 0.129213
0.659281 0.380026 0.135317
0.686046 0.384115 0.139574
0.712184 0.388357 0.143252
0.737865 0.392721 0.146685
0.763272 0.397131 0.149767
0.788571 0.401541 0.152377
0.813977 0.405875 0.154406
0.839643 0.410178 0.156161
0.865766 0.41442 0.157855
0.891707 0.418753 0.159792
0.0267643 0.346151 0.0593423
0.0457771 0.349584 0.061738
0.0662089 0.352834 0.0641184
0.0882124 0.356039 0.0666667
0.102617 0.364248 0.0492866
0.132708 0.369039 0.0476844
0.158389 0.373816 0.0451362
0.184695 0.377707 0.0428626
0.2121 0.380728 0.0406043
0.240604 0.383459 0.0384985
0.270191 0.385901 0.0366827
0.300801 0.388128 0.0363317
0.332021 0.390249 0.0378729
0.36347 0.392401 0.0415961
0.39469 0.394705 0.046952
0.425666 0.397345 0.0543679
0.456397 0.400458 0.0640726
0.486686 0.404028 0.0762341
0.517067 0.407004 0.0890669
0.548012 0.408972 0.102403
0.579522 0.410163 0.115953
0.61004 0.412146 0.127565
0.639094 0.415183 0.136614
0.666621 0.41912 0.142962
0.693385 0.423239 0.147402
0.719478 0.427512 0.151507
0.745098 0.431922 0.155444
0.770474 0.436439 0.159152
0.795789 0.441016 0.162493
0.821225 0.445594 0.165347
0.846937 0.450111 0.167605
0.873152 0.454505 0.169406
0.899199 0.458976 0.171115
0.0301213 0.380468 0.0625315
0.0485237 0.384512 0.0641184
0.0669413 0.388418 0.0648356
0.0854353 0.392294 0.0647746
0.116533 0.396414 0.0641337
0.142702 0.401007 0.0621958
0.167041 0.406119 0.0586557
0.191989 0.411521 0.0542153
0.218418 0.416266 0.0502174
0.246372 0.42005 0.046891
0.275746 0.422919 0.0443122
0.306157 0.425376 0.0426642
0.337301 0.42768 0.0428931
0.36875 0.429999 0.0452583
0.400122 0.432441 0.0496376
0.431388 0.435019 0.0560922
0.462699 0.437736 0.0650339
0.493828 0.440696 0.0767834
0.524895 0.443519 0.0908827
0.555947 0.446052 0.104891
0.587106 0.448249 0.11873
0.617365 0.450919 0.131044
0.646357 0.454246 0.141207
0.673976 0.458228 0.149004
0.700771 0.462501 0.154833
0.72697 0.466941 0.15935
0.752728 0.471534 0.163867
0.77821 0.476265 0.168231
0.803586 0.481041 0.172305
0.829053 0.485817 0.175952
0.854765 0.490517 0.179034
0.880964 0.495094 0.18143
0.907012 0.499702 0.183429
0.035584 0.415885 0.0683909
0.0553445 0.420218 0.0708934
0.0752422 0.424414 0.0725719
0.0952468 0.42855 0.0735027
0.124834 0.432944 0.0738842
0.150759 0.437339 0.0734569
0.175555 0.441642 0.0719921
0.200916 0.445808 0.0691234
0.227344 0.449973 0.0654154
0.254856 0.454276 0.0611124
0.283406 0.458518 0.0565042
0.313024 0.462226 0.0525673
0.343603 0.465263 0.0506905
0.374823 0.467842 0.0513619
0.406165 0.470375 0.0546426
0.437507 0.473014 0.0601816
0.468971 0.475761 0.0681315
0.500313 0.478676 0.0788891
0.531518 0.481682 0.092546
0.562707 0.484459 0.107088
0.593896 0.487129 0.121462
0.624552 0.490028 0.13489
0.653941 0.493568 0.146212
0.682002 0.497658 0.154742
0.708995 0.502068 0.160525
0.735424 0.506569 0.163989
0.761456 0.511131 0.166415
0.787274 0.51574 0.168093
0.813062 0.520317 0.168841
0.839002 0.524804 0.168734
0.865187 0.529213 0.168582
0.891829 0.533486 0.168292
0.918303 0.537789 0.168017
0.0327306 0.454154 0.0634165
0.0501717 0.458656 0.0656748
0.0691691 0.462882 0.0679637
0.0901503 0.466987 0.070222
0.126314 0.47129 0.0723125
0.154894 0.475624 0.0740673
0.181125 0.479881 0.0753643
0.207584 0.48394 0.0759442
0.234806 0.487724 0.0753643
0.262959 0.491188 0.0734874
0.292088 0.494469 0.0705882
0.32192 0.497734 0.0671702
0.352132 0.501152 0.0639963
0.382589 0.504585 0.0624552
0.413153 0.507866 0.0631723
0.444022 0.510903 0.066743
0.475364 0.513817 0.0734722
0.506828 0.516838 0.08336
0.53814 0.520104 0.0960708
0.569482 0.523354 0.11078
0.600778 0.526513 0.125444
0.631922 0.529702 0.139773
0.661845 0.533425 0.15227
0.690379 0.537652 0.162203
0.717556 0.542229 0.169131
0.74403 0.546883 0.173663
0.770092 0.551568 0.176486
0.795911 0.556283 0.178683
0.821653 0.560967 0.180072
0.847517 0.565545 0.180453
0.87364 0.570016 0.180423
0.900175 0.57435 0.180407
0.926528 0.578714 0.180514
0.0392615 0.4916 0.0706951
0.0573739 0.49633 0.0731365
0.0770123 0.500771 0.0756237
0.0989548 0.505028 0.0784619
0.134737 0.509483 0.0815747
0.163149 0.513924 0.0844739
0.189425 0.518303 0.0870069
0.215946 0.522469 0.0888838
0.243259 0.526345 0.0899519
0.271412 0.5299 0.0894179
0.30045 0.533104 0.0869764
0.330297 0.536004 0.0835431
0.360708 0.53872 0.0799268
0.391455 0.541527 0.0776379
0.422095 0.54464 0.0769665
0.45272 0.547997 0.078233
0.483558 0.551476 0.0823377
0.514565 0.555062 0.0900282
0.545602 0.558755 0.101122
0.576791 0.562478 0.115373
0.608087 0.566079 0.130159
0.639353 0.569726 0.144915
0.669779 0.573678 0.158358
0.698756 0.578058 0.169574
0.726253 0.582742 0.177935
0.752758 0.587549 0.183688
0.77882 0.592325 0.187228
0.804593 0.597131 0.190021
0.830259 0.601892 0.192081
0.856001 0.606546 0.19321
0.882017 0.611032 0.193256
0.908461 0.615335 0.192935
0.934691 0.619654 0.192782
0.0463722 0.529763 0.0784924
0.0650034 0.534661 0.0810407
0.0848402 0.539254 0.0833906
0.106996 0.543648 0.0862135
0.142611 0.548165 0.0897841
0.171069 0.552682 0.0935836
0.197513 0.557092 0.0972763
0.224186 0.561303 0.100542
0.251606 0.565209 0.103166
0.279896 0.568811 0.104753
0.309026 0.572122 0.104036
0.338857 0.575174 0.101396
0.369192 0.578042 0.0975509
0.399969 0.58085 0.0943465
0.430869 0.583719 0.0927138
0.462028 0.586725 0.0929122
0.49337 0.589899 0.0953231
0.52462 0.593408 0.100908
0.55555 0.597253 0.109758
0.586175 0.601358 0.122148
0.616846 0.605493 0.136004
0.647593 0.609628 0.150286
0.678111 0.613931 0.164294
0.707347 0.618524 0.176394
0.735134 0.623331 0.18613
0.761669 0.62826 0.193271
0.787686 0.633143 0.197986
0.813382 0.637995 0.201633
0.838941 0.642817 0.204578
0.86453 0.647532 0.206668
0.890349 0.652079 0.207752
0.916609 0.656382 0.207675
0.942672 0.660609 0.207141
0.0549325 0.568231 0.0878309
0.0740215 0.573236 0.0903334
0.0941939 0.577905 0.092607
0.11606 0.582376 0.0949569
0.150423 0.586969 0.097734
0.178454 0.591516 0.100862
0.198611 0.596231 0.0848707
0.225818 0.600305 0.0857099
0.253605 0.60412 0.0856184
0.282429 0.607645 0.0854353
0.312215 0.61088 0.0847944
0.342809 0.613886 0.0839857
0.373953 0.61677 0.0832074
0.405539 0.619669 0.0839704
0.437263 0.622721 0.0868238
0.469276 0.62594 0.0920119
0.501564 0.629267 0.0987411
0.533867 0.632807 0.107668
0.565866 0.636667 0.119265
0.597177 0.640879 0.133394
0.627787 0.645212 0.147448
0.657847 0.649668 0.161013
0.687617 0.654276 0.174151
0.716472 0.659037 0.185809
0.744198 0.663905 0.195483
0.770764 0.668833 0.202823
0.796735 0.673686 0.207935
0.822339 0.678569 0.212345
0.847776 0.683406 0.216175
0.873198 0.688136 0.219226
0.898787 0.692699 0.221363
0.924804 0.697017 0.2224
0.950607 0.701213 0.222385
0.0647898 0.60676 0.098497
0.0841688 0.61178 0.100771
0.103899 0.616495 0.102266
0.124178 0.621088 0.103029
0.157107 0.625849 0.103548
0.18439 0.630564 0.103639
0.210132 0.635142 0.103349
0.236347 0.639475 0.102449
0.263493 0.643473 0.100725
0.291829 0.647135 0.0989395
0.321416 0.650492 0.0975967
0.351873 0.653605 0.0961776
0.38291 0.656565 0.0948196
0.414267 0.659495 0.0941634
0.445823 0.662547 0.0955367
0.477699 0.665751 0.0991379
0.509957 0.669062 0.104768
0.542367 0.672557 0.11249
0.574716 0.676341 0.122957
0.606714 0.680461 0.136461
0.638041 0.684901 0.151827
0.668315 0.689464 0.166278
0.697658 0.694179 0.17969
0.72607 0.699016 0.191806
0.753521 0.703944 0.202319
0.780072 0.708888 0.21091
0.805966 0.713771 0.21735
0.831464 0.718578 0.222141
0.856733 0.723354 0.226581
0.881987 0.728038 0.230411
0.907362 0.73257 0.233463
0.93312 0.736843 0.235538
0.958618 0.741024 0.236652
0.0755932 0.645182 0.11014
0.0957198 0.650324 0.112673
0.116426 0.655207 0.114702
0.137606 0.659953 0.116075
0.168734 0.664897 0.117159
0.195392 0.669764 0.11783
0.220966 0.67451 0.11809
0.247135 0.678981 0.117845
0.274296 0.683131 0.11696
0.30248 0.686915 0.115114
0.331853 0.690364 0.113191
0.362127 0.693553 0.111208
0.392966 0.696559 0.109133
0.424094 0.699474 0.107332
0.455375 0.702495 0.107088
0.487037 0.705608 0.108995
0.519173 0.708858 0.11339
0.551507 0.712276 0.120043
0.583841 0.715984 0.129351
0.615915 0.720027 0.14168
0.647425 0.724422 0.156741
0.677958 0.72903 0.171847
0.707393 0.733745 0.18587
0.735759 0.738552 0.19855
0.763119 0.743404 0.209476
0.789548 0.748211 0.217685
0.815335 0.75285 0.222858
0.840711 0.757275 0.22504
0.865904 0.761501 0.225483
0.891096 0.765515 0.22443
0.916503 0.769223 0.221637
0.942351 0.772564 0.217334
0.967834 0.775814 0.21297
0.0687266 0.685267 0.103044
0.0842756 0.69073 0.103166
0.100542 0.695949 0.10277
0.119356 0.700755 0.102388
0.160174 0.705318 0.102739
0.193759 0.709819 0.104036
0.221927 0.714244 0.105821
0.249882 0.718456 0.107958
0.278447 0.722423 0.110399
0.307851 0.726116 0.113024
0.338399 0.729564 0.11577
0.369879 0.732845 0.117968
0.402136 0.736049 0.119768
0.434256 0.739193 0.120592
0.465934 0.742321 0.121141
0.497459 0.745388 0.122423
0.529351 0.748516 0.125307
0.561486 0.751797 0.130449
0.593698 0.755352 0.138552
0.625711 0.759258 0.149859
0.657221 0.763516 0.163897
0.687816 0.768048 0.179202
0.717266 0.772671 0.193423
0.745632 0.777386 0.206378
0.772931 0.782132 0.217823
0.799283 0.786847 0.226932
0.824918 0.791394 0.233066
0.850095 0.795712 0.23621
0.875029 0.799802 0.237034
0.898772 0.803326 0.235554
0.921248 0.806195 0.231601
0.942535 0.808286 0.224933
0.964584 0.810636 0.218891
0.0744945 0.726085 0.113619
0.0915694 0.731121 0.114214
0.109483 0.735851 0.114473
0.129839 0.740078 0.114321
0.168429 0.744152 0.114656
0.20441 0.748486 0.116457
0.233005 0.75285 0.119142
0.261219 0.757076 0.122164
0.289937 0.761074 0.125429
0.319402 0.764828 0.128847
0.34992 0.768368 0.132647
0.381399 0.771817 0.136034
0.413489 0.77525 0.13814
0.445777 0.778637 0.139147
0.477455 0.781872 0.138979
0.508904 0.784924 0.139147
0.540459 0.787869 0.140368
0.572244 0.790921 0.143481
0.60415 0.794202 0.149477
0.635981 0.797864 0.159136
0.667369 0.801892 0.171923
0.697948 0.806271 0.18703
0.727382 0.810758 0.20145
0.755703 0.81529 0.214618
0.78291 0.819867 0.226307
0.809155 0.824445 0.236271
0.834653 0.828901 0.243626
0.859648 0.833158 0.248081
0.884352 0.83714 0.24976
0.909026 0.84094 0.25008
0.933852 0.844495 0.249027
0.958114 0.847395 0.245701
0.980652 0.849622 0.239765
0.0908064 0.763485 0.130205
0.106386 0.768994 0.129763
0.123598 0.773938 0.129351
0.143954 0.778241 0.128893
0.181674 0.782361 0.128649
0.216541 0.786709 0.129946
0.24506 0.791104 0.132799
0.27335 0.795361 0.136461
0.302174 0.79939 0.140581
0.331746 0.803174 0.145022
0.362203 0.806699 0.149706
0.393683 0.810224 0.154818
0.425696 0.813779 0.158297
0.458122 0.817472 0.160418
0.489906 0.82092 0.160418
0.521294 0.824048 0.159762
0.552499 0.82681 0.159258
0.583825 0.829572 0.160159
0.615228 0.832486 0.163272
0.646647 0.835752 0.170184
0.677729 0.839414 0.180758
0.708171 0.843519 0.194705
0.73756 0.847776 0.208957
0.765805 0.852125 0.222278
0.79295 0.856535 0.234302
0.819104 0.86096 0.244709
0.844495 0.865293 0.253223
0.869322 0.86949 0.259281
0.893843 0.873426 0.262455
0.918257 0.87715 0.263996
0.942809 0.880659 0.264256
0.967712 0.883864 0.26305
0.99237 0.8869 0.260441
0.11133 0.80148 0.150576
0.128328 0.806851 0.150546
0.145312 0.811841 0.149615
0.163638 0.816358 0.148013
0.198825 0.820523 0.146395
0.230121 0.824735 0.145846
0.257496 0.828992 0.146548
0.285069 0.833143 0.148165
0.308949 0.836347 0.134035
0.338674 0.839872 0.136843
0.369085 0.843122 0.139437
0.400458 0.846296 0.142916
0.432715 0.849699 0.147097
0.465553 0.853407 0.151476
0.498314 0.857221 0.155474
0.530663 0.8607 0.159487
0.562768 0.863798 0.163928
0.594629 0.866712 0.169329
0.626307 0.869703 0.175677
0.65774 0.872892 0.184009
0.688762 0.876402 0.195056
0.719066 0.880262 0.20882
0.748257 0.88426 0.222339
0.776318 0.888334 0.234821
0.803265 0.89247 0.246021
0.829236 0.89662 0.255741
0.854429 0.90071 0.263722
0.879088 0.904692 0.269825
0.90341 0.908492 0.273655
0.927626 0.912139 0.276371
0.951949 0.915587 0.277974
0.976577 0.918746 0.278248
1 0.921798 0.277256
0.129427 0.84007 0.170504
0.148119 0.845396 0.171283
0.166873 0.85037 0.170962
0.186404 0.85507 0.169909
0.220127 0.859663 0.168063
0.246815 0.863767 0.165087
0.271763 0.867445 0.162097
0.297459 0.870848 0.159731
0.324544 0.874144 0.158495
0.352987 0.877348 0.158221
0.382559 0.880354 0.158495
0.413123 0.883207 0.159716
0.44477 0.886336 0.162615
0.477104 0.889845 0.166033
0.509819 0.893797 0.169863
0.542107 0.897353 0.173083
0.574182 0.900435 0.176608
0.605737 0.90309 0.180652
0.637171 0.905821 0.185962
0.668315 0.90869 0.192813
0.699077 0.911864 0.202197
0.729168 0.915389 0.21442
0.758358 0.919188 0.228214
0.786389 0.923064 0.241047
0.813291 0.927016 0.252735
0.83917 0.930983 0.263066
0.864286 0.93492 0.271794
0.888808 0.938766 0.278737
0.912963 0.942443 0.283665
0.936996 0.945937 0.286976
0.961105 0.949279 0.28957
0.985534 0.952392 0.291157
1 0.955428 0.291691
0.146929 0.878431 0.189792
0.167147 0.883665 0.191638
0.187045 0.888579 0.19202
0.207141 0.893233 0.191287
0.238544 0.898009 0.190234
0.264698 0.902571 0.18851
0.289662 0.906737 0.186481
0.315038 0.910277 0.184192
0.341207 0.913115 0.181827
0.36846 0.915496 0.179965
0.396994 0.917647 0.178958
0.426566 0.919783 0.178546
0.457343 0.922347 0.179858
0.489067 0.925536 0.182315
0.521355 0.929351 0.185397
