public/filters/konnect/Presets B Darker Skin Tone/Cool v2_24.2021-06-15 11-45-45.cube
TITLE "Generated by Resolve"
LUT_3D_SIZE 9
0.00419623 0.0123598 0.0373236
0.0766155 0.00387579 0.0155947
0.202945 0.00198367 0.00993362
0.321508 0.0110933 0.0296635
0.415183 0.0234836 0.059968
0.516869 0.0229038 0.0648051
0.615473 0.0242618 0.0657206
0.705699 0.0288853 0.0701762
0.802243 0.0299229 0.0679637
0.0218662 0.119112 0.05832
0.0996262 0.121767 0.0502327
0.194141 0.121309 0.0277562
0.306355 0.136278 0.0187839
0.415091 0.144457 0.0439612
0.526864 0.130007 0.0731212
0.63032 0.136507 0.079469
0.726925 0.147036 0.0872969
0.824598 0.159655 0.0979171
0.0246738 0.222721 0.0608988
0.102251 0.230579 0.051545
0.198535 0.248493 0.0264286
0.314244 0.260075 0.0201114
0.432059 0.264988 0.0475013
0.552773 0.258564 0.0952316
0.662409 0.2701 0.112428
0.764721 0.285878 0.120516
0.867826 0.302205 0.128344
0.0267643 0.346151 0.0593423
0.102617 0.364248 0.0492866
0.2121 0.380728 0.0406043
0.332021 0.390249 0.0378729
0.456397 0.400458 0.0640726
0.579522 0.410163 0.115953
0.693385 0.423239 0.147402
0.795789 0.441016 0.162493
0.899199 0.458976 0.171115
0.0392615 0.4916 0.0706951
0.134737 0.509483 0.0815747
0.243259 0.526345 0.0899519
0.360708 0.53872 0.0799268
0.483558 0.551476 0.0823377
0.608087 0.566079 0.130159
0.726253 0.582742 0.177935
0.830259 0.601892 0.192081
0.934691 0.619654 0.192782
0.0755932 0.645182 0.11014
0.168734 0.664897 0.117159
0.274296 0.683131 0.11696
0.392966 0.696559 0.109133
0.519173 0.708858 0.11339
0.647425 0.724422 0.156741
0.763119 0.743404 0.209476
0.865904 0.761501 0.225483
0.967834 0.775814 0.21297
0.11133 0.80148 0.150576
0.198825 0.820523 0.146395
0.308949 0.836347 0.134035
0.432715 0.849699 0.147097
0.562768 0.863798 0.163928
0.688762 0.876402 0.195056
0.803265 0.89247 0.246021
0.90341 0.908492 0.273655
1 0.921798 0.277256
0.141863 0.950011 0.192782
0.209857 0.962173 0.170733
0.347601 0.974273 0.163378
0.470817 0.983642 0.184497
0.60734 1 0.22005
0.729839 1 0.234119
0.842039 1 0.276539
0.94052 1 0.309087
1 1 0.302251
0.215351 1 0.265553
0.308568 1 0.26363
0.405188 1 0.241474
0.511574 1 0.227573
0.639048 1 0.256931
0.766232 1 0.280507
0.875395 1 0.303014
0.973526 1 0.328679
1 1 0.319753
0.026215 0.0221714 0.173754
0.101701 0.0177768 0.172549
0.196811 0.0120394 0.17908
0.310048 0.0108797 0.184558
0.418265 0.0163272 0.184924
0.520241 0.0178378 0.171786
0.619287 0.0200656 0.172869
0.708309 0.0271763 0.179202
0.798062 0.0357061 0.187289
0.0209964 0.118578 0.17026
0.094316 0.12607 0.176593
0.196155 0.135668 0.183978
0.30518 0.136217 0.18378
0.416709 0.1393 0.186984
0.528771 0.134691 0.184939
0.634485 0.137346 0.188769
0.7308 0.148974 0.200748
0.828351 0.162554 0.214649
0.0249943 0.223117 0.17293
0.109361 0.23093 0.179477
0.206455 0.239261 0.184451
0.319554 0.245274 0.186297
0.434821 0.263813 0.197742
0.548959 0.274327 0.21387
0.667018 0.273655 0.223804
0.768734 0.29012 0.240146
0.871763 0.306706 0.255451
0.0278782 0.348669 0.17554
0.116716 0.362951 0.187869
0.221393 0.377417 0.198871
0.335698 0.393637 0.205478
0.456428 0.406592 0.214878
0.577478 0.417975 0.234333
0.69752 0.427649 0.255879
0.800931 0.445426 0.274342
0.904692 0.463447 0.29041
0.0444648 0.495293 0.194507
0.133684 0.513924 0.208682
0.244205 0.531548 0.222629
0.362432 0.54551 0.234821
0.486488 0.556649 0.245045
0.609339 0.569512 0.259983
0.727184 0.587106 0.286336
0.835126 0.607538 0.310475
0.939055 0.625528 0.325154
0.0761273 0.650004 0.226184
0.169818 0.669673 0.242344
0.278492 0.687846 0.256397
0.398795 0.701701 0.266865
0.524422 0.714031 0.276799
0.645533 0.725994 0.289464
0.760433 0.744076 0.316854
0.870359 0.76669 0.345418
0.971328 0.782498 0.35816
0.119738 0.806516 0.274037
0.207156 0.826337 0.286061
0.315862 0.842908 0.294133
0.435401 0.853956 0.302815
0.564324 0.866514 0.316442
0.689693 0.878019 0.32958
0.804776 0.893324 0.353414
0.906615 0.911162 0.380331
1 0.924605 0.392737
0.175372 0.958587 0.33257
0.252872 0.975402 0.337163
0.348669 0.982727 0.330541
0.468437 0.990051 0.335103
0.601205 1 0.358129
0.731655 1 0.376165
0.842008 1 0.389609
0.942397 1 0.413809
1 1 0.429816
0.214313 1 0.379751
0.277272 1 0.384085
0.389136 1 0.379522
0.49984 1 0.373739
0.62063 1 0.380865
0.76199 1 0.405402
0.874189 1 0.419409
0.974685 1 0.440955
1 1 0.459541
0.0255741 0.0213016 0.27396
0.10573 0.0211795 0.275471
0.195163 0.0164187 0.278767
0.30399 0.00941482 0.279118
0.41976 0.010193 0.287785
0.525856 0.0148775 0.286229
0.623224 0.0172122 0.277195
0.713024 0.0246433 0.283116
0.800641 0.0364385 0.29102
0.0216068 0.118608 0.272557
0.106554 0.122896 0.276921
0.19791 0.125612 0.280873
0.30663 0.128588 0.28777
0.421637 0.132967 0.293431
0.532311 0.13846 0.29691
0.638697 0.139391 0.294804
0.736019 0.151141 0.306188
0.832731 0.166003 0.320638
0.0250248 0.22417 0.27602
0.112093 0.232364 0.284153
0.20705 0.246204 0.296422
0.31957 0.261158 0.308324
0.438254 0.267491 0.313649
0.554025 0.277424 0.324315
0.67158 0.27805 0.329992
0.774273 0.294301 0.345983
0.876188 0.311666 0.363073
0.0311284 0.351537 0.281651
0.121462 0.366323 0.295689
0.226078 0.381262 0.309346
0.343114 0.392554 0.318318
0.466835 0.402335 0.325216
0.578424 0.421897 0.34168
0.685969 0.438453 0.3626
0.806622 0.450095 0.379782
0.909743 0.469047 0.398245
0.052369 0.499413 0.30277
0.142428 0.518227 0.319585
0.25069 0.535134 0.334524
0.370001 0.547616 0.345556
0.488411 0.560159 0.35436
0.606958 0.571756 0.365148
0.72192 0.588998 0.387274
0.83975 0.611902 0.414466
0.943984 0.631678 0.434028
0.0864729 0.654871 0.33463
0.176913 0.674891 0.35227
0.282536 0.692943 0.366842
0.400412 0.706035 0.377768
0.521309 0.716518 0.387198
0.644724 0.727077 0.396399
0.759441 0.742626 0.415244
0.874479 0.771588 0.451606
0.975418 0.788495 0.467781
0.132342 0.812024 0.382589
0.221317 0.831998 0.399237
0.323232 0.848524 0.409552
0.441001 0.859663 0.416526
0.566583 0.869795 0.426108
0.689845 0.879072 0.434897
0.797818 0.888045 0.4477
0.900221 0.906355 0.474571
1 0.928618 0.499443
0.184985 0.963592 0.438926
0.274784 0.980865 0.453086
0.366308 0.993362 0.45478
0.476692 0.999435 0.452399
0.599756 1 0.460975
0.727474 1 0.474647
0.840299 1 0.486549
0.942809 1 0.50808
1 1 0.531838
0.219348 1 0.484474
0.321416 1 0.498405
0.410208 1 0.49865
0.505699 1 0.486595
0.622538 1 0.486122
0.751156 1 0.502739
0.873075 1 0.520363
0.974426 1 0.537224
1 1 0.567086
0.0210269 0.0172427 0.386755
0.106966 0.0219272 0.388357
0.195941 0.0223545 0.394995
0.303929 0.0151064 0.401343
0.417731 0.0100557 0.401877
0.527947 0.0108949 0.401114
0.626612 0.0144045 0.396704
0.718746 0.0202487 0.400565
0.806592 0.0324407 0.407797
0.0220951 0.117784 0.38616
0.108263 0.122499 0.39057
0.198627 0.126528 0.395438
0.306142 0.125811 0.398535
0.423743 0.125032 0.402213
0.53814 0.134005 0.412222
0.641184 0.144137 0.419104
0.741573 0.15201 0.424186
0.838499 0.16759 0.438331
0.0226902 0.224643 0.391608
0.114214 0.233082 0.399908
0.212284 0.242725 0.409506
0.324559 0.249699 0.417121
0.444038 0.261158 0.429297
0.562387 0.273213 0.440528
0.670817 0.286946 0.453117
0.779263 0.297337 0.463874
0.881453 0.314687 0.480705
0.0318303 0.35404 0.399359
0.126284 0.368994 0.414023
0.230915 0.384421 0.429007
0.344411 0.400595 0.443595
0.461234 0.416571 0.45658
0.579965 0.424949 0.46424
0.688884 0.439124 0.47863
0.804059 0.454353 0.496712
0.91516 0.472572 0.515724
0.0556954 0.503151 0.421622
0.150835 0.521813 0.439506
0.257298 0.539086 0.45594
0.375479 0.552132 0.468162
0.498909 0.562905 0.477378
0.622354 0.572381 0.484901
0.719188 0.586908 0.499199
0.818494 0.609262 0.52459
0.948867 0.635142 0.551156
0.0879683 0.659205 0.453407
0.185824 0.679301 0.472679
0.289723 0.697795 0.489281
0.408469 0.711391 0.501457
0.532692 0.722728 0.511391
0.645869 0.729046 0.516335
0.752804 0.738369 0.526696
0.85774 0.759289 0.551415
0.9776 0.789288 0.581704
0.126528 0.816434 0.500816
0.235737 0.836851 0.520684
0.334142 0.854002 0.53463
0.447974 0.864546 0.54168
0.56788 0.871916 0.548516
0.683162 0.87657 0.553979
0.794171 0.885328 0.561608
0.895644 0.899535 0.579156
1 0.923766 0.608042
0.164233 0.965667 0.553979
0.290913 0.985 0.573922
0.378531 0.998032 0.580835
0.489296 1 0.583597
0.606775 1 0.584955
0.727611 1 0.591089
0.838026 1 0.598581
0.931807 1 0.608423
1 1 0.633509
0.196674 1 0.596414
0.329671 1 0.615946
0.424277 1 0.624598
0.523354 1 0.617929
0.632929 1 0.610788
0.750713 1 0.615991
0.868559 1 0.630869
0.972503 1 0.645777
1 1 0.667903
0.0150607 0.013489 0.502007
0.105684 0.0204776 0.501045
0.195117 0.0248417 0.504341
0.299458 0.0193942 0.505806
0.412879 0.0119631 0.508141
0.525551 0.0104067 0.508751
0.626932 0.0138857 0.510826
0.720897 0.019501 0.517342
0.812726 0.0290227 0.52517
0.0162051 0.116091 0.501213
0.106661 0.121614 0.504036
0.199069 0.126864 0.50837
0.305776 0.129046 0.5131
0.421469 0.131487 0.520928
0.5393 0.134249 0.527077
0.646265 0.143359 0.534691
0.746059 0.154223 0.543343
0.845701 0.168597 0.556176
0.0216373 0.225254 0.506966
0.115023 0.23415 0.515084
0.214771 0.244465 0.524666
0.327306 0.252522 0.533303
0.447822 0.259861 0.542931
0.571221 0.26775 0.553155
0.679667 0.285405 0.568154
0.780041 0.302953 0.583291
0.887938 0.316808 0.59765
0.0308995 0.357046 0.516915
0.128252 0.372152 0.531456
0.235401 0.3879 0.546593
0.353079 0.400595 0.559274
0.475593 0.411215 0.570611
0.593484 0.422812 0.58175
0.702251 0.437217 0.594079
0.803815 0.457053 0.612085
0.919921 0.475395 0.632242
0.050309 0.50782 0.540215
0.154818 0.525719 0.557595
0.262608 0.543175 0.574533
0.38143 0.556924 0.588251
0.499031 0.569696 0.600137
0.608698 0.578592 0.607279
0.719432 0.588251 0.616571
0.819867 0.606271 0.633997
0.94464 0.633997 0.662852
0.0710765 0.666117 0.574472
0.189944 0.683787 0.591028
0.296864 0.702785 0.609247
0.416022 0.717098 0.62327
0.539986 0.729107 0.634989
0.661646 0.738293 0.643305
0.773602 0.746548 0.650324
0.851331 0.750805 0.656153
0.943404 0.771557 0.678935
0.0981918 0.819471 0.619791
0.238743 0.841184 0.638117
0.343328 0.85919 0.655283
0.457496 0.870405 0.665309
0.578027 0.878996 0.673106
0.697704 0.88629 0.6795
0.793927 0.885496 0.678126
0.885283 0.890028 0.684153
0.983993 0.909346 0.7075
0.101686 0.960708 0.666316
0.2804 0.987533 0.687068
0.392676 1 0.703807
0.500572 1 0.708492
0.613993 1 0.709194
0.728206 1 0.711742
0.828458 1 0.713191
0.925673 1 0.716655
1 1 0.730159
0.147158 1 0.706706
0.314168 1 0.72723
0.432334 1 0.743145
0.537957 1 0.745464
0.646006 1 0.741253
0.760983 1 0.742092
0.871748 1 0.750637
0.971923 1 0.759441
1 1 0.763546
0.0134737 0.0139925 0.609506
0.105562 0.0201114 0.607721
0.194873 0.0248264 0.610086
0.29839 0.0230411 0.61033
0.409293 0.0180667 0.611795
0.522133 0.0144198 0.614755
0.623468 0.0181735 0.617563
0.719066 0.0235599 0.627298
0.812512 0.0331579 0.639948
0.0171969 0.115969 0.60824
0.106447 0.121492 0.611276
0.199756 0.127337 0.615228
0.30663 0.129961 0.618311
0.421561 0.13167 0.624033
0.540047 0.134447 0.632532
0.648707 0.143526 0.641489
0.747662 0.157809 0.653452
0.848127 0.173007 0.667781
0.023331 0.226307 0.615641
0.11696 0.23592 0.624018
0.217487 0.246921 0.633524
0.330663 0.255863 0.642359
0.450217 0.265705 0.653193
0.570428 0.27686 0.666072
0.683436 0.28925 0.679149
0.786526 0.305715 0.693919
0.891508 0.32163 0.709804
0.0337224 0.36022 0.627832
0.132815 0.37583 0.64239
0.240208 0.392065 0.657313
0.358144 0.405264 0.6701
0.480781 0.416938 0.682445
0.603189 0.427024 0.694774
0.718044 0.43917 0.708537
0.815839 0.460517 0.72459
0.925505 0.479698 0.744198
0.054902 0.511955 0.652033
0.160449 0.530114 0.669108
0.268574 0.547951 0.686122
0.387884 0.562387 0.700511
0.51223 0.57557 0.714046
0.635081 0.58677 0.72665
0.74052 0.595926 0.735973
0.837781 0.612512 0.749523
0.956985 0.639445 0.77644
0.0706951 0.67071 0.685069
0.192981 0.688731 0.702953
0.303792 0.708247 0.721721
0.423713 0.723217 0.736797
0.54757 0.73579 0.749798
0.660136 0.743069 0.757305
0.75169 0.742504 0.756817
0.850202 0.752911 0.767224
0.954192 0.775555 0.788937
0.102235 0.824353 0.729381
0.241505 0.845899 0.749203
0.350011 0.864195 0.767147
0.466194 0.876265 0.779492
0.586358 0.885222 0.788861
0.705943 0.893385 0.797391
0.813825 0.900816 0.80441
0.912413 0.9084 0.811475
0.986481 0.911315 0.816815
0.107652 0.964462 0.775082
0.284306 0.991272 0.797452
0.398581 1 0.814282
0.510811 1 0.823178
0.624842 1 0.827344
0.740948 1 0.832288
0.846479 1 0.837064
0.923491 1 0.827375
1 1 0.831189
0.151904 1 0.816419
0.309987 1 0.834836
0.436103 1 0.852094
0.548272 1 0.859907
0.658564 1 0.860975
0.770703 1 0.862165
0.874769 1 0.867506
0.961868 1 0.868437
1 1 0.873365
0.0197147 0.0151675 0.69601
0.107118 0.0215457 0.698314
0.195682 0.0256504 0.700786
0.299123 0.0249485 0.700679
0.408774 0.0227207 0.700786
0.519661 0.0209354 0.703044
0.621744 0.0240787 0.707912
0.71603 0.0311589 0.716594
0.811688 0.0396582 0.727275
0.019501 0.119417 0.698421
0.108812 0.122957 0.70277
0.201587 0.129091 0.707164
0.308965 0.132448 0.71046
0.423377 0.135851 0.715221
0.539818 0.140749 0.722988
0.648127 0.150591 0.733639
0.74728 0.165515 0.746868
0.847333 0.181888 0.762844
0.0295872 0.228428 0.707424
0.122026 0.239048 0.717144
0.221408 0.250828 0.727275
0.335164 0.260471 0.736431
0.455451 0.270161 0.746487
0.576715 0.280552 0.758892
0.689738 0.293843 0.77406
0.792477 0.311482 0.789944
0.894438 0.329305 0.806439
0.0429084 0.364248 0.721889
0.140673 0.380804 0.737484
0.246098 0.397604 0.75256
0.363973 0.411093 0.765362
0.486793 0.423255 0.777722
0.607736 0.435843 0.790417
0.717693 0.450904 0.805127
0.823377 0.468269 0.822965
0.93135 0.487709 0.842573
0.0687114 0.517067 0.747127
0.168582 0.535744 0.765026
0.275044 0.554009 0.782238
0.394827 0.568978 0.796643
0.519417 0.582742 0.810559
0.643046 0.596185 0.824842
0.756664 0.610407 0.840818
0.861219 0.628016 0.858045
0.963806 0.649363 0.876326
0.0909895 0.674784 0.780987
0.202701 0.695171 0.79968
0.311269 0.71487 0.818387
0.431907 0.730404 0.833646
0.556069 0.743603 0.847333
0.67866 0.755962 0.86038
0.789425 0.767849 0.873793
0.878279 0.773678 0.880522
0.987839 0.794949 0.900694
0.122621 0.830945 0.825391
0.248631 0.851957 0.845502
0.356695 0.870115 0.863081
0.474678 0.882841 0.876326
0.595514 0.892485 0.887053
0.714992 0.901335 0.896941
0.810727 0.903517 0.90016
0.880781 0.894759 0.892989
0.982406 0.911971 0.909987
0.159625 0.977829 0.875212
0.296513 0.996582 0.893446
0.403418 1 0.908537
0.518135 1 0.918807
0.635325 1 0.926299
0.750637 1 0.932692
0.856474 1 0.940856
0.952132 1 0.949233
1 1 0.95993
0.172686 1 0.909682
0.325109 1 0.931517
0.441444 1 0.945983
0.553964 1 0.954391
0.67013 1 0.960769
0.784497 1 0.966323
0.890929 1 0.975189
0.987701 1 0.985565
1 1 0.969955
0.0245365 0.0191348 0.771176
0.109468 0.0239872 0.77525
0.197452 0.0274968 0.778317
0.301091 0.0270085 0.778454
0.410712 0.0259098 0.77821
0.520958 0.0258793 0.779706
0.622889 0.030045 0.785092
0.716472 0.0392004 0.79382
0.810193 0.0523384 0.806332
0.0269627 0.11989 0.773922
0.112734 0.125704 0.780224
0.204532 0.132158 0.785855
0.312474 0.13608 0.789792
0.427329 0.140352 0.794598
0.543435 0.146639 0.801633
0.651469 0.157565 0.812665
0.750866 0.173083 0.826764
0.851225 0.189609 0.842832
0.0374914 0.23212 0.78468
0.128588 0.244266 0.795712
0.226566 0.256077 0.807584
0.340688 0.26627 0.817594
0.461463 0.276478 0.827878
0.58262 0.287892 0.83946
0.694575 0.30251 0.854246
0.796887 0.320317 0.870954
0.898283 0.338811 0.887831
0.0544442 0.369665 0.801358
0.150546 0.387045 0.818158
0.252842 0.404334 0.834302
0.37055 0.41796 0.847349
0.493462 0.430198 0.859617
0.616083 0.443061 0.872526
0.729305 0.458991 0.888701
0.833494 0.477745 0.907378
0.936675 0.497963 0.925719
0.0821088 0.523629 0.828092
0.179599 0.542687 0.846571
0.282673 0.561318 0.864622
0.402152 0.576455 0.879255
0.526909 0.590463 0.893217
0.650935 0.604669 0.9075
0.762463 0.62089 0.922698
0.862821 0.63888 0.939086
0.970047 0.659129 0.959716
0.109194 0.682094 0.863157
0.214618 0.702876 0.882277
0.319814 0.722683 0.901137
0.439567 0.738018 0.916304
0.563699 0.751232 0.929931
0.686259 0.76379 0.942931
0.797543 0.777951 0.957275
0.897841 0.792645 0.972763
0.996826 0.80766 0.987427
0.156283 0.839643 0.9093
0.260945 0.859358 0.928008
0.364172 0.877043 0.945327
0.48159 0.889464 0.958297
0.603159 0.899458 0.969192
0.722622 0.908522 0.979263
0.830839 0.919432 0.990631
0.927703 0.931197 1
1 0.941985 1
0.202167 0.985916 0.958556
0.308522 1 0.975158
0.409461 1 0.989502
0.523613 1 0.999527
0.641978 1 1
0.758312 1 1
0.864515 1 1
0.935607 1 1
0.992111 1 1
0.234958 1 1
0.339269 1 1
0.44538 1 1
0.558801 1 1
0.676341 1 1
0.792691 1 1
0.899229 1 1
0.996475 1 1
1 1 1
0.0273594 0.0219883 0.845319
0.111574 0.026215 0.849561
0.199481 0.0296025 0.85301
0.303395 0.0293431 0.853468
0.413367 0.0286564 0.853605
0.523857 0.0295415 0.855116
0.62594 0.0349126 0.860533
0.720043 0.044831 0.869932
0.815213 0.0568399 0.881315
0.0303349 0.122484 0.848127
0.116625 0.128817 0.854582
0.207919 0.135714 0.861433
0.316396 0.140154 0.866377
0.431891 0.145068 0.871794
0.548547 0.152163 0.879088
0.656886 0.163867 0.890288
0.756863 0.179751 0.905074
0.856657 0.19733 0.920928
0.0429847 0.236194 0.860716
0.134752 0.248478 0.872557
0.231998 0.261769 0.885267
0.346593 0.272465 0.895979
0.467811 0.28307 0.906645
0.589273 0.294835 0.918288
0.701167 0.30988 0.932754
0.803357 0.327779 0.949523
0.905043 0.346471 0.966735
0.061738 0.375998 0.879408
0.158251 0.393805 0.896391
0.259693 0.411368 0.913069
0.377295 0.425025 0.926482
0.500298 0.437293 0.938842
0.62324 0.450446 0.951934
0.736614 0.467033 0.967803
0.840467 0.486732 0.986191
0.943557 0.506798 1
0.0895705 0.530709 0.907149
0.187747 0.549981 0.925536
0.290501 0.568994 0.943679
0.409644 0.584192 0.95877
0.534386 0.598215 0.9729
0.658442 0.612451 0.987167
0.772076 0.629267 1
0.875273 0.64831 1
0.976806 0.666789 1
0.123537 0.68986 0.941924
0.224018 0.710735 0.961746
0.327718 0.73051 0.980682
0.446876 0.745571 0.99588
0.570794 0.758541 1
0.693111 0.770809 1
0.804196 0.784894 1
0.90425 0.800519 1
1 0.815305 1
0.170397 0.847288 0.988342
0.26952 0.866651 1
0.371374 0.884016 1
0.488167 0.896025 1
0.609262 0.905592 1
0.728435 0.914351 1
0.836286 0.924926 1
0.933303 0.937484 1
1 0.949737 1
0.218494 0.993149 1
0.315663 1 1
0.414969 1 1
0.528862 1 1
0.647181 1 1
0.76408 1 1
0.870268 1 1
0.966262 1 1
1 1 1
0.257847 1 1
0.352895 1 1
0.45098 1 1
0.563653 1 1
0.68127 1 1
0.798093 1 1
0.904875 1 1
1 1 1
1 1 1
