public/filters/konnect/Presets B Darker Skin Tone/Highlights v2_28.2021-06-15 11-45-45.cube
TITLE "Generated by Resolve"
LUT_3D_SIZE 33
0.00195315 0.0182498 0.0211032
0.016083 0.0162203 0.0204471
0.0303349 0.0147097 0.0203861
0.0547494 0.0130922 0.0195315
0.0822156 0.0127871 0.0191653
0.110933 0.0147555 0.0209659
0.138491 0.0160678 0.0221408
0.165438 0.017258 0.0227665
0.191867 0.0184024 0.0237888
0.217945 0.0195468 0.0248569
0.243793 0.0206912 0.0259403
0.269306 0.0218051 0.0270542
0.294301 0.022858 0.028275
0.319463 0.0240024 0.0294957
0.346807 0.0253605 0.0302129
0.377203 0.0266423 0.029984
0.409613 0.0274662 0.0289158
0.440314 0.027863 0.0280461
0.468589 0.0281071 0.0281071
0.495033 0.0284428 0.0284428
0.521477 0.0287938 0.0287938
0.547997 0.0291447 0.0291447
0.574594 0.0294957 0.0294957
0.601251 0.0298466 0.0298466
0.628 0.0301976 0.0301976
0.654795 0.0305486 0.0305486
0.681666 0.0308995 0.0308995
0.708598 0.0312505 0.0312505
0.735592 0.0316014 0.0316014
0.762646 0.0319524 0.0319524
0.789746 0.0323186 0.0323186
0.816907 0.0326696 0.0326696
0.844434 0.0329442 0.0329442
0.0245212 0.0447089 0.0245212
0.0421607 0.0454108 0.0250553
0.0576944 0.0455634 0.0249638
0.0728466 0.0449989 0.0242313
0.0920729 0.0445716 0.0238041
0.114458 0.0449683 0.0246586
0.134447 0.0472725 0.0280919
0.156237 0.0494392 0.030808
0.179171 0.0513008 0.0327764
0.202502 0.0530404 0.0344854
0.226078 0.0546883 0.0360723
0.249836 0.0562753 0.0375677
0.273747 0.0577859 0.0389868
0.297688 0.059266 0.0403754
0.326085 0.0599222 0.0407568
0.360357 0.0592966 0.0396582
0.401343 0.0570535 0.03682
0.439734 0.0550393 0.0344854
0.47303 0.0539254 0.0335241
0.500465 0.054078 0.033875
0.52697 0.0544747 0.034287
0.553536 0.0548714 0.0346838
0.580179 0.0552834 0.0350958
0.606897 0.0556802 0.0354925
0.633692 0.0560769 0.0358892
0.660548 0.0564736 0.036286
0.687449 0.0568704 0.0366827
0.714427 0.0572671 0.0370794
0.741466 0.0576638 0.0374762
0.768551 0.0580606 0.0378729
0.795697 0.0584573 0.0382696
0.822904 0.058854 0.0386664
0.850462 0.0591592 0.0389715
0.0267796 0.0693217 0.0267796
0.0482338 0.0705882 0.0280461
0.0714275 0.0714275 0.0288853
0.094667 0.0721752 0.0295567
0.116167 0.0728618 0.0297856
0.135592 0.0735332 0.0295262
0.154147 0.0742351 0.0289921
0.174701 0.0750134 0.0288243
0.197757 0.0759442 0.0294804
0.220172 0.0775464 0.0321813
0.240696 0.0798352 0.0355383
0.260716 0.0822461 0.039292
0.281544 0.0844587 0.0423438
0.303166 0.0864881 0.044831
0.327504 0.0879225 0.0463874
0.358221 0.0878767 0.0460975
0.396353 0.0859388 0.0436255
0.437613 0.0830243 0.0402228
0.474083 0.0810712 0.0381018
0.50454 0.0804913 0.0379644
0.53109 0.0809491 0.0384222
0.557717 0.0813916 0.0388647
0.584405 0.0818494 0.0393072
0.61117 0.0822919 0.0397498
0.637995 0.0827344 0.0401923
0.664897 0.0831769 0.0406348
0.691844 0.0836042 0.0410773
0.718853 0.0840467 0.0415045
0.745937 0.0844739 0.0419471
0.773053 0.0849165 0.0423743
0.800229 0.0853437 0.0428016
0.827466 0.085771 0.0432288
0.85507 0.0861067 0.0435798
0.0291142 0.0947127 0.0291142
0.0506905 0.0961013 0.0305028
0.0740063 0.0970626 0.0314641
0.0979019 0.0979019 0.0323033
0.12221 0.0986648 0.0330663
0.146777 0.099382 0.0337835
0.170687 0.10016 0.0343023
0.193164 0.101122 0.0344549
0.213931 0.102373 0.034226
0.234424 0.103807 0.0339513
0.256168 0.105196 0.0339971
0.279591 0.106447 0.0347143
0.30277 0.107897 0.0367895
0.324605 0.109789 0.0394141
0.345296 0.11194 0.0431678
0.369375 0.113298 0.046128
0.399863 0.113024 0.0468299
0.438163 0.110674 0.0447089
0.475074 0.108553 0.0425269
0.507729 0.107439 0.0417182
0.534859 0.107774 0.0421912
0.561532 0.108278 0.0426795
0.588251 0.108751 0.0431678
0.615061 0.109239 0.0436408
0.641932 0.109728 0.0441291
0.668864 0.110201 0.0446021
0.695842 0.110674 0.0450752
0.722896 0.111147 0.0455482
0.750011 0.11162 0.0460212
0.777157 0.112078 0.046479
0.804379 0.112535 0.046952
0.831647 0.113008 0.0474098
0.859266 0.113375 0.047776
0.0314946 0.120623 0.0314946
0.0531624 0.122103 0.0329747
0.0765698 0.123156 0.0340276
0.100557 0.124086 0.0349584
0.124926 0.124926 0.0357977
0.149599 0.125719 0.0365759
0.174533 0.126452 0.0373236
0.199664 0.127169 0.0380407
0.224643 0.127916 0.0386511
0.248798 0.128862 0.0390631
0.271611 0.130159 0.0391852
0.293324 0.131792 0.0390936
0.314946 0.133577 0.0390631
0.337453 0.135225 0.0392767
0.360906 0.136675 0.0400549
0.385718 0.137743 0.0419165
0.413062 0.138094 0.0438849
0.444526 0.137255 0.0453193
0.477958 0.135851 0.0455329
0.509911 0.13489 0.0452888
0.53843 0.134874 0.0457465
0.565133 0.135409 0.0462806
0.591897 0.135927 0.0467994
0.618738 0.136446 0.0473182
0.64564 0.136965 0.047837
0.672602 0.137484 0.0483558
0.699626 0.137987 0.0488594
0.726711 0.138491 0.0493629
0.753841 0.138994 0.0498665
0.781033 0.139483 0.0503548
0.808286 0.139986 0.0508583
0.835584 0.140475 0.0513466
0.863233 0.140871 0.0517433
0.0339055 0.146929 0.0339055
0.0556649 0.148501 0.0354772
0.0791333 0.149615 0.0365911
0.103182 0.150607 0.037583
0.127626 0.151507 0.0384833
0.152361 0.152361 0.0393378
0.17734 0.153155 0.0401312
0.202548 0.153933 0.0409094
0.227909 0.154665 0.0416419
0.253452 0.155367 0.0423438
0.279011 0.1561 0.0430152
0.304158 0.156954 0.0435645
0.328328 0.158129 0.0439155
0.351293 0.159686 0.0440375
0.373526 0.161547 0.0440833
0.396368 0.163256 0.0443427
0.422217 0.164065 0.0451057
0.451316 0.163836 0.0464179
0.482734 0.162875 0.0478065
0.513146 0.162249 0.0486458
0.541863 0.162203 0.0491798
0.568597 0.162768 0.0497444
0.595392 0.163333 0.050309
0.622278 0.163882 0.0508583
0.64921 0.164431 0.0514076
0.676204 0.164965 0.0519417
0.703258 0.165515 0.052491
0.730373 0.166033 0.0530098
0.757534 0.166567 0.0535439
0.784756 0.167102 0.054078
0.812024 0.16762 0.0545968
0.839353 0.168139 0.0551156
0.867033 0.168566 0.0555428
0.0363622 0.173571 0.0363622
0.0581674 0.175189 0.0379797
0.0702373 0.179232 0.0382391
0.0901503 0.18143 0.038529
0.112947 0.182925 0.0383001
0.137636 0.183963 0.0386053
0.164157 0.184543 0.0394141
0.190539 0.185153 0.0402838
0.216815 0.185794 0.0411688
0.243015 0.186465 0.0420691
0.269184 0.187152 0.0429694
0.295323 0.187854 0.0438544
0.321431 0.188556 0.0447089
0.347341 0.189349 0.0455329
0.372793 0.19028 0.0462501
0.398169 0.191241 0.046952
0.425269 0.191653 0.0479591
0.454871 0.191257 0.0492866
0.486366 0.19028 0.0506752
0.51664 0.189715 0.0517433
0.545098 0.189761 0.0525216
0.571969 0.190326 0.0531167
0.598795 0.190906 0.0536965
0.625696 0.191485 0.0542916
0.652659 0.192065 0.0548714
0.679698 0.192645 0.055436
0.706783 0.19321 0.0560006
0.733913 0.193774 0.0565652
0.761105 0.194324 0.0571145
0.788357 0.194873 0.0576791
0.815656 0.195422 0.0582284
0.843 0.195972 0.0587625
0.87071 0.196429 0.0592203
0.0388342 0.200458 0.0388342
0.0607004 0.202136 0.0404974
0.0842756 0.203372 0.0417334
0.10663 0.204974 0.0426795
0.127794 0.206958 0.0430915
0.147921 0.209339 0.0429694
0.16968 0.211307 0.0428626
0.193683 0.21265 0.0431678
0.219486 0.213458 0.0439155
0.245731 0.21413 0.0448157
0.271946 0.214817 0.0457008
0.298116 0.215518 0.0466011
0.324269 0.21622 0.0474861
0.350423 0.216938 0.0483558
0.376562 0.217655 0.0492256
0.402625 0.218402 0.0500649
0.429877 0.218769 0.0511025
0.458686 0.218647 0.0523537
0.489387 0.217945 0.0537575
0.519432 0.217502 0.054902
0.548135 0.217517 0.0557565
0.575265 0.218051 0.0564126
0.602121 0.218662 0.057023
0.629053 0.219272 0.0576333
0.656046 0.219883 0.0582437
0.683101 0.220478 0.0588388
0.710216 0.221073 0.0594339
0.737377 0.221653 0.060029
0.764599 0.222248 0.0606088
0.791867 0.222812 0.0611887
0.819196 0.223392 0.0617533
0.846555 0.223957 0.0623178
0.874296 0.22443 0.0628061
0.0413214 0.227588 0.0413214
0.0632334 0.229313 0.0430457
0.0868544 0.230594 0.0443122
0.111055 0.231739 0.0454566
0.135637 0.232792 0.0465095
0.16025 0.23386 0.0474556
0.183917 0.235264 0.0481117
0.206332 0.237095 0.0483406
0.228092 0.239216 0.0482185
0.250843 0.241032 0.0482185
0.275242 0.242344 0.0486152
0.300938 0.243214 0.0493782
0.327092 0.243931 0.0502632
0.353262 0.244648 0.0511482
0.379431 0.245365 0.052018
0.4056 0.246098 0.0528878
0.432364 0.246632 0.0538643
0.4607 0.246693 0.0551003
0.490745 0.24625 0.0565194
0.52137 0.24567 0.0578775
0.550683 0.245563 0.0588846
0.5785 0.24593 0.0596475
0.605386 0.246571 0.0602884
0.632349 0.247211 0.0609293
0.659358 0.247837 0.0615549
0.686442 0.248463 0.0621805
0.713573 0.249073 0.0628061
0.740764 0.249683 0.0634165
0.768002 0.250294 0.0640269
0.7953 0.250889 0.064622
0.822644 0.251484 0.0652171
0.85005 0.252079 0.0658122
0.877806 0.252583 0.0663157
0.0438239 0.254932 0.0438239
0.0657816 0.256687 0.045594
0.0894484 0.258015 0.0469062
0.113695 0.25919 0.0480964
0.138308 0.260288 0.0491798
0.163241 0.261311 0.0502174
0.188388 0.262287 0.0511788
0.213733 0.263218 0.0521096
0.238727 0.264286 0.0528878
0.262867 0.265675 0.0533913
0.285924 0.26743 0.0535286
0.308705 0.269291 0.0535134
0.332158 0.270924 0.053666
0.356817 0.27216 0.054139
0.382422 0.273075 0.0548714
0.408484 0.273838 0.0557107
0.43476 0.274556 0.056611
0.46247 0.27483 0.0577707
0.491844 0.274647 0.0591745
0.522927 0.274037 0.0607156
0.552956 0.273777 0.0619211
0.581552 0.273976 0.0628367
0.608606 0.274617 0.063508
0.635599 0.275273 0.0641794
0.662638 0.275929 0.0648356
0.689738 0.27657 0.0654765
0.716899 0.277211 0.0661173
0.744106 0.277852 0.0667582
0.771374 0.278477 0.0673838
0.798688 0.279103 0.0680095
0.826062 0.279728 0.0686198
0.853468 0.280339 0.0692454
0.881254 0.280858 0.0697642
0.0463569 0.282445 0.0463569
0.0683452 0.284245 0.0481575
0.0920577 0.285603 0.0495155
0.116335 0.286824 0.0507362
0.140993 0.287953 0.0518502
0.165942 0.289006 0.0529183
0.191135 0.290013 0.0539254
0.216526 0.290974 0.0548867
0.242084 0.291905 0.0558175
0.267811 0.29279 0.0567025
0.293462 0.293736 0.0575418
0.318624 0.294835 0.0581979
0.342931 0.296223 0.0585794
0.366491 0.297826 0.0587472
0.389899 0.299458 0.0588693
0.413809 0.300908 0.059144
0.438575 0.302083 0.0596628
0.464988 0.30277 0.0605631
0.493568 0.302876 0.0618601
0.524178 0.302495 0.0634318
0.554864 0.302174 0.0648508
0.584131 0.302266 0.065919
0.611795 0.302785 0.0666972
0.638788 0.303471 0.0673838
0.665858 0.304143 0.0680552
0.692988 0.304814 0.0687266
0.720165 0.305486 0.069398
0.747402 0.306142 0.0700542
0.774685 0.306783 0.0706951
0.802029 0.307424 0.0713359
0.829419 0.308064 0.0719768
0.856855 0.308705 0.0726177
0.884642 0.309239 0.0731518
0.0489052 0.310124 0.0488899
0.0709239 0.311971 0.0507362
0.094667 0.313359 0.0521248
0.118975 0.314611 0.0533761
0.143664 0.31577 0.0545357
0.168643 0.316854 0.0556191
0.193866 0.317891 0.0566567
0.219287 0.318883 0.0576486
0.244877 0.319844 0.0586099
0.270634 0.32076 0.0595407
0.296529 0.32166 0.0604257
0.322545 0.32253 0.0613107
0.348592 0.323415 0.06215
0.374411 0.324361 0.0628824
0.399588 0.32549 0.0634318
0.423957 0.326833 0.0637827
0.447791 0.328283 0.0639963
0.472007 0.329595 0.064332
0.498238 0.330388 0.0651408
0.526909 0.330602 0.0663767
0.557275 0.330495 0.0678111
0.586755 0.330617 0.0689708
0.614939 0.331075 0.0698405
0.641962 0.331777 0.0705577
0.669062 0.332479 0.0712596
0.696193 0.333165 0.0719463
0.7234 0.333852 0.0726329
0.750652 0.334539 0.0733043
0.777966 0.33521 0.0739757
0.805325 0.335866 0.0746471
0.832731 0.336522 0.0753033
0.860182 0.337179 0.0759442
0.887999 0.337743 0.0765087
0.0514534 0.337972 0.0514534
0.073518 0.339834 0.0533303
0.0972915 0.341253 0.0547494
0.121614 0.342535 0.0560159
0.143465 0.344594 0.0569467
0.167468 0.346029 0.0578317
0.191791 0.347372 0.0586252
0.216953 0.348455 0.0594644
0.242817 0.34934 0.0603799
0.268772 0.350225 0.0612955
0.294804 0.35108 0.0621958
0.320928 0.351919 0.0630808
0.347127 0.352743 0.0639506
0.373388 0.353552 0.0648203
0.39971 0.35436 0.0656748
0.425956 0.355184 0.0664836
0.451911 0.356085 0.0672007
0.477638 0.357031 0.0678569
0.504143 0.357794 0.0686809
0.532006 0.358297 0.069749
0.561181 0.358557 0.070985
0.590005 0.358938 0.0720836
0.61799 0.359487 0.0729534
0.645106 0.360204 0.0736858
0.672221 0.360922 0.0744182
0.699382 0.361639 0.0751202
0.726604 0.362341 0.0758373
0.753872 0.363043 0.076524
0.781201 0.363729 0.0772106
0.808591 0.364416 0.0778973
0.836011 0.365087 0.078584
0.863493 0.365759 0.0792554
0.891325 0.366339 0.0798352
0.0540169 0.365942 0.0540169
0.076112 0.367834 0.0559243
0.0999161 0.369284 0.0573739
0.124269 0.370596 0.0586709
0.14902 0.371817 0.0598917
0.173617 0.373083 0.0609903
0.197925 0.374456 0.0619364
0.221958 0.375891 0.0626841
0.246494 0.377172 0.0634012
0.271748 0.378271 0.0641794
0.297627 0.379187 0.0650492
0.323766 0.380041 0.0659495
0.349981 0.380896 0.0668498
0.376272 0.38172 0.0677195
0.402609 0.382544 0.0685893
0.429023 0.383352 0.0694438
0.455497 0.384161 0.0702983
0.481956 0.38497 0.0711223
0.508873 0.385687 0.0720226
0.536446 0.386313 0.0730297
0.564874 0.386816 0.0741436
0.593164 0.387366 0.0751659
0.621012 0.388006 0.076051
0.648234 0.388739 0.0768139
0.675364 0.389471 0.0775616
0.702541 0.390204 0.0782788
0.729778 0.390921 0.0790112
0.757076 0.391638 0.0797284
0.784421 0.392355 0.0804303
0.811826 0.393057 0.0811322
0.839261 0.393744 0.0818341
0.866758 0.39443 0.0825208
0.894606 0.395041 0.0831159
0.056611 0.394049 0.0565957
0.0787213 0.395972 0.0585336
0.102541 0.397452 0.0600137
0.12694 0.398779 0.0613413
0.15172 0.400031 0.0625772
0.176776 0.40119 0.0637522
0.202075 0.402304 0.0648661
0.227497 0.403403 0.0659342
0.252735 0.404532 0.0668803
0.277638 0.405737 0.067689
0.302358 0.406973 0.0683452
0.327413 0.408103 0.0690166
0.353033 0.409079 0.0697642
0.379156 0.409964 0.0706188
0.405509 0.410803 0.0715038
0.431937 0.411643 0.0723735
0.458427 0.412451 0.073228
0.484962 0.41326 0.0740826
0.511788 0.414023 0.0749828
0.539254 0.414725 0.0759747
0.567422 0.415351 0.0770733
0.59588 0.415961 0.0781567
0.623865 0.416632 0.0790875
0.651331 0.417365 0.0799115
0.678477 0.418112 0.0806744
0.705684 0.41886 0.0814221
0.732937 0.419608 0.0821698
0.76025 0.42034 0.0829023
0.78761 0.421073 0.0836347
0.81503 0.42179 0.0843519
0.842496 0.422492 0.0850538
0.869993 0.423209 0.085771
0.897871 0.423819 0.0863813
0.0591897 0.422278 0.0591897
0.0813306 0.424216 0.0611429
0.105196 0.425727 0.0626535
0.12961 0.427085 0.0640116
0.154406 0.428351 0.0652781
0.179492 0.429541 0.0664683
0.204822 0.430686 0.0676127
0.230335 0.431769 0.0686961
0.256031 0.432837 0.069749
0.281865 0.43386 0.0707713
0.307683 0.434882 0.0717327
0.333288 0.435935 0.0726024
0.358557 0.437003 0.0733043
0.383749 0.438056 0.0739452
0.409201 0.439048 0.0746014
0.435111 0.439963 0.075349
0.461402 0.440818 0.076173
0.487907 0.441642 0.0770275
0.514549 0.442451 0.0778973
0.541787 0.443214 0.0788586
0.569696 0.443931 0.079942
0.598321 0.444617 0.0810864
0.626596 0.445335 0.0821088
0.654353 0.446082 0.0829938
0.681575 0.446845 0.083772
0.708797 0.447623 0.0845502
0.73608 0.448371 0.0852979
0.763409 0.449134 0.0860609
0.790784 0.449866 0.0867933
0.818219 0.450614 0.087541
0.845701 0.451331 0.0882582
0.873228 0.452064 0.0889906
0.901106 0.452689 0.0896162
0.061799 0.450614 0.061799
0.0839704 0.452583 0.0637675
0.107836 0.454108 0.0652934
0.13228 0.455497 0.0666819
0.157092 0.456779 0.0679637
0.182208 0.458 0.0691844
0.207553 0.459159 0.0703441
0.233097 0.460273 0.071458
0.258808 0.461357 0.0725414
0.284688 0.462394 0.073579
0.310689 0.463416 0.0746014
0.336812 0.464393 0.0755779
0.362997 0.46537 0.0765393
0.389059 0.466331 0.0774243
0.414878 0.467292 0.0781872
0.440452 0.468254 0.0788739
0.465995 0.469169 0.0795148
0.491753 0.470069 0.0801862
0.517845 0.470924 0.0809339
0.54461 0.471733 0.0818036
0.572213 0.472526 0.0828412
0.600656 0.473304 0.0839857
0.629191 0.474098 0.085069
0.657206 0.474891 0.0860304
0.684672 0.47567 0.0868696
0.71191 0.476463 0.0876478
0.739193 0.477241 0.088426
0.766537 0.478004 0.089189
0.793942 0.478767 0.0899519
0.821393 0.479515 0.0906996
0.848875 0.480262 0.0914473
0.876417 0.480995 0.0921798
0.904326 0.481651 0.0928359
0.0644083 0.479057 0.0644083
0.0865949 0.481056 0.0664073
0.110491 0.482597 0.0679484
0.134951 0.484001 0.0693523
0.159808 0.485313 0.0706645
0.184939 0.486549 0.0719005
0.2103 0.487739 0.0730907
0.235859 0.488869 0.0742199
0.261601 0.489967 0.0753185
0.28748 0.491035 0.0763867
0.313512 0.492073 0.0774243
0.339666 0.49308 0.0784314
0.365927 0.494057 0.079408
0.392294 0.495018 0.0803693
0.418738 0.495964 0.0813153
0.445136 0.496895 0.0822003
0.471366 0.497795 0.0830243
0.497337 0.498665 0.0837568
0.523125 0.499519 0.0844129
0.549096 0.500343 0.0850996
0.57586 0.501183 0.0859541
0.603555 0.502037 0.0869612
0.631968 0.502907 0.0880598
0.660075 0.503761 0.0890669
0.687739 0.504585 0.0899367
0.714992 0.505379 0.0907301
0.742306 0.506172 0.0915389
0.769665 0.50695 0.0923171
0.79707 0.507729 0.0930953
0.824537 0.508507 0.0938582
0.852049 0.509255 0.0946212
0.879606 0.510018 0.0953689
0.907515 0.510674 0.096025
0.0670329 0.507607 0.0670329
0.0892348 0.509621 0.0690471
0.113161 0.511193 0.0706188
0.137636 0.512612 0.0720378
0.162509 0.513939 0.0733654
0.187655 0.515206 0.0746319
0.213046 0.516411 0.0758373
0.238621 0.517571 0.076997
0.264378 0.518685 0.0781109
0.290288 0.519768 0.0791943
0.316335 0.520821 0.0802472
0.342504 0.521843 0.0812695
0.36878 0.52285 0.0822766
0.395178 0.523827 0.0832532
0.421653 0.524788 0.0842145
0.448234 0.525719 0.0851453
0.474891 0.52665 0.0860761
0.501549 0.52755 0.0869764
0.528099 0.52842 0.0878157
0.554437 0.529259 0.0885939
0.580926 0.530083 0.0893721
0.607874 0.530938 0.0902266
0.635477 0.531823 0.0911727
0.663172 0.532708 0.0921035
0.690761 0.533562 0.0929885
0.718074 0.534386 0.0938125
0.745388 0.535195 0.0946212
0.772763 0.535988 0.0954147
0.800198 0.536782 0.0962081
0.82768 0.53756 0.0969863
0.855207 0.538338 0.0977646
0.882765 0.539101 0.0985275
0.910704 0.539788 0.0992142
0.0696574 0.536248 0.0696574
0.0918898 0.538293 0.0717021
0.115831 0.539879 0.0732891
0.140337 0.541314 0.0747387
0.165225 0.542672 0.0760815
0.190387 0.543938 0.0773632
0.215793 0.545174 0.078584
0.241398 0.546334 0.0797589
0.26717 0.547478 0.0808881
0.293095 0.548577 0.0819867
0.319158 0.549645 0.0830701
0.345342 0.550698 0.0841077
0.371649 0.551705 0.0851301
0.398047 0.552712 0.0861219
0.424552 0.553689 0.0870985
0.451133 0.55465 0.0880598
0.477821 0.555581 0.0890059
0.50457 0.556512 0.0899367
0.531411 0.557427 0.090837
0.558282 0.558312 0.0917372
0.585184 0.559182 0.092607
0.612146 0.560052 0.0934615
0.639261 0.560906 0.0943313
0.666499 0.561776 0.0951858
0.693812 0.562631 0.0960403
0.721141 0.56347 0.0968795
0.74847 0.564279 0.0977035
0.77586 0.565103 0.0985122
0.803311 0.565896 0.099321
0.830808 0.566705 0.100114
0.858335 0.567483 0.100908
0.885924 0.568276 0.101686
0.913863 0.568963 0.102373
0.0722972 0.564981 0.0722972
0.0945449 0.567041 0.0743572
0.118517 0.568643 0.0759747
0.143038 0.570108 0.0774395
0.167926 0.571481 0.0787976
0.193118 0.572778 0.0800946
0.21854 0.574014 0.0813306
0.24416 0.575204 0.082536
0.269963 0.576349 0.0836805
0.295903 0.577478 0.0847944
0.321981 0.578561 0.0858778
0.34818 0.579629 0.0869459
0.374502 0.580652 0.0879835
0.400916 0.581674 0.0890059
0.427436 0.582666 0.0899977
0.454047 0.583642 0.090959
0.480735 0.584604 0.0919203
0.507515 0.585534 0.0928664
0.534371 0.586465 0.0937972
0.561288 0.587381 0.0947127
0.588281 0.588281 0.095613
0.615351 0.589166 0.0964981
0.642466 0.590051 0.0973678
0.669657 0.590906 0.0982376
0.696895 0.591775 0.0990921
0.724193 0.592615 0.0999466
0.751553 0.593454 0.100771
0.778958 0.594278 0.101595
0.806409 0.595102 0.102419
0.833921 0.595911 0.103227
0.861463 0.596704 0.104036
0.889067 0.597498 0.104829
0.916579 0.598276 0.105608
0.0745403 0.593835 0.0748913
0.0959029 0.596017 0.0769665
0.118776 0.597742 0.0785534
0.142336 0.599237 0.0800031
0.166995 0.600443 0.0813611
0.192035 0.601587 0.0826429
0.217365 0.602686 0.083772
0.242939 0.603754 0.0848707
0.268696 0.604791 0.0859236
0.294652 0.605814 0.0869612
0.321172 0.606897 0.0880598
0.348272 0.608072 0.08925
0.375906 0.609369 0.090547
0.403265 0.61059 0.0917678
0.430289 0.611719 0.0928664
0.456947 0.612711 0.0938735
0.48365 0.613687 0.0948348
0.510445 0.614649 0.0957961
0.537316 0.615595 0.0967422
0.564248 0.61651 0.097673
0.591257 0.617441 0.0985885
0.618341 0.618341 0.0994888
0.645472 0.619226 0.100374
0.672679 0.620111 0.101259
0.699931 0.620981 0.102129
0.727245 0.621836 0.102983
0.754604 0.62269 0.103838
0.782025 0.623529 0.104677
0.809491 0.624353 0.105516
0.836088 0.624994 0.106218
0.861692 0.625437 0.106798
0.886152 0.625666 0.107256
0.911437 0.626093 0.10782
0.070634 0.623148 0.0776532
0.0924544 0.625284 0.0797894
0.116503 0.626841 0.0813458
0.141466 0.628153 0.0827039
0.167498 0.629145 0.0839551
0.193301 0.630213 0.0852827
0.219104 0.631296 0.0864881
0.244999 0.63238 0.087602
0.27097 0.633417 0.0886702
0.297047 0.634455 0.0897231
0.323415 0.635523 0.0908064
0.350347 0.636728 0.0919509
0.377874 0.638086 0.0932174
0.40557 0.63949 0.0945144
0.432914 0.640757 0.0957046
0.459846 0.641855 0.0967727
0.486564 0.642847 0.0977493
0.513375 0.643824 0.0987259
0.540261 0.644785 0.0996872
0.567208 0.645716 0.100633
0.594232 0.646647 0.101564
0.621317 0.647562 0.102464
0.648478 0.648478 0.10338
0.675685 0.649363 0.104265
0.702953 0.650248 0.10515
0.730282 0.651118 0.106035
0.757671 0.651987 0.106889
0.785092 0.652842 0.107744
0.812573 0.653681 0.108583
0.840116 0.654521 0.109422
0.867689 0.655344 0.110262
0.894621 0.656016 0.110994
0.920485 0.656428 0.111604
0.0765087 0.651743 0.0801251
0.0965438 0.653941 0.0824292
0.119539 0.655528 0.0840925
0.144244 0.65684 0.0854658
0.170291 0.657862 0.0866712
0.196109 0.658946 0.088014
0.221927 0.660029 0.0892805
0.247822 0.661112 0.0904097
0.273808 0.662181 0.0915084
0.299901 0.663233 0.0925765
0.326085 0.664271 0.0936294
0.352758 0.665431 0.094728
0.380026 0.666789 0.0959487
0.407843 0.668345 0.097261
0.435447 0.669795 0.0985122
0.462669 0.671046 0.0996567
0.489479 0.672084 0.100664
0.516304 0.67306 0.101656
0.543191 0.674037 0.102617
0.570169 0.674998 0.103578
0.597192 0.675944 0.104524
0.624308 0.67686 0.105455
0.651469 0.677791 0.106371
0.678691 0.678691 0.107271
0.705974 0.679591 0.108171
0.733318 0.680476 0.109056
0.760708 0.681346 0.109941
0.788159 0.682216 0.110811
0.815656 0.68307 0.111666
0.843198 0.683925 0.112505
0.870787 0.684764 0.113359
0.898421 0.685603 0.114183
0.926421 0.686336 0.114931
0.0828412 0.68072 0.0829175
0.104479 0.682857 0.0850233
0.127077 0.684474 0.0866255
0.149874 0.685817 0.0880903
0.17409 0.686793 0.0894331
0.19913 0.68777 0.0907454
0.224765 0.688838 0.0920272
0.25066 0.689921 0.0932326
0.276661 0.691005 0.0943313
0.302754 0.692058 0.0954147
0.328923 0.693095 0.0964828
0.355398 0.694209 0.0975509
0.382422 0.695537 0.0987259
0.41004 0.697124 0.0999924
0.437873 0.698787 0.101289
0.465339 0.700206 0.102495
0.492393 0.701381 0.103578
0.519219 0.702373 0.10457
0.546136 0.703365 0.105562
0.573114 0.704326 0.106523
0.600153 0.705287 0.107485
0.627283 0.706233 0.108431
0.654459 0.707164 0.109361
0.681697 0.70808 0.110277
0.708995 0.708995 0.111192
0.736339 0.709895 0.112093
0.763745 0.710781 0.112978
0.791211 0.71165 0.113863
0.818708 0.71252 0.114733
0.846281 0.71339 0.115587
0.873884 0.714244 0.116442
0.901534 0.715084 0.117296
0.929534 0.715846 0.118044
0.0856031 0.709865 0.0856031
0.107942 0.712001 0.0877546
0.131975 0.713695 0.0894484
0.156329 0.715206 0.0909743
0.180713 0.716503 0.0923934
0.20499 0.717525 0.0936904
0.229419 0.718334 0.0949111
0.254292 0.719112 0.0961013
0.279744 0.719982 0.0972
0.305653 0.720958 0.0982681
0.331792 0.721981 0.0993362
0.358099 0.723033 0.100404
0.384924 0.724315 0.101518
0.412329 0.725887 0.102754
0.440284 0.727749 0.104082
0.467964 0.729366 0.105333
0.495247 0.730709 0.106477
0.522148 0.731746 0.1075
0.549065 0.732738 0.108492
0.576059 0.73373 0.109483
0.603128 0.734691 0.110445
0.630259 0.735653 0.111406
0.657435 0.736599 0.112337
0.684688 0.73753 0.113283
0.712001 0.738445 0.114199
0.739361 0.739361 0.115114
0.766781 0.740261 0.116014
0.794247 0.741161 0.116899
0.821775 0.742046 0.117784
0.849348 0.742916 0.118654
0.876966 0.743786 0.119524
0.904616 0.74464 0.120378
0.932631 0.745403 0.121141
0.0882887 0.739055 0.0882887
0.110643 0.741222 0.0904402
0.134691 0.742931 0.0921492
