public/filters/konnect/Presets B Darker Skin Tone/Highlights v2_28.2021-06-15 11-45-45.cube
TITLE "Generated by Resolve"
LUT_3D_SIZE 9
0.00195315 0.0182498 0.0211032
0.0822156 0.0127871 0.0191653
0.191867 0.0184024 0.0237888
0.294301 0.022858 0.028275
0.409613 0.0274662 0.0289158
0.521477 0.0287938 0.0287938
0.628 0.0301976 0.0301976
0.735592 0.0316014 0.0316014
0.844434 0.0329442 0.0329442
0.0314946 0.120623 0.0314946
0.124926 0.124926 0.0357977
0.224643 0.127916 0.0386511
0.314946 0.133577 0.0390631
0.413062 0.138094 0.0438849
0.53843 0.134874 0.0457465
0.64564 0.136965 0.047837
0.753841 0.138994 0.0498665
0.863233 0.140871 0.0517433
0.0413214 0.227588 0.0413214
0.135637 0.232792 0.0465095
0.228092 0.239216 0.0482185
0.327092 0.243931 0.0502632
0.432364 0.246632 0.0538643
0.550683 0.245563 0.0588846
0.659358 0.247837 0.0615549
0.768002 0.250294 0.0640269
0.877806 0.252583 0.0663157
0.0514534 0.337972 0.0514534
0.143465 0.344594 0.0569467
0.242817 0.34934 0.0603799
0.347127 0.352743 0.0639506
0.451911 0.356085 0.0672007
0.561181 0.358557 0.070985
0.672221 0.360922 0.0744182
0.781201 0.363729 0.0772106
0.891325 0.366339 0.0798352
0.061799 0.450614 0.061799
0.157092 0.456779 0.0679637
0.258808 0.461357 0.0725414
0.362997 0.46537 0.0765393
0.465995 0.469169 0.0795148
0.572213 0.472526 0.0828412
0.684672 0.47567 0.0868696
0.793942 0.478767 0.0899519
0.904326 0.481651 0.0928359
0.0722972 0.564981 0.0722972
0.167926 0.571481 0.0787976
0.269963 0.576349 0.0836805
0.374502 0.580652 0.0879835
0.480735 0.584604 0.0919203
0.588281 0.588281 0.095613
0.696895 0.591775 0.0990921
0.806409 0.595102 0.102419
0.916579 0.598276 0.105608
0.0828412 0.68072 0.0829175
0.17409 0.686793 0.0894331
0.276661 0.691005 0.0943313
0.382422 0.695537 0.0987259
0.492393 0.701381 0.103578
0.600153 0.705287 0.107485
0.708995 0.708995 0.111192
0.818708 0.71252 0.114733
0.929534 0.715846 0.118044
0.0848402 0.795377 0.0944076
0.178744 0.799756 0.100862
0.283818 0.80351 0.105104
0.388495 0.807019 0.109255
0.50309 0.818387 0.115007
0.611978 0.823301 0.11931
0.721004 0.827192 0.123201
0.830915 0.830915 0.126925
0.941909 0.834409 0.130419
0.104219 0.915709 0.104219
0.200565 0.922911 0.111421
0.302937 0.927581 0.117189
0.40209 0.924163 0.121126
0.511284 0.932296 0.125933
0.623484 0.94229 0.130816
0.732677 0.946365 0.134874
0.842771 0.950256 0.138781
0.953918 0.953918 0.142443
0.022446 0.022446 0.111574
0.113756 0.0246281 0.113756
0.208148 0.0246433 0.119158
0.3084 0.0259251 0.124132
0.41268 0.0283207 0.126085
0.522942 0.0306706 0.120394
0.629969 0.032166 0.121294
0.737636 0.0336461 0.122774
0.84654 0.03505 0.124178
0.0331884 0.122332 0.122332
0.120195 0.127703 0.129274
0.213733 0.131777 0.136492
0.317708 0.134722 0.139422
0.420035 0.13814 0.142977
0.534539 0.138537 0.140124
0.647822 0.139147 0.139147
0.756085 0.141222 0.141222
0.865507 0.14316 0.14316
0.0433356 0.229618 0.132464
0.137728 0.234882 0.137728
0.238621 0.238621 0.141466
0.341711 0.241962 0.144884
0.435706 0.247776 0.15285
0.531472 0.252872 0.161776
0.661707 0.250172 0.153033
0.770382 0.252674 0.15552
0.880217 0.254994 0.157855
0.053666 0.340185 0.142809
0.148608 0.345983 0.148608
0.249989 0.350225 0.152834
0.34844 0.355016 0.158373
0.449973 0.358816 0.163226
0.556207 0.361791 0.166506
0.673838 0.36347 0.166262
0.783688 0.366217 0.168841
0.893828 0.368856 0.171481
0.0641642 0.452979 0.153292
0.159503 0.459174 0.159503
0.25951 0.463966 0.164767
0.360662 0.46804 0.169772
0.466499 0.471489 0.173373
0.572381 0.474769 0.177096
0.683482 0.47808 0.179507
0.796521 0.481346 0.181659
0.90692 0.484245 0.184573
0.0747845 0.567452 0.163912
0.170443 0.573983 0.170443
0.272496 0.578897 0.175341
0.377066 0.583215 0.179675
0.483253 0.587167 0.183673
0.587167 0.58999 0.188296
0.694377 0.59324 0.192004
0.809064 0.597757 0.194217
0.919707 0.600885 0.197345
0.0854963 0.683299 0.174624
0.18143 0.690105 0.18143
0.283421 0.69514 0.186755
0.386526 0.698848 0.192004
0.494438 0.703731 0.195575
0.602853 0.707973 0.199298
0.711696 0.711696 0.203037
0.821439 0.715251 0.206592
0.93228 0.718593 0.209918
0.0963149 0.800305 0.185458
0.192386 0.807294 0.192538
0.291112 0.809766 0.200092
0.395331 0.813458 0.204822
0.502617 0.818402 0.208484
0.61474 0.826047 0.211185
0.723781 0.829969 0.215106
0.833707 0.833707 0.218845
0.944717 0.837217 0.22237
0.106935 0.918425 0.196063
0.195819 0.919387 0.208682
0.297276 0.920195 0.21503
0.402411 0.924163 0.218891
0.50779 0.927489 0.222782
0.625422 0.943709 0.223362
0.735515 0.949203 0.226841
0.845609 0.953109 0.230747
0.956786 0.956786 0.234424
0.0227207 0.0227207 0.208988
0.114504 0.0253758 0.211658
0.213458 0.0271763 0.213458
0.315206 0.028809 0.215381
0.416159 0.0299535 0.222568
0.52134 0.0319829 0.224399
0.631403 0.0336004 0.219883
0.739147 0.0351568 0.221439
0.848112 0.0366217 0.222904
0.0343786 0.123522 0.220661
0.128038 0.128038 0.225193
0.22829 0.131151 0.22829
0.32665 0.134661 0.235065
0.427756 0.138064 0.240406
0.533135 0.140719 0.242618
0.648737 0.140978 0.238437
0.757778 0.142916 0.24007
0.867247 0.1449 0.242039
0.044831 0.231113 0.231098
0.139284 0.236439 0.236439
0.235142 0.241489 0.243412
0.331334 0.246494 0.252247
0.435828 0.249531 0.255283
0.538964 0.252934 0.258885
0.66305 0.252064 0.252186
0.772213 0.254505 0.254505
0.882078 0.256855 0.25687
0.0553597 0.341863 0.241627
0.150332 0.347723 0.247486
0.251759 0.351995 0.251759
0.355718 0.355718 0.255482
0.46099 0.359182 0.259113
0.553506 0.363867 0.269215
0.646571 0.369604 0.279866
0.785626 0.368154 0.267918
0.895811 0.370825 0.270588
0.06598 0.454795 0.252262
0.161364 0.461036 0.258503
0.263142 0.465675 0.263142
0.367453 0.469749 0.267216
0.46743 0.473289 0.273426
0.56939 0.476265 0.278798
0.676448 0.479423 0.282109
0.797513 0.483314 0.281163
0.90898 0.486305 0.283772
0.0767071 0.56939 0.262989
0.172396 0.575952 0.269551
0.274479 0.58088 0.274479
0.37734 0.584894 0.279637
0.479957 0.5879 0.284947
0.586969 0.591394 0.288594
0.69369 0.594522 0.292439
0.810636 0.599756 0.293599
0.921843 0.603021 0.29662
0.0875257 0.685328 0.273808
0.18349 0.692149 0.280629
0.285817 0.697337 0.285817
0.390646 0.70193 0.29041
0.497169 0.706157 0.294636
0.604898 0.710063 0.298619
0.709285 0.711772 0.303563
0.817258 0.714855 0.307378
0.934478 0.72079 0.30927
0.0984207 0.802411 0.284703
0.194614 0.809461 0.291752
0.297154 0.814878 0.297154
0.401877 0.819409 0.302144
0.50663 0.822187 0.307393
0.616205 0.82768 0.31078
0.726009 0.832181 0.314473
0.83595 0.83595 0.318242
0.94699 0.839475 0.321767
0.109117 0.920607 0.295384
0.205493 0.927855 0.302632
0.308446 0.933257 0.308568
0.409751 0.933288 0.315969
0.515251 0.936431 0.320653
0.623835 0.941817 0.324193
0.737789 0.951476 0.326268
0.847913 0.955398 0.33019
0.959106 0.959106 0.333883
0.0229953 0.0229953 0.309514
0.115145 0.0260166 0.31252
0.213336 0.0277714 0.31574
0.314137 0.0292821 0.320256
0.418296 0.0312657 0.322194
0.523613 0.0332036 0.324102
0.631998 0.0349126 0.32253
0.740459 0.0364691 0.322988
0.849485 0.037995 0.324514
0.0354009 0.124529 0.321904
0.129168 0.129168 0.326543
0.229496 0.132357 0.329732
0.332494 0.135119 0.332494
0.437095 0.137682 0.335225
0.53814 0.141253 0.341726
0.644633 0.14374 0.343969
0.759274 0.144411 0.341802
0.868788 0.146426 0.343816
0.046128 0.23241 0.332647
0.140658 0.237797 0.338033
0.241642 0.241657 0.341894
0.345235 0.244999 0.345235
0.445502 0.249104 0.352117
0.547173 0.252888 0.357488
0.653498 0.255741 0.35993
0.772885 0.256306 0.356802
0.883741 0.258534 0.35877
0.0568399 0.343359 0.343343
0.151858 0.349248 0.349248
0.25333 0.353567 0.353567
0.352087 0.358114 0.360571
0.448356 0.362219 0.369558
0.553124 0.365316 0.372641
0.656626 0.368612 0.376211
0.778439 0.370626 0.373068
0.897566 0.372595 0.372595
0.0676127 0.456413 0.354116
0.163012 0.462699 0.360403
0.264836 0.467369 0.365072
0.369177 0.471473 0.369177
0.475227 0.475227 0.37293
0.582071 0.478691 0.376623
0.67219 0.480674 0.386572
0.76405 0.486534 0.397665
0.910842 0.488167 0.385855
0.0784466 0.571115 0.36495
0.174166 0.577707 0.371542
0.276265 0.582666 0.376501
0.38088 0.587045 0.38088
0.487205 0.591073 0.384909
0.587671 0.592874 0.390829
0.68954 0.594659 0.396017
0.79736 0.598016 0.39942
0.922179 0.604776 0.399145
0.0882582 0.687007 0.376593
0.185336 0.693996 0.382712
0.287678 0.699214 0.387915
0.392538 0.703822 0.392538
0.497169 0.707118 0.397482
0.600534 0.708873 0.402564
0.708507 0.712413 0.406226
0.815869 0.715328 0.410086
0.930526 0.720806 0.412589
0.0979019 0.803449 0.38854
0.196536 0.811383 0.393912
0.299092 0.816815 0.399329
0.404166 0.821637 0.404166
0.510918 0.826093 0.408606
0.618936 0.830259 0.412772
0.727901 0.834134 0.416754
0.83238 0.834531 0.421515
0.940978 0.83743 0.42533
0.111147 0.922301 0.398047
0.207477 0.929839 0.404868
0.310246 0.935454 0.410483
0.415488 0.940475 0.415488
0.522332 0.944549 0.420554
0.628153 0.946395 0.425574
0.739254 0.95259 0.429068
0.850004 0.957504 0.432517
0.961196 0.961196 0.436225
0.0213016 0.0229496 0.413016
0.115694 0.0265812 0.415396
0.21503 0.028748 0.417563
0.317205 0.0306859 0.419501
0.421317 0.0325017 0.421317
0.52694 0.0342718 0.423087
0.633783 0.0359808 0.424796
0.74165 0.0376745 0.42649
0.85037 0.0393378 0.428214
0.0363012 0.125444 0.425116
0.130175 0.130175 0.429847
0.230594 0.13344 0.433127
0.332586 0.136492 0.436835
0.435279 0.139605 0.441215
0.541161 0.142153 0.443626
0.647898 0.144625 0.445975
0.75935 0.14609 0.446159
0.870207 0.147845 0.447532
0.0473182 0.233585 0.436133
0.141894 0.239033 0.441566
0.242939 0.242939 0.445472
0.346563 0.246326 0.448875
0.451957 0.249424 0.451957
0.558434 0.252354 0.454994
0.659571 0.256291 0.460868
0.767544 0.258976 0.463233
0.885267 0.26006 0.462593
0.0581979 0.344717 0.447013
0.153262 0.350652 0.452949
0.254765 0.355001 0.457298
0.358816 0.358816 0.461112
0.464576 0.36228 0.464576
0.565576 0.365896 0.470817
0.667277 0.369299 0.475715
0.774548 0.372335 0.478309
0.897658 0.37438 0.476936
0.0689403 0.457938 0.458
0.164538 0.464225 0.464225
0.266392 0.468925 0.468925
0.370748 0.47306 0.47306
0.471092 0.476463 0.479301
0.566629 0.478309 0.486793
0.671702 0.481437 0.489921
0.775525 0.48455 0.493385
0.903883 0.489464 0.491691
0.0725567 0.573098 0.472862
0.175784 0.579339 0.475471
0.277928 0.584329 0.480461
0.382574 0.588724 0.484871
0.488914 0.592767 0.488914
0.596551 0.596551 0.492683
0.704616 0.599939 0.496391
0.790967 0.598199 0.504952
0.88072 0.60383 0.516274
0.080415 0.687617 0.485847
0.187045 0.695705 0.486717
0.289418 0.700954 0.491951
0.394293 0.705592 0.49659
0.500862 0.70985 0.500862
0.608728 0.713848 0.50486
0.708965 0.713542 0.509865
0.810361 0.713863 0.514427
0.918593 0.717327 0.517968
0.0861219 0.800992 0.500465
0.19826 0.813153 0.498024
0.300908 0.818616 0.503441
0.405997 0.823468 0.508293
0.512749 0.827924 0.512749
0.61854 0.830442 0.517357
0.722179 0.830808 0.521859
0.830991 0.834363 0.525567
0.938384 0.836789 0.529381
0.10602 0.919997 0.506691
0.207507 0.929976 0.510567
0.312108 0.937331 0.514641
0.41738 0.942351 0.519677
0.524315 0.94699 0.524315
0.632547 0.951354 0.528679
0.741802 0.955489 0.532815
0.852094 0.959228 0.537072
0.955825 0.957809 0.541344
0.0186007 0.0230259 0.518318
0.116228 0.0271 0.519783
0.215702 0.0294347 0.522103
0.317998 0.0314946 0.524163
0.422217 0.033402 0.526085
0.527916 0.0352483 0.527916
0.634836 0.0370336 0.529702
0.742046 0.0388952 0.532479
0.848463 0.0411078 0.536889
0.0371405 0.126284 0.529824
0.13109 0.13109 0.53463
0.231586 0.134447 0.537987
0.334722 0.137346 0.540887
0.439658 0.139986 0.543526
0.545998 0.142458 0.545998
0.653468 0.144808 0.548348
0.761913 0.147066 0.550607
0.871519 0.149157 0.552712
0.0484016 0.234684 0.541085
0.143038 0.240177 0.546578
0.244144 0.244144 0.550546
0.347814 0.247578 0.553979
0.452064 0.250965 0.557717
0.555993 0.254429 0.561776
0.663172 0.257267 0.564462
0.772808 0.259709 0.566567
0.886717 0.261494 0.567895
0.0594644 0.345968 0.552132
0.154574 0.351949 0.558114
0.256107 0.356344 0.562509
0.360189 0.360189 0.566354
0.465995 0.363699 0.569863
0.573129 0.366964 0.573129
0.680949 0.370077 0.576333
0.783444 0.373373 0.580713
0.899367 0.375906 0.582193
0.0704814 0.459297 0.563165
0.165957 0.465644 0.569512
0.267842 0.47039 0.574243
0.372244 0.47454 0.578408
0.478355 0.478355 0.582223
0.585779 0.48191 0.585779
0.686717 0.484337 0.590829
0.788174 0.4869 0.594842
0.911711 0.491402 0.595712
0.0747997 0.574517 0.577157
0.17731 0.58085 0.58085
0.279469 0.58587 0.58587
0.384146 0.590311 0.590311
0.490517 0.594369 0.594369
0.591424 0.596201 0.59942
0.685222 0.594858 0.604501
0.790509 0.598016 0.607675
0.902388 0.602777 0.610376
0.0839551 0.689326 0.589288
0.188647 0.697322 0.592187
0.291051 0.702571 0.597452
0.395956 0.70724 0.602121
0.502541 0.711528 0.606409
0.610422 0.715541 0.610422
0.719356 0.719356 0.614221
0.828305 0.722591 0.617884
0.918212 0.719188 0.623346
0.088014 0.802594 0.604044
0.2 0.814862 0.60354
0.302602 0.820325 0.609003
0.407721 0.825193 0.61387
0.514504 0.829679 0.618357
0.622568 0.833875 0.622568
0.731685 0.837858 0.626551
0.829694 0.834211 0.630137
0.926177 0.83061 0.633677
0.109102 0.922454 0.610666
0.209339 0.931792 0.615839
0.313878 0.939086 0.620279
0.419165 0.944137 0.62533
0.526116 0.948791 0.629984
0.634363 0.95317 0.634363
0.741207 0.954757 0.638788
0.844755 0.953567 0.642481
0.953643 0.956695 0.646174
0.0238804 0.0238804 0.621683
0.116732 0.0276036 0.625391
0.216342 0.0300755 0.627878
0.318746 0.0322423 0.630045
0.423056 0.0342412 0.632044
0.528832 0.0361639 0.633967
0.635813 0.0380102 0.635813
0.743801 0.039826 0.637629
0.852674 0.0415961 0.639414
0.0352636 0.127626 0.636271
0.13196 0.13196 0.640635
0.232532 0.135393 0.644053
0.335729 0.138354 0.647013
0.440726 0.141039 0.649714
0.547112 0.143572 0.652247
0.654627 0.145968 0.654627
0.763119 0.148257 0.656931
0.870954 0.150851 0.659495
0.049424 0.235706 0.647227
0.144121 0.24126 0.652796
0.245274 0.245274 0.656794
0.348989 0.248753 0.660288
0.454459 0.251926 0.663462
0.561288 0.254887 0.666423
0.669215 0.257694 0.669215
0.778073 0.260365 0.671885
0.888075 0.262852 0.674388
0.0606546 0.347173 0.658457
0.155795 0.353185 0.664469
0.257374 0.35761 0.66891
0.361486 0.361486 0.672786
0.467338 0.365042 0.676326
0.573068 0.368429 0.679866
0.677714 0.371725 0.68336
0.787778 0.37464 0.686061
0.90219 0.377218 0.688502
0.071809 0.460624 0.669612
0.167315 0.467002 0.67599
0.26923 0.471763 0.680751
0.373663 0.475959 0.684947
0.479789 0.479789 0.688792
0.587243 0.483375 0.692363
0.695766 0.486763 0.695766
0.804852 0.489967 0.699016
0.915129 0.493095 0.702113
0.0829633 0.575631 0.680766
0.178759 0.5823 0.687434
0.280949 0.58735 0.69247
0.385641 0.591806 0.696925
0.492027 0.595895 0.70103
0.599725 0.599725 0.704845
0.708461 0.603342 0.708461
0.808606 0.604028 0.71191
0.925628 0.6094 0.715175
0.0887617 0.691173 0.693614
0.190188 0.698848 0.698848
0.292607 0.704128 0.704128
0.397528 0.708812 0.708812
0.504143 0.71313 0.71313
0.612039 0.717159 0.717159
0.712566 0.716899 0.720638
0.80293 0.711254 0.72253
0.916396 0.717784 0.726299
0.102785 0.808362 0.70399
0.201602 0.816464 0.710277
0.304234 0.821942 0.715755
0.409354 0.826841 0.720653
0.516152 0.831342 0.725155
0.624247 0.835554 0.729366
0.733379 0.839567 0.733379
0.843381 0.843381 0.737209
0.953567 0.846723 0.74081
0.101183 0.918624 0.71989
0.212741 0.935103 0.721416
0.315557 0.94078 0.727092
0.420874 0.945846 0.732158
0.52784 0.950515 0.736828
0.636088 0.95491 0.741222
0.745388 0.959075 0.745388
0.855558 0.963058 0.749371
0.945449 0.951141 0.750149
0.0241855 0.0241855 0.728176
0.117205 0.0280766 0.732052
0.216953 0.0306706 0.734661
0.319448 0.0329442 0.736934
0.42385 0.0350347 0.739025
0.529702 0.0370184 0.741009
0.636744 0.038941 0.742931
0.744793 0.0408026 0.744793
0.851301 0.0431983 0.748486
0.0386664 0.127794 0.742657
0.132784 0.132784 0.747631
0.233417 0.136278 0.751125
0.336675 0.1393 0.754162
0.441733 0.142046 0.756909
0.548165 0.144625 0.759487
0.655741 0.147066 0.761929
0.764263 0.149401 0.764263
0.873945 0.151583 0.766445
0.0502022 0.236744 0.754391
0.144305 0.242542 0.760006
0.246342 0.246342 0.76405
0.350103 0.249866 0.76759
0.455619 0.253086 0.770794
0.562493 0.256092 0.7738
0.670451 0.258915 0.776638
0.779339 0.261631 0.779339
0.889357 0.264149 0.781872
0.0617838 0.348302 0.765774
0.15697 0.35436 0.771832
0.258595 0.358831 0.776303
0.362737 0.362737 0.780209
0.468605 0.366308 0.783795
0.575799 0.36965 0.787121
0.684077 0.372793 0.790265
0.793271 0.375799 0.793271
0.903578 0.378607 0.796078
0.0730602 0.461875 0.77705
0.168597 0.468284 0.783459
0.270542 0.473075 0.788251
0.375006 0.477302 0.792477
0.481163 0.481163 0.796338
0.588647 0.484779 0.799954
0.69543 0.487999 0.803189
0.802319 0.491005 0.806134
0.917174 0.494499 0.809674
0.0843214 0.576989 0.788312
0.180148 0.583688 0.794995
0.282353 0.588754 0.800076
0.387076 0.59324 0.804547
0.493492 0.59736 0.808667
0.601205 0.601205 0.812512
0.709972 0.604837 0.816159
0.819638 0.608316 0.819638
0.930388 0.611582 0.822889
0.0955825 0.693385 0.799558
0.191653 0.700313 0.8065
0.294087 0.705623 0.81181
0.399039 0.710323 0.81651
0.505669 0.714656 0.820844
0.613581 0.718715 0.824903
0.72256 0.72256 0.828733
0.83241 0.726223 0.83241
0.943358 0.729671 0.835859
0.105913 0.810452 0.810971
0.203143 0.81799 0.81799
0.305791 0.823499 0.823499
0.410925 0.828412 0.828412
0.517754 0.832929 0.832929
0.625849 0.837171 0.837171
0.734997 0.841184 0.841184
0.828489 0.834607 0.841321
0.914717 0.823972 0.839048
0.117876 0.929366 0.821866
0.214343 0.936706 0.829206
0.317174 0.942397 0.834897
0.422507 0.947478 0.839979
0.529488 0.952163 0.844663
0.637766 0.956573 0.849073
0.747066 0.960754 0.853254
0.857267 0.964767 0.857267
0.968521 0.968521 0.861021
0.0244602 0.0244602 0.83595
0.117632 0.0285039 0.839994
0.217502 0.03122 0.84271
0.320104 0.0335851 0.845075
0.424567 0.0357671 0.847257
0.530495 0.0378271 0.849302
0.637598 0.0397955 0.851286
0.745708 0.0417182 0.853208
0.854994 0.0435187 0.855009
0.0393378 0.128481 0.850828
0.133532 0.133532 0.855894
0.234241 0.137102 0.859449
0.33756 0.140185 0.862531
0.442664 0.142992 0.865339
0.549142 0.145602 0.867964
0.656764 0.148089 0.870451
0.765332 0.150469 0.872831
0.874159 0.152956 0.874678
0.0513008 0.237583 0.862791
0.14609 0.243244 0.868452
0.247333 0.247333 0.872557
0.351156 0.250919 0.876127
0.456703 0.25417 0.879377
0.563607 0.257206 0.882414
0.671595 0.260075 0.885283
0.780529 0.262821 0.888029
0.890578 0.26537 0.890578
0.0628367 0.349355 0.874327
0.158068 0.355459 0.88043
0.259724 0.35996 0.884932
0.363897 0.363897 0.888884
0.46981 0.367514 0.892485
0.577035 0.370871 0.895842
0.685344 0.374044 0.899031
0.794553 0.377081 0.902068
0.904891 0.379919 0.904891
0.0742351 0.46305 0.885725
0.169818 0.46949 0.892164
0.271778 0.474327 0.896986
0.376272 0.478569 0.901244
0.48246 0.48246 0.905135
0.58996 0.486091 0.908766
0.698528 0.48954 0.912215
0.807996 0.492821 0.915496
0.918563 0.495888 0.918563
0.0855879 0.578271 0.897078
0.181445 0.584985 0.903807
0.28368 0.590082 0.908904
0.388434 0.594598 0.913405
0.494865 0.598733 0.91754
0.602594 0.602594 0.921416
0.711391 0.606256 0.925078
0.821073 0.609766 0.928573
0.931853 0.613031 0.931853
0.0969253 0.694743 0.908415
0.193027 0.701701 0.915389
0.295491 0.707027 0.920714
0.400458 0.711757 0.925444
0.507118 0.716106 0.929793
0.615045 0.72018 0.933867
0.724041 0.724041 0.937728
0.833921 0.727733 0.941421
0.944884 0.731197 0.944884
0.108278 0.812268 0.919768
0.204593 0.819455 0.926955
0.307271 0.824979 0.932479
0.412421 0.829892 0.937392
0.519265 0.83444 0.941939
0.627375 0.838697 0.946197
0.736553 0.842741 0.95024
0.846601 0.846601 0.954101
0.957732 0.850233 0.957732
0.119371 0.930861 0.930861
0.215869 0.938216 0.938216
0.318715 0.943923 0.943923
0.424048 0.949035 0.94902
0.53106 0.953735 0.953735
0.639338 0.95816 0.95816
0.748669 0.962356 0.962356
0.858869 0.966369 0.966369
0.970626 0.970626 0.970626
