public/filters/konnect/Presets B Darker Skin Tone/Highlights v2_28.2021-06-15 11-45-45.cube
TITLE "Generated by Resolve"
LUT_3D_SIZE 5
0.00195315 0.0182498 0.0211032
0.191867 0.0184024 0.0237888
0.409613 0.0274662 0.0289158
0.628 0.0301976 0.0301976
0.844434 0.0329442 0.0329442
0.0413214 0.227588 0.0413214
0.228092 0.239216 0.0482185
0.432364 0.246632 0.0538643
0.659358 0.247837 0.0615549
0.877806 0.252583 0.0663157
0.061799 0.450614 0.061799
0.258808 0.461357 0.0725414
0.465995 0.469169 0.0795148
0.684672 0.47567 0.0868696
0.904326 0.481651 0.0928359
0.0828412 0.68072 0.0829175
0.276661 0.691005 0.0943313
0.492393 0.701381 0.103578
0.708995 0.708995 0.111192
0.929534 0.715846 0.118044
0.104219 0.915709 0.104219
0.302937 0.927581 0.117189
0.511284 0.932296 0.125933
0.732677 0.946365 0.134874
0.953918 0.953918 0.142443
0.0227207 0.0227207 0.208988
0.213458 0.0271763 0.213458
0.416159 0.0299535 0.222568
0.631403 0.0336004 0.219883
0.848112 0.0366217 0.222904
0.044831 0.231113 0.231098
0.235142 0.241489 0.243412
0.435828 0.249531 0.255283
0.66305 0.252064 0.252186
0.882078 0.256855 0.25687
0.06598 0.454795 0.252262
0.263142 0.465675 0.263142
0.46743 0.473289 0.273426
0.676448 0.479423 0.282109
0.90898 0.486305 0.283772
0.0875257 0.685328 0.273808
0.285817 0.697337 0.285817
0.497169 0.706157 0.294636
0.709285 0.711772 0.303563
0.934478 0.72079 0.30927
0.109117 0.920607 0.295384
0.308446 0.933257 0.308568
0.515251 0.936431 0.320653
0.737789 0.951476 0.326268
0.959106 0.959106 0.333883
0.0213016 0.0229496 0.413016
0.21503 0.028748 0.417563
0.421317 0.0325017 0.421317
0.633783 0.0359808 0.424796
0.85037 0.0393378 0.428214
0.0473182 0.233585 0.436133
0.242939 0.242939 0.445472
0.451957 0.249424 0.451957
0.659571 0.256291 0.460868
0.885267 0.26006 0.462593
0.0689403 0.457938 0.458
0.266392 0.468925 0.468925
0.471092 0.476463 0.479301
0.671702 0.481437 0.489921
0.903883 0.489464 0.491691
0.080415 0.687617 0.485847
0.289418 0.700954 0.491951
0.500862 0.70985 0.500862
0.708965 0.713542 0.509865
0.918593 0.717327 0.517968
0.10602 0.919997 0.506691
0.312108 0.937331 0.514641
0.524315 0.94699 0.524315
0.741802 0.955489 0.532815
0.955825 0.957809 0.541344
0.0238804 0.0238804 0.621683
0.216342 0.0300755 0.627878
0.423056 0.0342412 0.632044
0.635813 0.0380102 0.635813
0.852674 0.0415961 0.639414
0.049424 0.235706 0.647227
0.245274 0.245274 0.656794
0.454459 0.251926 0.663462
0.669215 0.257694 0.669215
0.888075 0.262852 0.674388
0.071809 0.460624 0.669612
0.26923 0.471763 0.680751
0.479789 0.479789 0.688792
0.695766 0.486763 0.695766
0.915129 0.493095 0.702113
0.0887617 0.691173 0.693614
0.292607 0.704128 0.704128
0.504143 0.71313 0.71313
0.712566 0.716899 0.720638
0.916396 0.717784 0.726299
0.101183 0.918624 0.71989
0.315557 0.94078 0.727092
0.52784 0.950515 0.736828
0.745388 0.959075 0.745388
0.945449 0.951141 0.750149
0.0244602 0.0244602 0.83595
0.217502 0.03122 0.84271
0.424567 0.0357671 0.847257
0.637598 0.0397955 0.851286
0.854994 0.0435187 0.855009
0.0513008 0.237583 0.862791
0.247333 0.247333 0.872557
0.456703 0.25417 0.879377
0.671595 0.260075 0.885283
0.890578 0.26537 0.890578
0.0742351 0.46305 0.885725
0.271778 0.474327 0.896986
0.48246 0.48246 0.905135
0.698528 0.48954 0.912215
0.918563 0.495888 0.918563
0.0969253 0.694743 0.908415
0.295491 0.707027 0.920714
0.507118 0.716106 0.929793
0.724041 0.724041 0.937728
0.944884 0.731197 0.944884
0.119371 0.930861 0.930861
0.318715 0.943923 0.943923
0.53106 0.953735 0.953735
0.748669 0.962356 0.962356
0.970626 0.970626 0.970626
