public/filters/konnect/Presets B Darker Skin Tone/Stylish v2.cube_32.2021-06-15 11-45-45.cube
TITLE "Generated by Resolve"
LUT_3D_SIZE 33
0.0744793 0.128435 0.204791
0.0910658 0.128283 0.204135
0.115648 0.128511 0.203449
0.140154 0.128695 0.203067
0.164523 0.128557 0.202792
0.188724 0.128145 0.20206
0.212955 0.127382 0.200595
0.237293 0.126284 0.198184
0.261646 0.124788 0.194644
0.286076 0.122835 0.189822
0.310536 0.1205 0.1841
0.334981 0.117998 0.177996
0.359289 0.115358 0.171618
0.382437 0.111879 0.164813
0.404349 0.107179 0.157366
0.425376 0.10103 0.148775
0.447333 0.0949111 0.139422
0.470588 0.089601 0.130373
0.494881 0.085481 0.122316
0.519509 0.0818036 0.11519
0.544411 0.0784619 0.10901
0.569543 0.0754253 0.103716
0.594812 0.072694 0.0991684
0.620249 0.0703288 0.0955062
0.646052 0.0685435 0.0932631
0.673121 0.0681163 0.0945144
0.701579 0.0691997 0.0996719
0.731472 0.07187 0.109255
0.762631 0.0760357 0.12343
0.794034 0.0809491 0.140383
0.823194 0.0843824 0.153079
0.850462 0.0864729 0.161379
0.876356 0.087541 0.166079
0.0851453 0.147021 0.205783
0.102235 0.147417 0.20531
0.119203 0.148486 0.203616
0.137743 0.150149 0.201038
0.158618 0.151781 0.198535
0.181537 0.152468 0.196719
0.205386 0.152132 0.195239
0.229541 0.151034 0.193301
0.253895 0.149523 0.190188
0.27834 0.147539 0.185733
0.302739 0.145052 0.179828
0.32697 0.142153 0.172671
0.351019 0.13901 0.16492
0.374746 0.135271 0.157305
0.398093 0.130098 0.150118
0.421317 0.123278 0.143084
0.444938 0.115877 0.135943
0.46923 0.109682 0.12845
0.493858 0.105013 0.12105
0.518608 0.101503 0.114305
0.543679 0.0983444 0.108553
0.56907 0.0956283 0.103929
0.594766 0.0932937 0.100313
0.620676 0.091371 0.0976272
0.646677 0.0897688 0.0956588
0.673503 0.0892348 0.0962692
0.701549 0.090074 0.100359
0.730877 0.0923934 0.10837
0.76141 0.0961624 0.120562
0.792981 0.101274 0.13727
0.822934 0.105455 0.151659
0.850858 0.108156 0.161486
0.877272 0.109697 0.167498
0.0833143 0.165438 0.20351
0.102022 0.16553 0.204181
0.120943 0.165393 0.204013
0.14052 0.165103 0.203571
0.160479 0.165255 0.202152
0.181094 0.166278 0.199329
0.202747 0.168292 0.195056
0.225727 0.170123 0.190249
0.249699 0.170733 0.185443
0.274083 0.169619 0.180484
0.298528 0.167361 0.174746
0.32282 0.164492 0.167987
0.346868 0.161257 0.16025
0.370657 0.157794 0.152056
0.394339 0.152956 0.144533
0.418311 0.146487 0.13817
0.443107 0.138369 0.132891
0.468605 0.131289 0.127626
0.494316 0.125978 0.122148
0.519707 0.122591 0.116655
0.545129 0.119753 0.111635
0.570748 0.117189 0.107301
0.596567 0.114946 0.103777
0.622599 0.113115 0.101152
0.648692 0.11162 0.0992447
0.675258 0.110903 0.0991379
0.702937 0.111543 0.102327
0.731823 0.113634 0.109163
0.761883 0.117144 0.119936
0.793133 0.122148 0.135332
0.823606 0.126909 0.150713
0.852049 0.130159 0.161746
0.878889 0.132143 0.168826
0.0810407 0.184604 0.200534
0.0999771 0.185046 0.202029
0.11902 0.185092 0.202152
0.13875 0.184909 0.201801
0.159228 0.184451 0.200946
0.180453 0.183658 0.199405
0.202304 0.182712 0.19678
0.224659 0.182101 0.192447
0.247562 0.182406 0.18645
0.271046 0.183505 0.179141
0.294942 0.184436 0.171283
0.31902 0.184283 0.163455
0.343099 0.182712 0.155962
0.367056 0.180041 0.148516
0.390982 0.17615 0.141451
0.415442 0.170321 0.135683
0.440986 0.162768 0.131548
0.467781 0.154803 0.128206
0.494743 0.148898 0.124651
0.521294 0.145098 0.120775
0.54725 0.142687 0.116716
0.57319 0.140307 0.112764
0.5991 0.138064 0.109041
0.62501 0.136049 0.105852
0.650935 0.134371 0.103334
0.67718 0.133364 0.102296
0.704356 0.133623 0.104219
0.732708 0.135378 0.109712
0.762234 0.138613 0.119036
0.792966 0.143359 0.132738
0.823713 0.148547 0.148379
0.85272 0.152453 0.160784
0.880049 0.154971 0.1691
0.0783398 0.204486 0.196735
0.0974746 0.205341 0.199176
0.11667 0.205646 0.199802
0.136538 0.205585 0.199542
0.157092 0.205188 0.198596
0.178393 0.204395 0.19678
0.200366 0.203113 0.193866
0.222934 0.201282 0.189624
0.246098 0.199039 0.18439
0.269764 0.196933 0.178378
0.293736 0.19559 0.171542
0.3178 0.195453 0.164004
0.341817 0.196231 0.156359
0.365637 0.19704 0.148898
0.389303 0.197009 0.14197
0.413657 0.194141 0.136538
0.439307 0.188357 0.132784
0.466941 0.180163 0.130449
0.495003 0.173465 0.128038
0.522622 0.168933 0.12517
0.549142 0.166567 0.121828
0.575463 0.164431 0.118395
0.601617 0.162295 0.11487
0.627573 0.16022 0.111376
0.653376 0.158312 0.108217
0.679332 0.156985 0.106279
0.705928 0.156741 0.106737
0.73373 0.158099 0.110872
0.762737 0.161028 0.118853
0.792966 0.165545 0.131121
0.823575 0.170871 0.146105
0.853071 0.175402 0.159609
0.880781 0.178424 0.168917
0.0752575 0.225147 0.192508
0.0945602 0.226398 0.195743
0.113924 0.227039 0.197009
0.133913 0.227222 0.197192
0.15462 0.227146 0.196963
0.176074 0.226612 0.195682
0.198199 0.225528 0.193194
0.22092 0.223835 0.189227
0.24416 0.221378 0.183474
0.267857 0.21828 0.176364
0.292088 0.215137 0.169406
0.316762 0.212284 0.162966
0.341695 0.2103 0.157092
0.366613 0.209705 0.151644
0.39115 0.210437 0.146349
0.415518 0.21062 0.141268
0.440543 0.208652 0.137087
0.467323 0.2038 0.134066
0.495262 0.198154 0.131487
0.523171 0.193729 0.128786
0.550332 0.190982 0.125856
0.576974 0.18909 0.122911
0.60351 0.187228 0.119966
0.629801 0.185336 0.116884
0.655772 0.183444 0.11371
0.681697 0.181979 0.11136
0.70782 0.181231 0.110491
0.734981 0.182025 0.113039
0.763333 0.184482 0.119432
0.792935 0.188632 0.130068
0.823087 0.193774 0.143709
0.852827 0.19881 0.157733
0.880903 0.202304 0.167926
0.0718242 0.246525 0.187747
0.0912795 0.248173 0.19176
0.102144 0.256153 0.189822
0.12195 0.258885 0.187808
0.142321 0.261585 0.185824
0.164675 0.262623 0.184909
0.188525 0.262135 0.184939
0.212772 0.261494 0.184665
0.2374 0.260578 0.183764
0.262425 0.259342 0.182071
0.28777 0.257725 0.179461
0.313268 0.255695 0.175799
0.338842 0.253376 0.17145
0.364431 0.250996 0.166827
0.389944 0.248631 0.162081
0.415869 0.245136 0.157717
0.442603 0.240101 0.153887
0.470665 0.233265 0.150179
0.498695 0.226764 0.145327
0.525994 0.221546 0.139528
0.55227 0.21796 0.133532
0.578347 0.215045 0.128145
0.604486 0.212467 0.123552
0.630625 0.210224 0.119661
0.656657 0.20824 0.116274
0.682612 0.206683 0.113725
0.708644 0.205768 0.112428
0.735546 0.206332 0.11426
0.763516 0.20853 0.119646
0.792615 0.21239 0.128985
0.822507 0.217563 0.141894
0.852354 0.223011 0.156161
0.880613 0.226902 0.166903
0.06804 0.268818 0.183047
0.0876326 0.270848 0.187686
0.10721 0.272114 0.190066
0.12665 0.273442 0.190204
0.14583 0.276036 0.188861
0.165286 0.279805 0.186252
0.18616 0.283268 0.183536
0.208988 0.284977 0.181781
0.23328 0.285008 0.180743
0.258442 0.284001 0.179583
0.283955 0.282597 0.177508
0.309651 0.280751 0.174395
0.335409 0.278447 0.170169
0.361089 0.275746 0.164981
0.386664 0.272862 0.15938
0.412436 0.269429 0.154131
0.439063 0.264668 0.149844
0.467063 0.258427 0.146334
0.495933 0.251743 0.142718
0.524086 0.246281 0.138048
0.551141 0.242283 0.132769
0.577401 0.239384 0.127581
0.603738 0.236866 0.123232
0.630167 0.234791 0.119829
0.65658 0.233143 0.11722
0.682963 0.231952 0.11548
0.709178 0.231159 0.114412
0.735897 0.231495 0.115618
0.763424 0.233326 0.119905
0.791867 0.236698 0.127611
0.821057 0.241398 0.138628
0.850736 0.246998 0.152392
0.879255 0.251453 0.163912
0.0640116 0.291402 0.177035
0.083711 0.293965 0.18262
0.103395 0.295689 0.185809
0.12369 0.296529 0.186999
0.144671 0.296986 0.187472
0.1664 0.297292 0.187671
0.188434 0.298085 0.186984
0.21059 0.299825 0.184924
0.232853 0.302556 0.181369
0.255955 0.304921 0.177401
0.280217 0.305867 0.173678
0.305531 0.305043 0.17023
0.33135 0.30309 0.166384
0.357259 0.300572 0.161791
0.383017 0.297673 0.15639
0.408576 0.294575 0.150607
0.434791 0.290379 0.145663
0.462364 0.284932 0.141939
0.491844 0.278202 0.139315
0.521233 0.27245 0.136431
0.549661 0.268162 0.132891
0.576638 0.265354 0.128771
0.603281 0.26302 0.12491
0.629908 0.260975 0.121645
0.656474 0.259312 0.119051
0.682979 0.258122 0.117342
0.709316 0.257359 0.11632
0.735836 0.257435 0.11693
0.763027 0.258946 0.120302
0.790967 0.261906 0.126757
0.819562 0.266209 0.136263
0.848753 0.271626 0.14876
0.877317 0.276432 0.16051
0.0598154 0.314641 0.170947
0.0796063 0.317678 0.177172
0.0993668 0.319768 0.180941
0.119753 0.320912 0.182605
0.140795 0.321492 0.183139
0.162585 0.321798 0.183276
0.185153 0.321828 0.182986
0.208469 0.321523 0.182193
0.232395 0.321035 0.18056
0.256596 0.32079 0.177584
0.280797 0.321202 0.17319
0.304875 0.322148 0.167636
0.329091 0.322789 0.161669
0.353735 0.322377 0.15581
0.378912 0.32076 0.150317
0.404364 0.318242 0.14493
0.430213 0.314809 0.139925
0.457435 0.310079 0.136187
0.486656 0.304295 0.134051
0.517159 0.298558 0.132921
0.546883 0.294438 0.131441
0.57528 0.291859 0.129442
0.602472 0.290135 0.126879
0.629465 0.288396 0.124254
0.656199 0.286748 0.121752
0.682704 0.285328 0.1196
0.708949 0.28426 0.118013
0.735241 0.28394 0.1178
0.76202 0.284932 0.120027
0.789441 0.287404 0.125154
0.817472 0.291279 0.133227
0.846143 0.296407 0.14435
0.874571 0.301411 0.15584
0.0555734 0.33817 0.164141
0.0754101 0.341772 0.17116
0.0952316 0.34432 0.175601
0.115663 0.34583 0.17789
0.136751 0.346639 0.178775
0.158572 0.347036 0.178958
0.181155 0.347097 0.178607
0.204501 0.346761 0.177646
0.228565 0.345983 0.175921
0.253315 0.344671 0.173281
0.27866 0.343008 0.169986
0.304326 0.341405 0.166155
0.329915 0.340322 0.161654
0.355032 0.339986 0.156451
0.37966 0.340124 0.150927
0.404013 0.340139 0.145357
0.428443 0.339452 0.140154
0.454398 0.336919 0.136233
0.482719 0.332586 0.133806
0.513558 0.327016 0.132998
0.544167 0.322621 0.132204
0.573587 0.319707 0.130968
0.601282 0.31812 0.129076
0.628565 0.316625 0.12694
0.655512 0.315038 0.124605
0.682078 0.313451 0.122194
0.708247 0.312016 0.119982
0.734325 0.311208 0.118868
0.760662 0.311543 0.119753
0.787594 0.313451 0.123552
0.815122 0.316869 0.130343
0.84329 0.321691 0.140215
0.871412 0.32668 0.150988
0.0513161 0.362249 0.157519
0.0711833 0.366369 0.165148
0.0910048 0.369345 0.170138
0.111482 0.371191 0.17293
0.132616 0.372274 0.174258
0.154452 0.372885 0.174731
0.177066 0.37322 0.174884
0.200427 0.373083 0.174289
0.224537 0.372457 0.172869
0.249332 0.371252 0.170474
0.274739 0.36939 0.166918
0.300649 0.367025 0.16257
0.326986 0.364645 0.158358
0.353567 0.362524 0.154482
0.380056 0.360967 0.150835
0.406027 0.36025 0.147204
0.431174 0.360235 0.143359
0.456336 0.359731 0.139513
0.482902 0.357855 0.13637
0.511727 0.354421 0.134371
0.541619 0.350729 0.132967
0.571069 0.347906 0.131609
0.599344 0.346136 0.130053
0.626856 0.344839 0.128359
0.654093 0.343511 0.126543
0.680903 0.342077 0.124498
0.70721 0.340597 0.122271
0.733272 0.339529 0.120699
0.759258 0.339193 0.120394
0.785702 0.340368 0.122759
0.81268 0.34316 0.128038
0.840253 0.347448 0.136416
0.867948 0.352224 0.14609
0.0471504 0.386679 0.151003
0.0670329 0.391318 0.159182
0.0868696 0.39472 0.164767
0.107332 0.396948 0.168139
0.126467 0.400214 0.168002
0.147677 0.401801 0.167895
0.169711 0.403159 0.167605
0.19292 0.403845 0.167544
0.217182 0.403906 0.167727
0.242145 0.403723 0.167636
0.267765 0.40322 0.167041
0.29395 0.402365 0.165911
0.320531 0.401144 0.164141
0.347387 0.399542 0.161715
0.374411 0.397711 0.158907
0.401465 0.395834 0.155978
0.428351 0.394003 0.152926
0.455451 0.391867 0.14992
0.483345 0.389166 0.147051
0.512276 0.385748 0.144289
0.54136 0.382162 0.141131
0.569909 0.378927 0.137575
0.597635 0.376318 0.133989
0.624949 0.374136 0.130755
0.652079 0.372244 0.127993
0.67892 0.370535 0.125536
0.705348 0.368963 0.123217
0.731441 0.367727 0.121462
0.757366 0.367086 0.120623
0.783536 0.367819 0.122133
0.810147 0.370123 0.126345
0.837308 0.374014 0.133516
0.864744 0.378698 0.142412
0.0430457 0.411994 0.145632
0.0629282 0.416922 0.153948
0.0827497 0.420584 0.159701
0.103227 0.423041 0.163302
0.124361 0.424628 0.165377
0.145953 0.425696 0.166033
0.167941 0.426963 0.166033
0.190372 0.428397 0.165484
0.213611 0.429587 0.164721
0.237934 0.430121 0.164157
0.263325 0.430014 0.163684
0.289494 0.429389 0.162951
0.316106 0.428367 0.161578
0.343038 0.426963 0.159548
0.370138 0.425162 0.156847
0.397269 0.423056 0.153597
0.424338 0.420829 0.150149
0.451514 0.418479 0.146883
0.479469 0.415747 0.143969
0.508309 0.41268 0.141405
0.537575 0.409461 0.138827
0.566323 0.406455 0.135729
0.594308 0.403784 0.132311
0.621729 0.401511 0.129046
0.648951 0.399542 0.126284
0.675944 0.397925 0.124071
0.702632 0.396628 0.122332
0.729015 0.395727 0.121187
0.755077 0.395178 0.120516
0.781201 0.395682 0.121553
0.807568 0.397574 0.124849
0.834318 0.4009 0.130648
0.861326 0.405142 0.138216
0.0391241 0.437079 0.13959
0.0589609 0.44242 0.14815
0.0787366 0.446494 0.154299
0.0991379 0.449317 0.158373
0.120226 0.451225 0.160906
0.142 0.452308 0.162081
0.164523 0.45304 0.162783
0.187793 0.453574 0.163256
0.211627 0.454032 0.163272
0.23592 0.454505 0.162646
0.260578 0.454963 0.161257
0.285817 0.455116 0.159503
0.311803 0.454673 0.157626
0.338491 0.453605 0.155612
0.365591 0.452018 0.153262
0.392844 0.450065 0.150454
0.420035 0.447852 0.147173
0.447074 0.445487 0.143694
0.474739 0.442847 0.14049
0.503288 0.440009 0.137881
0.532769 0.437018 0.135805
0.562097 0.434302 0.133669
0.590753 0.431876 0.131212
0.618555 0.429816 0.128527
0.645975 0.427939 0.126009
0.673136 0.426307 0.123812
0.699962 0.424964 0.122042
0.726467 0.424048 0.120867
0.752651 0.423468 0.12018
0.778729 0.423728 0.120745
0.804959 0.425284 0.123354
0.831418 0.428214 0.128191
0.858137 0.432151 0.134813
0.0350195 0.463066 0.134554
0.0548104 0.468635 0.142977
0.0745098 0.472908 0.149126
0.0948501 0.475944 0.153292
0.115862 0.477974 0.155917
0.137606 0.479133 0.157137
0.160067 0.479774 0.157626
0.183276 0.48014 0.157824
0.207248 0.480247 0.157717
0.231983 0.480018 0.157198
0.257389 0.479484 0.156176
0.283299 0.478676 0.154437
0.309392 0.477775 0.152026
0.335561 0.476768 0.149065
0.361883 0.475486 0.1458
0.388464 0.473838 0.142443
0.415305 0.471839 0.139132
0.442252 0.469566 0.135805
0.469642 0.467018 0.13257
0.497932 0.464378 0.129992
0.527214 0.461921 0.128405
0.557046 0.459831 0.127565
0.586374 0.458335 0.126894
0.614939 0.457313 0.126223
0.642771 0.456367 0.1252
0.670268 0.455253 0.123903
0.697322 0.454093 0.122438
0.723949 0.453025 0.121096
0.750195 0.452186 0.120027
0.776242 0.452079 0.120043
0.802304 0.453223 0.121874
0.828519 0.455726 0.12578
0.854963 0.459388 0.131579
0.0307927 0.489189 0.129229
0.0505226 0.494942 0.137453
0.0700847 0.499626 0.143877
0.0903334 0.502937 0.148272
0.111269 0.505135 0.150988
0.132937 0.506386 0.152331
0.155322 0.507027 0.152789
0.178485 0.507301 0.152819
0.20238 0.507301 0.152529
0.227039 0.506981 0.151873
0.252445 0.506264 0.150744
0.278569 0.505104 0.149065
0.305241 0.503639 0.147021
0.332265 0.502083 0.144747
0.359335 0.500557 0.142245
0.386221 0.499138 0.139513
0.412848 0.49778 0.136675
0.439277 0.496345 0.133776
0.465934 0.494667 0.130877
0.493584 0.492638 0.128405
0.522393 0.490547 0.126726
0.552361 0.488594 0.125963
0.582116 0.487205 0.125582
0.61117 0.48632 0.125338
0.639323 0.485756 0.124956
0.667048 0.484977 0.124178
0.694331 0.483955 0.123003
0.721126 0.482765 0.121553
0.747448 0.481575 0.120043
0.773465 0.480949 0.119326
0.799359 0.481437 0.120119
0.82533 0.483406 0.123018
0.851484 0.486702 0.127916
0.0264439 0.515373 0.123674
0.0461433 0.521172 0.131487
0.0655528 0.526253 0.138109
0.0856641 0.5299 0.142763
0.106477 0.532357 0.145724
0.128038 0.533776 0.14725
0.150332 0.534508 0.147845
0.173388 0.534798 0.14789
0.197208 0.534859 0.147738
0.221775 0.534585 0.147173
0.247135 0.533913 0.146197
0.273243 0.53283 0.144717
0.299992 0.531273 0.142641
0.327214 0.529381 0.140154
0.354742 0.527535 0.137804
0.382422 0.525841 0.135683
0.41001 0.524407 0.133745
0.437232 0.523201 0.131899
0.464195 0.522087 0.129931
0.491432 0.520699 0.127794
0.519387 0.519127 0.125948
0.548394 0.51754 0.124727
0.577813 0.516197 0.12401
0.606928 0.515328 0.123659
0.63537 0.514885 0.123552
0.663294 0.514473 0.123308
0.690806 0.513863 0.122744
0.717845 0.512947 0.121736
0.744366 0.511772 0.120363
0.770489 0.510872 0.11931
0.796307 0.510704 0.119203
0.82208 0.511955 0.121004
0.847929 0.514626 0.124743
0.0218967 0.542 0.118547
0.0416724 0.547494 0.125582
0.0609751 0.552804 0.132158
0.0809033 0.556802 0.137057
0.101534 0.559655 0.140475
0.122911 0.561547 0.142626
0.14522 0.561761 0.142336
0.168185 0.562295 0.142763
0.191913 0.5626 0.142947
0.216388 0.562692 0.142947
0.241627 0.562661 0.14287
0.267597 0.562448 0.142626
0.294224 0.56199 0.142138
0.321401 0.561288 0.141344
0.348989 0.560296 0.140215
0.376852 0.559014 0.138735
0.404837 0.557595 0.137072
0.432807 0.556191 0.135439
0.460731 0.554772 0.13373
0.488746 0.553231 0.131807
0.516915 0.551629 0.129854
0.545357 0.550011 0.128054
0.574121 0.548424 0.126452
0.602823 0.547051 0.125124
0.631251 0.546029 0.124178
0.659281 0.545266 0.123491
0.686946 0.544503 0.122759
0.714153 0.543633 0.121859
0.740887 0.54255 0.120668
0.767178 0.541604 0.119631
0.793072 0.54107 0.119112
0.818769 0.541772 0.120134
0.844404 0.543801 0.122835
0.0168917 0.569863 0.114855
0.0368505 0.574899 0.120974
0.0561227 0.57998 0.12694
0.0759899 0.583917 0.131533
0.0965896 0.586786 0.134783
0.117952 0.588663 0.136797
0.140063 0.589868 0.138018
0.162982 0.590463 0.138491
0.186648 0.590799 0.13872
0.211078 0.590967 0.138781
0.23624 0.590967 0.138705
0.262165 0.590814 0.138521
0.288746 0.590524 0.138201
0.315877 0.590005 0.137667
0.343465 0.589227 0.136812
0.371374 0.588159 0.135653
0.399466 0.586831 0.134157
0.427558 0.585275 0.132403
0.45568 0.583673 0.130602
0.484031 0.582025 0.128771
0.512551 0.580362 0.12697
0.541146 0.57882 0.125338
0.569741 0.577401 0.123857
0.59826 0.576074 0.12253
0.626612 0.574975 0.121447
0.654734 0.574197 0.120745
0.682521 0.573465 0.120104
0.70988 0.572793 0.119509
0.736797 0.572106 0.118883
0.763287 0.571557 0.11841
0.789334 0.571145 0.118059
0.815045 0.571588 0.11873
0.840558 0.573068 0.120653
0.0116884 0.597726 0.111009
0.0319829 0.602121 0.116136
0.0513924 0.606973 0.121523
0.0712749 0.611017 0.125978
0.0918288 0.614084 0.12932
0.113115 0.616251 0.131609
0.135103 0.617761 0.133165
0.1579 0.618631 0.133974
0.181476 0.619181 0.134447
0.205814 0.619486 0.134691
0.2309 0.619547 0.134707
0.256764 0.619379 0.134478
0.28333 0.618982 0.134035
0.31046 0.618433 0.13344
0.338033 0.6177 0.132677
0.365957 0.616785 0.131701
0.394064 0.615641 0.130495
0.422248 0.614298 0.129061
0.450416 0.612757 0.127413
0.478843 0.611032 0.125597
0.507439 0.609277 0.123766
0.536095 0.607706 0.122164
0.564767 0.606378 0.120867
0.593347 0.60528 0.119829
0.62179 0.604349 0.119005
0.650004 0.603677 0.118441
0.677897 0.602991 0.117891
0.705394 0.602319 0.117311
0.732433 0.601617 0.116716
0.759045 0.601053 0.116274
0.785183 0.60058 0.115892
0.810941 0.600717 0.116197
0.836378 0.601831 0.117601
0.00622568 0.626017 0.10753
0.0266117 0.630213 0.112001
0.0455482 0.635019 0.116655
0.0650492 0.639155 0.120607
0.0854047 0.642145 0.1234
0.106477 0.644205 0.125246
0.128313 0.645548 0.126375
0.150927 0.646189 0.126833
0.174319 0.646403 0.126894
0.198611 0.646418 0.126909
0.223987 0.646204 0.126986
0.250523 0.645792 0.127062
0.277913 0.64509 0.126879
0.305653 0.644083 0.126146
0.333532 0.642863 0.124971
0.361517 0.641489 0.123583
0.3897 0.640024 0.122118
0.417929 0.638498 0.120577
0.446128 0.636881 0.118975
0.474525 0.635096 0.11722
0.503136 0.633188 0.115373
0.531777 0.631617 0.113863
0.560357 0.63064 0.112993
0.58883 0.630289 0.112764
0.617151 0.630472 0.113085
0.645274 0.631052 0.113848
0.673167 0.631464 0.114412
0.700725 0.631449 0.11458
0.727855 0.631144 0.114397
0.753292 0.630457 0.11371
0.776837 0.629465 0.112581
0.798321 0.628748 0.111635
0.820478 0.629099 0.11194
0 0.655467 0.101991
0.0154421 0.659419 0.106218
0.0356146 0.663767 0.110765
0.057084 0.667353 0.114839
0.0787213 0.670146 0.117998
0.10042 0.672129 0.120165
0.122621 0.673289 0.121416
0.145495 0.673747 0.12192
0.169039 0.673793 0.121996
0.193271 0.673579 0.121813
0.218448 0.673274 0.121691
0.244724 0.672908 0.121691
0.272221 0.67245 0.121752
0.300313 0.671626 0.12134
0.328557 0.670466 0.120409
0.356695 0.669078 0.119127
0.384894 0.667689 0.1178
0.413138 0.666392 0.116594
0.441291 0.665171 0.115465
0.469627 0.663859 0.11426
0.498177 0.662364 0.112886
0.526848 0.660914 0.111559
0.555489 0.659831 0.110613
0.584009 0.659297 0.110185
0.612345 0.659373 0.110338
0.640452 0.659968 0.111009
0.668315 0.660655 0.111772
0.695888 0.660929 0.112169
0.723095 0.660761 0.112123
0.749889 0.660227 0.111757
0.776257 0.659434 0.111131
0.801175 0.658732 0.110567
0.824094 0.658503 0.110399
0 0.682185 0.0992294
0.0124208 0.686183 0.102708
0.0318761 0.690517 0.106645
0.0531777 0.694179 0.110521
0.0747539 0.69723 0.113802
0.0963607 0.699443 0.116121
0.118456 0.700801 0.11754
0.141222 0.70135 0.118135
0.164675 0.70135 0.118196
0.188846 0.701045 0.117952
0.213733 0.700648 0.117662
0.239673 0.700267 0.11751
0.266758 0.699947 0.117479
0.294926 0.699565 0.117464
0.323384 0.698665 0.116838
0.351873 0.697322 0.115709
0.380133 0.695827 0.114366
0.408438 0.694484 0.113161
0.436622 0.693355 0.112154
0.464866 0.692302 0.111238
0.493339 0.691203 0.110262
0.521965 0.689998 0.109209
0.550622 0.688945 0.108293
0.579171 0.688258 0.107713
0.607538 0.68809 0.107607
0.635645 0.688487 0.108003
0.663478 0.689235 0.108721
0.69102 0.689815 0.1093
0.718242 0.689937 0.109514
0.745083 0.689616 0.109331
0.771542 0.688884 0.108782
0.797513 0.688167 0.108293
0.823026 0.687907 0.108202
0 0.710262 0.0977493
0.0133059 0.713558 0.100984
0.032578 0.717586 0.104417
0.0518196 0.721202 0.107469
0.0719768 0.724254 0.110201
0.0928817 0.726589 0.112413
0.114611 0.728389 0.114183
0.137041 0.729656 0.11548
0.16083 0.728237 0.114199
0.184741 0.728359 0.114412
0.209369 0.728191 0.114351
0.234897 0.727947 0.11426
0.261509 0.727962 0.114397
0.289265 0.728237 0.114794
0.317647 0.728344 0.114992
0.34612 0.727916 0.114687
0.374487 0.72694 0.113832
0.402853 0.725628 0.112703
0.431205 0.724269 0.111528
0.459525 0.722957 0.110399
0.488045 0.721645 0.10927
0.516716 0.720348 0.108141
0.545419 0.719188 0.107149
0.574029 0.718349 0.106416
0.602472 0.717845 0.105974
0.630655 0.7178 0.105928
0.658534 0.718135 0.106188
0.686091 0.718624 0.1066
0.713314 0.718791 0.106783
0.740185 0.718624 0.106691
0.766674 0.718044 0.106294
0.792721 0.717388 0.105852
0.818296 0.716869 0.105547
0 0.739712 0.0962844
0.00965896 0.742229 0.098909
0.0305943 0.745785 0.102144
0.0508888 0.749325 0.105303
0.071107 0.752544 0.108125
0.0915847 0.754803 0.110124
0.112596 0.756069 0.111284
0.134371 0.756588 0.111849
0.157061 0.756741 0.112108
0.180697 0.756588 0.112123
0.205158 0.756298 0.112001
0.230411 0.755932 0.111788
0.256703 0.75581 0.111727
0.284092 0.756069 0.11194
0.312459 0.756573 0.112291
0.341009 0.756603 0.112245
0.369497 0.756039 0.111711
0.397803 0.754894 0.110735
0.426169 0.753552 0.109606
0.454536 0.752071 0.10837
0.483116 0.750515 0.107088
0.511818 0.74905 0.105852
0.540551 0.747707 0.104723
0.569177 0.746792 0.103929
0.597589 0.746258 0.103426
0.625788 0.74609 0.103197
0.653681 0.746181 0.103182
0.681208 0.746548 0.10341
0.708415 0.746715 0.103487
0.735286 0.746624 0.10341
0.761776 0.746273 0.103166
0.787839 0.74583 0.102876
0.813458 0.745342 0.102586
0 0.769177 0.0950179
0.0053254 0.771115 0.0971084
0.0269627 0.774121 0.0998245
0.0476692 0.777218 0.102525
0.0683452 0.780331 0.105211
0.0893568 0.782879 0.107424
0.110796 0.784741 0.109087
0.132708 0.785794 0.110124
0.155093 0.786099 0.110582
0.178134 0.785748 0.110536
0.201907 0.785122 0.110262
0.22649 0.78439 0.10985
0.252186 0.783902 0.109529
0.279149 0.783856 0.109438
0.307317 0.784314 0.10959
0.335973 0.784588 0.10959
0.364599 0.784314 0.109209
0.392966 0.783429 0.108415
0.421256 0.782238 0.107408
0.449577 0.780896 0.10631
0.478096 0.779324 0.105043
0.506813 0.777676 0.103716
0.535607 0.77612 0.102434
0.564263 0.774975 0.101457
0.592676 0.774319 0.100816
0.620813 0.774121 0.100496
0.648692 0.774151 0.100359
0.676204 0.774426 0.100404
0.703426 0.774533 0.100359
0.730312 0.774365 0.10016
0.756832 0.773922 0.099794
0.782956 0.773373 0.0993973
0.808652 0.772717 0.09897
0 0.797848 0.09337
0.000137331 0.799451 0.0951247
0.02327 0.802258 0.0976272
