public/filters/konnect/Presets B Darker Skin Tone/Stylish v2.cube_32.2021-06-15 11-45-45.cube
TITLE "Generated by Resolve"
LUT_3D_SIZE 9
0.0744793 0.128435 0.204791
0.164523 0.128557 0.202792
0.261646 0.124788 0.194644
0.359289 0.115358 0.171618
0.447333 0.0949111 0.139422
0.544411 0.0784619 0.10901
0.646052 0.0685435 0.0932631
0.762631 0.0760357 0.12343
0.876356 0.087541 0.166079
0.0783398 0.204486 0.196735
0.157092 0.205188 0.198596
0.246098 0.199039 0.18439
0.341817 0.196231 0.156359
0.439307 0.188357 0.132784
0.549142 0.166567 0.121828
0.653376 0.158312 0.108217
0.762737 0.161028 0.118853
0.880781 0.178424 0.168917
0.0640116 0.291402 0.177035
0.144671 0.296986 0.187472
0.232853 0.302556 0.181369
0.33135 0.30309 0.166384
0.434791 0.290379 0.145663
0.549661 0.268162 0.132891
0.656474 0.259312 0.119051
0.763027 0.258946 0.120302
0.877317 0.276432 0.16051
0.0471504 0.386679 0.151003
0.126467 0.400214 0.168002
0.217182 0.403906 0.167727
0.320531 0.401144 0.164141
0.428351 0.394003 0.152926
0.54136 0.382162 0.141131
0.652079 0.372244 0.127993
0.757366 0.367086 0.120623
0.864744 0.378698 0.142412
0.0307927 0.489189 0.129229
0.111269 0.505135 0.150988
0.20238 0.507301 0.152529
0.305241 0.503639 0.147021
0.412848 0.49778 0.136675
0.522393 0.490547 0.126726
0.639323 0.485756 0.124956
0.747448 0.481575 0.120043
0.851484 0.486702 0.127916
0.0116884 0.597726 0.111009
0.0918288 0.614084 0.12932
0.181476 0.619181 0.134447
0.28333 0.618982 0.134035
0.394064 0.615641 0.130495
0.507439 0.609277 0.123766
0.62179 0.604349 0.119005
0.732433 0.601617 0.116716
0.836378 0.601831 0.117601
0 0.710262 0.0977493
0.0719768 0.724254 0.110201
0.16083 0.728237 0.114199
0.261509 0.727962 0.114397
0.374487 0.72694 0.113832
0.488045 0.721645 0.10927
0.602472 0.717845 0.105974
0.713314 0.718791 0.106783
0.818296 0.716869 0.105547
0 0.823224 0.090135
0.0551308 0.828519 0.096849
0.144213 0.832609 0.101427
0.242115 0.829526 0.100099
0.358007 0.833722 0.100633
0.471946 0.827939 0.0961929
0.585809 0.822889 0.0919966
0.694011 0.827176 0.0929274
0.798749 0.826871 0.0918898
0 0.940078 0.0852369
0.0494087 0.94522 0.0904097
0.135729 0.949004 0.0941634
0.227329 0.937133 0.092134
0.334646 0.936721 0.0901198
0.450599 0.937743 0.0871443
0.564706 0.930251 0.0817121
0.673167 0.930251 0.0780804
0.776638 0.931334 0.0753185
0.0856336 0.125597 0.271641
0.162875 0.124895 0.273487
0.255024 0.121386 0.276555
0.355627 0.112535 0.262211
0.455543 0.10222 0.24126
0.555993 0.0891737 0.214496
0.6598 0.0799725 0.199313
0.76701 0.079942 0.208316
0.873732 0.085832 0.231571
0.0784314 0.202914 0.265385
0.156664 0.205432 0.269871
0.24654 0.211856 0.274693
0.346471 0.204669 0.259373
0.447791 0.197192 0.243992
0.556161 0.184375 0.229709
0.667536 0.172915 0.21622
0.774105 0.172473 0.219501
0.881422 0.179675 0.241596
0.0651102 0.291127 0.247913
0.145937 0.297963 0.260197
0.238041 0.298299 0.260304
0.340383 0.292058 0.24802
0.440055 0.292439 0.235935
0.541634 0.287449 0.224506
0.664469 0.270069 0.211048
0.770687 0.268711 0.210437
0.878874 0.278676 0.234485
0.0488594 0.390051 0.227909
0.130312 0.400137 0.242725
0.222477 0.402411 0.244785
0.321294 0.404303 0.241123
0.426184 0.398383 0.229099
0.532891 0.388632 0.214084
0.653468 0.377066 0.204273
0.760937 0.372549 0.198795
0.866835 0.381628 0.216297
0.03299 0.492943 0.204791
0.113619 0.507073 0.223026
0.204288 0.51017 0.225208
0.30338 0.510109 0.222614
0.412451 0.502937 0.213138
0.521721 0.495628 0.203769
0.635416 0.490898 0.199481
0.75082 0.487755 0.19707
0.854902 0.49279 0.204944
0.0146792 0.599619 0.182467
0.094377 0.616907 0.201083
0.18407 0.62179 0.205478
0.28603 0.621469 0.204578
0.39704 0.616648 0.199329
0.50547 0.610529 0.193591
0.616541 0.6047 0.188174
0.734874 0.603876 0.18674
0.838712 0.603784 0.187167
0 0.713893 0.169375
0.0780041 0.727764 0.181994
0.166827 0.732372 0.186007
0.266285 0.731456 0.185657
0.377035 0.728756 0.182773
0.491188 0.723247 0.177646
0.605615 0.717357 0.172503
0.716152 0.718273 0.173205
0.820874 0.717449 0.172763
0 0.828016 0.160494
0.0652934 0.838529 0.169162
0.149676 0.840299 0.175189
0.248112 0.835065 0.172549
0.357015 0.829236 0.167697
0.475395 0.827726 0.162325
0.589364 0.821698 0.157458
0.697704 0.82504 0.157824
0.801404 0.82768 0.158297
0 0.940688 0.152453
0.051133 0.944671 0.158618
0.133059 0.938674 0.165148
0.228382 0.932128 0.163119
0.331579 0.924361 0.159091
0.452293 0.933806 0.152605
0.567849 0.930587 0.147158
0.676585 0.929412 0.143114
0.779568 0.931395 0.140612
0.0843977 0.123842 0.354894
0.162097 0.123888 0.357961
0.252369 0.120806 0.357855
0.3523 0.110597 0.340841
0.456748 0.100114 0.324895
0.558221 0.0901656 0.305562
0.660761 0.0798199 0.284108
0.766171 0.0787213 0.289128
0.873274 0.0854353 0.31429
0.0775921 0.201312 0.346258
0.157397 0.204517 0.353994
0.249195 0.204303 0.356695
0.350545 0.203006 0.352712
0.451987 0.193729 0.330434
0.555093 0.186404 0.315877
0.666392 0.174838 0.300923
0.77438 0.172869 0.302342
0.881163 0.180026 0.324025
0.065095 0.290501 0.3299
0.146471 0.298619 0.344854
0.239033 0.299931 0.347189
0.339757 0.303853 0.347951
0.441825 0.297444 0.330282
0.542672 0.287755 0.309163
0.656458 0.273594 0.292805
0.771282 0.269413 0.292607
0.879011 0.279271 0.316747
0.049485 0.391531 0.313008
0.131273 0.402075 0.328649
0.223621 0.404395 0.330617
0.327886 0.402518 0.327367
0.436515 0.39324 0.31078
0.531395 0.390204 0.2981
0.62855 0.384237 0.287083
0.760815 0.373754 0.280522
0.867826 0.383093 0.299413
0.0344244 0.493904 0.287648
0.114778 0.509239 0.307759
0.205585 0.51339 0.311711
0.308629 0.51194 0.308812
0.410925 0.507744 0.300954
0.517403 0.496956 0.286336
0.625132 0.489097 0.276829
0.747341 0.4878 0.276692
0.856077 0.494087 0.286564
0.0165103 0.600824 0.264149
0.0958877 0.619104 0.284215
0.185336 0.62501 0.289769
0.287434 0.624018 0.287739
0.394247 0.621057 0.285252
0.504402 0.611734 0.275517
0.614115 0.60238 0.266194
0.72636 0.600046 0.263661
0.840009 0.603265 0.265324
0 0.715557 0.250095
0.0796216 0.731243 0.264469
0.167193 0.738933 0.27126
0.268162 0.735927 0.268055
0.378836 0.730465 0.262654
0.492607 0.722469 0.255436
0.59971 0.71368 0.250538
0.706767 0.711803 0.249851
0.821653 0.717739 0.251118
0 0.826719 0.237583
0.0678416 0.840452 0.248005
0.153521 0.848981 0.254582
0.252018 0.845273 0.252277
0.360708 0.836728 0.24654
0.474968 0.82829 0.239933
0.590799 0.821485 0.233951
0.699458 0.821897 0.232746
0.802655 0.826169 0.234119
0 0.940352 0.228656
0.0547494 0.949432 0.234363
0.138308 0.957214 0.239292
0.230625 0.945785 0.239918
0.33785 0.934112 0.233921
0.448646 0.927214 0.228229
0.568765 0.928588 0.221576
0.677409 0.927321 0.217212
0.781415 0.931075 0.21532
0.0828565 0.121767 0.44361
0.161288 0.122698 0.447883
0.251759 0.120623 0.449546
0.354467 0.114733 0.446143
0.459953 0.105333 0.433143
0.56376 0.0944228 0.412848
0.664332 0.0830549 0.388312
0.766354 0.0779889 0.380362
0.872618 0.084535 0.403433
0.0769207 0.203204 0.442847
0.157122 0.204288 0.444175
0.248753 0.204257 0.446494
0.351797 0.200275 0.442557
0.458244 0.191745 0.42739
0.563592 0.185412 0.413428
0.664103 0.178592 0.396857
0.774456 0.173571 0.394217
0.88098 0.180209 0.413962
0.0646982 0.289937 0.418952
0.146761 0.298604 0.434424
0.239582 0.300435 0.437736
0.34406 0.299031 0.437171
0.448234 0.299397 0.433326
0.552285 0.289815 0.412879
0.654536 0.280552 0.394049
0.767269 0.272648 0.386191
0.878889 0.279576 0.406744
0.0497597 0.392325 0.404379
0.131975 0.402869 0.419593
0.224643 0.405844 0.423087
0.329 0.405417 0.423041
0.435813 0.403952 0.419242
0.534218 0.396918 0.402411
0.631449 0.387182 0.38378
0.735698 0.382986 0.378729
0.868376 0.384344 0.391241
0.0346685 0.494987 0.379065
0.115068 0.512734 0.40264
0.206439 0.515618 0.404913
0.309636 0.51519 0.403906
0.420462 0.511315 0.398642
0.531624 0.499245 0.381323
0.620722 0.4907 0.368917
0.714412 0.487007 0.364492
0.853193 0.494423 0.37644
0.0153506 0.602716 0.356146
0.0970626 0.620188 0.375082
0.186313 0.627741 0.38262
0.288121 0.628031 0.382147
0.398718 0.625284 0.378637
0.499504 0.616678 0.371283
0.607996 0.60473 0.35935
0.713344 0.596475 0.351202
0.83151 0.60174 0.354452
0 0.71426 0.341176
0.0808881 0.732754 0.355093
0.16846 0.741543 0.362829
0.268482 0.741726 0.362493
0.378408 0.737484 0.357946
0.488838 0.730114 0.351781
0.598642 0.715999 0.340917
0.702922 0.709087 0.33669
0.799496 0.709361 0.339055
0 0.822171 0.327245
0.0689403 0.841428 0.337057
0.153918 0.852995 0.34548
0.250813 0.853071 0.345403
0.359747 0.846189 0.339712
0.472984 0.837247 0.332357
0.588891 0.823529 0.322408
0.689342 0.814633 0.318883
0.789273 0.814496 0.318791
0 0.938186 0.316136
0.0553902 0.949722 0.321508
0.139635 0.959487 0.326314
0.233219 0.959213 0.326223
0.340185 0.950057 0.320836
0.452354 0.938964 0.313878
0.566766 0.929 0.307225
0.67808 0.926787 0.302358
0.780224 0.925353 0.298711
0.079408 0.120806 0.537743
0.16022 0.121386 0.540856
0.250797 0.119615 0.542443
0.352438 0.114214 0.538247
0.45864 0.107088 0.53051
0.566369 0.0979324 0.517037
0.672892 0.0900893 0.505028
0.773571 0.084596 0.495094
0.87332 0.0854353 0.499916
0.075761 0.199664 0.528405
0.15668 0.203723 0.537026
0.248661 0.204105 0.539986
0.351873 0.201022 0.537804
0.460121 0.196719 0.533288
0.56759 0.190768 0.521553
0.671839 0.183383 0.505821
0.775174 0.179202 0.499046
0.881498 0.180896 0.508339
0.0648661 0.291356 0.515846
0.146975 0.298711 0.527611
0.240009 0.300954 0.531518
0.344335 0.299596 0.530709
0.453925 0.296117 0.526772
0.564355 0.288746 0.514336
0.668803 0.284077 0.502876
0.770428 0.280995 0.496254
0.881514 0.282856 0.507088
0.0499275 0.393042 0.498482
0.132601 0.403586 0.51342
0.225452 0.406729 0.517113
0.329839 0.406363 0.516991
0.439994 0.404242 0.515053
0.542168 0.402899 0.509377
0.646555 0.392187 0.490379
0.747433 0.38677 0.480812
0.868315 0.389456 0.492958
0.031754 0.500252 0.47863
0.116121 0.511818 0.493843
0.20734 0.516365 0.498634
0.31078 0.51667 0.498817
0.421546 0.51487 0.497124
0.532876 0.510842 0.492378
0.628656 0.499916 0.47599
0.718959 0.490883 0.462104
0.831052 0.497704 0.473045
0.00843824 0.608392 0.45597
0.0973983 0.622446 0.470695
0.187121 0.629313 0.477272
0.289189 0.630518 0.477974
0.399863 0.628855 0.475883
0.513344 0.624598 0.471107
0.625299 0.611719 0.457343
0.70515 0.598215 0.446662
0.803311 0.599756 0.449134
0 0.714504 0.4374
0.0813916 0.734112 0.449851
0.169512 0.742779 0.457206
0.269337 0.744183 0.457984
0.378698 0.741756 0.455116
0.490761 0.737652 0.450874
0.588083 0.723125 0.441871
0.694575 0.710384 0.431876
0.794049 0.704692 0.428
0 0.818509 0.425574
0.0684367 0.84242 0.432349
0.1552 0.853346 0.43946
0.251621 0.855344 0.440528
0.359228 0.851621 0.436851
0.47129 0.844739 0.43064
0.583597 0.837034 0.424109
0.688396 0.8224 0.415244
0.782315 0.808988 0.408682
0 0.932708 0.412192
0.0543526 0.946914 0.415747
0.140093 0.959899 0.420172
0.232914 0.961746 0.42063
0.337346 0.957427 0.41677
0.449653 0.947555 0.409674
0.563516 0.938094 0.402502
0.674861 0.928435 0.395621
0.76614 0.915282 0.390402
0.0775616 0.12256 0.638041
0.159075 0.120974 0.636851
0.249958 0.118776 0.636973
0.351675 0.113436 0.632517
0.458015 0.107149 0.626444
0.567147 0.0995651 0.617456
0.675715 0.0939193 0.611475
0.778317 0.0928054 0.611643
0.874495 0.0918746 0.609903
0.0755474 0.201694 0.629862
0.156161 0.203433 0.631922
0.248402 0.203891 0.634638
0.351812 0.201007 0.632654
0.460197 0.197024 0.629068
0.571374 0.192248 0.623941
0.680262 0.186252 0.614527
0.786038 0.184787 0.613916
0.886366 0.185443 0.615824
0.0652018 0.295506 0.62034
0.147219 0.299199 0.623545
0.240375 0.301366 0.626932
0.344869 0.300145 0.626307
0.454673 0.29749 0.624048
0.567163 0.293919 0.620493
0.675013 0.28957 0.61178
0.779431 0.286946 0.607492
0.885481 0.287663 0.613428
0.0505531 0.398428 0.603891
0.133349 0.404303 0.609705
0.226139 0.407218 0.612726
0.330526 0.407111 0.612955
0.440757 0.404913 0.610925
0.553414 0.401465 0.607416
0.662989 0.391928 0.592477
0.766445 0.391745 0.591196
0.875151 0.395422 0.600519
0.0344549 0.505165 0.583078
0.116594 0.513466 0.591623
0.208133 0.517021 0.594842
0.311742 0.517555 0.595285
0.422522 0.515969 0.593668
0.534905 0.513802 0.591623
0.633646 0.509575 0.584253
0.736645 0.501015 0.571679
0.857877 0.504829 0.580621
0.0131685 0.613977 0.558221
0.0976883 0.62562 0.570153
0.188067 0.630488 0.574304
0.29044 0.631601 0.574914
0.40119 0.630426 0.573465
0.514305 0.628321 0.571435
0.628351 0.623514 0.566888
0.721553 0.60824 0.550942
0.815854 0.606027 0.548363
0 0.722011 0.53669
0.081529 0.737636 0.549142
0.17026 0.743999 0.554345
0.270237 0.745525 0.555138
0.379675 0.744106 0.553246
0.492103 0.741253 0.550011
0.606561 0.736538 0.545205
0.711818 0.71281 0.525216
0.791409 0.706218 0.522652
0 0.824567 0.52108
0.0691691 0.846586 0.530632
0.155535 0.85452 0.536263
0.252338 0.856016 0.536873
0.359655 0.853498 0.533898
0.470863 0.848402 0.52874
0.5823 0.842649 0.523171
0.669123 0.822507 0.511772
0.767559 0.807919 0.502892
0 0.936156 0.505745
0.0552071 0.95053 0.511849
0.140185 0.9608 0.516381
0.233326 0.962203 0.516548
0.337469 0.959442 0.513146
0.448066 0.952972 0.507149
0.560876 0.945373 0.500389
0.670787 0.939529 0.493858
0.771664 0.919371 0.484382
0.0794842 0.121935 0.731441
0.158572 0.121263 0.73077
0.249485 0.118379 0.728832
0.351339 0.112947 0.72401
0.457984 0.107042 0.718761
0.567849 0.101015 0.713405
0.677104 0.0957961 0.708659
0.781506 0.0928969 0.706569
0.879194 0.0909743 0.703563
0.0738842 0.205081 0.726604
0.156237 0.204608 0.726864
0.248569 0.204334 0.727413
0.352132 0.201297 0.72491
0.460639 0.197467 0.721645
0.572137 0.193271 0.717968
0.682719 0.189166 0.713726
0.789029 0.187945 0.713909
0.884382 0.190814 0.714702
0.0656901 0.297047 0.715816
0.147753 0.300221 0.717708
0.240986 0.302205 0.720333
0.345602 0.300908 0.719509
0.455467 0.298314 0.717433
0.568154 0.295232 0.715053
0.680339 0.292042 0.712383
0.786999 0.29015 0.710857
0.888411 0.291005 0.713375
0.0514076 0.401129 0.701656
0.134188 0.405478 0.704463
0.226993 0.408087 0.706828
0.331395 0.408011 0.707103
0.441627 0.405814 0.705196
0.554482 0.403037 0.702922
0.667521 0.399878 0.700114
0.774182 0.398093 0.697749
0.878202 0.399756 0.701732
0.0349889 0.5093 0.683268
0.117494 0.514977 0.687755
0.209155 0.518059 0.690135
0.312764 0.518578 0.690532
0.423575 0.517052 0.689036
0.536858 0.514992 0.687236
0.650996 0.512123 0.684627
0.759823 0.507988 0.679881
0.863691 0.510948 0.684459
0.0158694 0.619928 0.661143
0.0986496 0.627146 0.667094
0.189258 0.631189 0.670268
0.291554 0.6327 0.671305
0.402335 0.63154 0.669917
0.515465 0.629587 0.667948
0.628077 0.626459 0.664942
0.718929 0.618433 0.655451
0.840284 0.621103 0.659892
0 0.730724 0.640162
0.0821698 0.740337 0.648051
0.171176 0.744961 0.651682
0.271244 0.746456 0.652461
0.380896 0.745159 0.650645
0.493263 0.742626 0.647807
0.607187 0.739071 0.644221
0.718044 0.733333 0.639246
0.815183 0.725887 0.632959
0 0.834928 0.620966
0.0692912 0.850126 0.630503
0.156115 0.855314 0.634302
0.252903 0.856504 0.634653
0.360143 0.854444 0.631922
0.471168 0.850675 0.62768
0.584329 0.846235 0.622766
0.69601 0.840421 0.617151
0.801602 0.829847 0.609766
0 0.937026 0.605417
0.0553292 0.9561 0.611643
0.140154 0.96141 0.614633
0.233402 0.962158 0.61445
0.337652 0.959518 0.611017
0.448066 0.954437 0.605539
0.560189 0.94847 0.599329
0.668147 0.940887 0.592142
0.735485 0.906615 0.574487
0.0789349 0.12195 0.818326
0.158373 0.121248 0.817365
0.249378 0.118196 0.814832
0.351461 0.112963 0.810361
0.458335 0.107256 0.805539
0.568383 0.101503 0.800717
0.677989 0.0966354 0.796841
0.782528 0.0938277 0.795026
0.881758 0.0930343 0.795239
0.0758526 0.203922 0.81384
0.156756 0.205646 0.814969
0.249195 0.20502 0.814527
0.352926 0.20206 0.812085
0.461601 0.198383 0.809155
0.573327 0.19443 0.806088
0.68455 0.191058 0.803708
0.790555 0.189456 0.803174
0.890883 0.189624 0.80441
0.0664378 0.298436 0.804547
0.148547 0.302541 0.807157
0.2421 0.303502 0.808698
0.346807 0.302098 0.807645
0.456748 0.299596 0.805798
0.569467 0.296529 0.803616
0.681819 0.293675 0.801816
0.788846 0.292271 0.801587
0.889967 0.292592 0.803174
0.0525521 0.402365 0.790814
0.135409 0.407279 0.794522
0.228275 0.409812 0.796658
0.332692 0.409308 0.796246
0.442908 0.407111 0.794446
0.55584 0.404425 0.792401
0.669139 0.401907 0.790738
0.777615 0.400931 0.790768
0.879942 0.401724 0.792721
0.0360723 0.510979 0.774289
0.118715 0.516442 0.778378
0.210483 0.519707 0.780941
0.314153 0.519997 0.781018
0.424994 0.518517 0.779675
0.538308 0.516472 0.778027
0.652552 0.514229 0.776394
0.76231 0.513191 0.77612
0.865522 0.513817 0.777691
0.0169375 0.622614 0.754711
0.0999924 0.62884 0.759441
0.190661 0.633066 0.762753
0.293004 0.634134 0.763363
0.403693 0.632914 0.76199
0.516793 0.630915 0.760098
0.631281 0.628336 0.757839
0.741878 0.626566 0.756558
0.845579 0.626307 0.756939
0.000244144 0.735531 0.737148
0.0834821 0.741802 0.741939
0.172519 0.746349 0.745449
0.272526 0.747707 0.746105
0.381994 0.746197 0.744198
0.49427 0.743572 0.741344
0.608179 0.740063 0.737804
0.715648 0.735363 0.733272
0.819226 0.733639 0.731685
0 0.846357 0.722164
0.0699626 0.85211 0.726513
0.15697 0.856214 0.729534
0.253712 0.857267 0.729763
0.360906 0.855055 0.72694
0.472038 0.851347 0.722774
0.58497 0.846723 0.717815
0.696071 0.842145 0.713024
0.80058 0.838911 0.709682
0 0.953841 0.705806
0.0553902 0.958465 0.709072
0.140414 0.961715 0.711162
0.2336 0.96231 0.710826
0.337789 0.959503 0.707256
0.447883 0.954665 0.701823
0.559686 0.949065 0.69572
0.671199 0.943267 0.68954
0.777035 0.938811 0.684779
0.0786297 0.121736 0.899763
0.158434 0.121218 0.898985
0.249683 0.118395 0.896712
0.35201 0.11339 0.892531
0.459113 0.107897 0.888014
0.569375 0.102342 0.883543
0.679179 0.097673 0.879988
0.783856 0.0950179 0.878508
0.883207 0.094377 0.879042
0.0762798 0.204501 0.896025
0.157504 0.206424 0.897337
0.250187 0.206012 0.897108
0.354116 0.20322 0.894896
0.462974 0.199695 0.89221
0.574823 0.195865 0.889387
0.686152 0.192599 0.887251
0.792218 0.191073 0.886946
0.892592 0.191318 0.888457
0.0675822 0.299657 0.887724
0.150149 0.303593 0.89073
0.24358 0.304997 0.892058
0.348424 0.303685 0.891157
0.458442 0.301244 0.889448
0.571191 0.298222 0.887404
0.683543 0.295369 0.88574
0.790524 0.293965 0.885649
0.891707 0.294377 0.88751
0.0540017 0.403983 0.874937
0.136995 0.409094 0.878828
0.229938 0.411582 0.880903
0.334371 0.410986 0.880415
0.444633 0.408835 0.878737
0.557641 0.40621 0.87686
0.670985 0.403769 0.875395
0.779461 0.402838 0.875608
0.881773 0.403677 0.87776
0.0375372 0.512627 0.859358
0.120333 0.518166 0.863462
0.212207 0.521508 0.866087
0.315969 0.521828 0.866255
0.426871 0.520378 0.865003
0.5402 0.518364 0.863478
0.654414 0.516121 0.861967
0.764096 0.515068 0.86183
0.867216 0.515679 0.863523
0.0185702 0.624399 0.841245
0.101686 0.630655 0.845914
0.192416 0.634897 0.84921
0.29482 0.635966 0.849851
0.405493 0.634699 0.848508
0.518532 0.632654 0.846662
0.632944 0.63003 0.844465
0.743374 0.628168 0.843244
0.846906 0.627817 0.843671
0.00183108 0.73724 0.825299
0.085069 0.743496 0.829969
0.17409 0.747982 0.833371
0.274098 0.749249 0.833982
0.383505 0.747631 0.832029
0.495644 0.744884 0.82916
0.60943 0.741253 0.82562
0.720119 0.738033 0.822644
0.82388 0.736248 0.821241
0 0.84773 0.812039
0.0711986 0.853376 0.816175
0.158114 0.857359 0.819028
0.254826 0.858274 0.819135
0.361929 0.85594 0.816251
0.472938 0.852125 0.812055
0.585733 0.847364 0.80708
0.696666 0.84268 0.802304
0.800992 0.839353 0.799023
0 0.954665 0.797436
0.0560922 0.959182 0.800443
0.141009 0.96231 0.80235
0.234165 0.962783 0.801877
0.338277 0.959823 0.79823
0.44828 0.954894 0.792782
0.560006 0.949203 0.786694
0.671412 0.943358 0.780575
0.777111 0.938872 0.775921
