public/filters/konnect/Presets B Darker Skin Tone/Stylish v2.cube_32.2021-06-15 11-45-45.cube
TITLE "Generated by Resolve"
LUT_3D_SIZE 5
0.0744793 0.128435 0.204791
0.261646 0.124788 0.194644
0.447333 0.0949111 0.139422
0.646052 0.0685435 0.0932631
0.876356 0.087541 0.166079
0.0640116 0.291402 0.177035
0.232853 0.302556 0.181369
0.434791 0.290379 0.145663
0.656474 0.259312 0.119051
0.877317 0.276432 0.16051
0.0307927 0.489189 0.129229
0.20238 0.507301 0.152529
0.412848 0.49778 0.136675
0.639323 0.485756 0.124956
0.851484 0.486702 0.127916
0 0.710262 0.0977493
0.16083 0.728237 0.114199
0.374487 0.72694 0.113832
0.602472 0.717845 0.105974
0.818296 0.716869 0.105547
0 0.940078 0.0852369
0.135729 0.949004 0.0941634
0.334646 0.936721 0.0901198
0.564706 0.930251 0.0817121
0.776638 0.931334 0.0753185
0.0843977 0.123842 0.354894
0.252369 0.120806 0.357855
0.456748 0.100114 0.324895
0.660761 0.0798199 0.284108
0.873274 0.0854353 0.31429
0.065095 0.290501 0.3299
0.239033 0.299931 0.347189
0.441825 0.297444 0.330282
0.656458 0.273594 0.292805
0.879011 0.279271 0.316747
0.0344244 0.493904 0.287648
0.205585 0.51339 0.311711
0.410925 0.507744 0.300954
0.625132 0.489097 0.276829
0.856077 0.494087 0.286564
0 0.715557 0.250095
0.167193 0.738933 0.27126
0.378836 0.730465 0.262654
0.59971 0.71368 0.250538
0.821653 0.717739 0.251118
0 0.940352 0.228656
0.138308 0.957214 0.239292
0.33785 0.934112 0.233921
0.568765 0.928588 0.221576
0.781415 0.931075 0.21532
0.079408 0.120806 0.537743
0.250797 0.119615 0.542443
0.45864 0.107088 0.53051
0.672892 0.0900893 0.505028
0.87332 0.0854353 0.499916
0.0648661 0.291356 0.515846
0.240009 0.300954 0.531518
0.453925 0.296117 0.526772
0.668803 0.284077 0.502876
0.881514 0.282856 0.507088
0.031754 0.500252 0.47863
0.20734 0.516365 0.498634
0.421546 0.51487 0.497124
0.628656 0.499916 0.47599
0.831052 0.497704 0.473045
0 0.714504 0.4374
0.169512 0.742779 0.457206
0.378698 0.741756 0.455116
0.588083 0.723125 0.441871
0.794049 0.704692 0.428
0 0.932708 0.412192
0.140093 0.959899 0.420172
0.337346 0.957427 0.41677
0.563516 0.938094 0.402502
0.76614 0.915282 0.390402
0.0794842 0.121935 0.731441
0.249485 0.118379 0.728832
0.457984 0.107042 0.718761
0.677104 0.0957961 0.708659
0.879194 0.0909743 0.703563
0.0656901 0.297047 0.715816
0.240986 0.302205 0.720333
0.455467 0.298314 0.717433
0.680339 0.292042 0.712383
0.888411 0.291005 0.713375
0.0349889 0.5093 0.683268
0.209155 0.518059 0.690135
0.423575 0.517052 0.689036
0.650996 0.512123 0.684627
0.863691 0.510948 0.684459
0 0.730724 0.640162
0.171176 0.744961 0.651682
0.380896 0.745159 0.650645
0.607187 0.739071 0.644221
0.815183 0.725887 0.632959
0 0.937026 0.605417
0.140154 0.96141 0.614633
0.337652 0.959518 0.611017
0.560189 0.94847 0.599329
0.735485 0.906615 0.574487
0.0786297 0.121736 0.899763
0.249683 0.118395 0.896712
0.459113 0.107897 0.888014
0.679179 0.097673 0.879988
0.883207 0.094377 0.879042
0.0675822 0.299657 0.887724
0.24358 0.304997 0.892058
0.458442 0.301244 0.889448
0.683543 0.295369 0.88574
0.891707 0.294377 0.88751
0.0375372 0.512627 0.859358
0.212207 0.521508 0.866087
0.426871 0.520378 0.865003
0.654414 0.516121 0.861967
0.867216 0.515679 0.863523
0.00183108 0.73724 0.825299
0.17409 0.747982 0.833371
0.383505 0.747631 0.832029
0.60943 0.741253 0.82562
0.82388 0.736248 0.821241
0 0.954665 0.797436
0.141009 0.96231 0.80235
0.338277 0.959823 0.79823
0.560006 0.949203 0.786694
0.777111 0.938872 0.775921
