public/filters/konnect/Presets B Darker Skin Tone/Vibrant v2_26.2021-06-15 11-45-45.cube
TITLE "Generated by Resolve"
LUT_3D_SIZE 33
0.0527047 0.0132753 0.0844892
0.066453 0.00941482 0.0703899
0.0874189 0.00360113 0.0612345
0.0949874 0.000411994 0.0453193
0.160327 0.00190738 0.0362707
0.201328 0 0.0264439
0.240101 0 0.0195163
0.277943 0 0.0235142
0.316136 0 0.0197452
0.354284 0 0.016556
0.392966 0 0.0145418
0.433097 0 0.0140688
0.47541 0 0.0153811
0.522637 0 0.0184329
0.580468 0 0.0224002
0.652491 0 0.0267033
0.734188 0 0.0310674
0.815412 0 0.0370031
0.877989 0.0018616 0.0454871
0.924163 0.0102541 0.0602579
0.963302 0.0182498 0.0754864
0.996185 0.0255131 0.0877089
1 0.0318151 0.0964523
1 0.0367437 0.102098
1 0.0404974 0.105211
1 0.0433204 0.106538
1 0.0456092 0.106844
1 0.0485389 0.107149
1 0.0513161 0.107454
1 0.0536355 0.1075
1 0.055314 0.106538
1 0.0558785 0.104051
1 0.0547951 0.0993362
0.0873579 0.0461128 0.0868391
0.110231 0.0460365 0.0770733
0.131884 0.0450904 0.0647135
0.151598 0.0416419 0.0499123
0.176761 0.0386053 0.034638
0.20679 0.0363012 0.0209964
0.241428 0.034226 0.00996414
0.277775 0.0326238 0.00143435
0.314458 0.0314183 0
0.351217 0.0305333 0
0.388327 0.0298314 0
0.426719 0.0295262 0
0.467369 0.0295262 0
0.511559 0.0299382 0
0.564675 0.0308843 0
0.630503 0.0318456 0.00584421
0.708904 0.0268254 0.0144961
0.78967 0.0263066 0.0240177
0.861891 0.0271 0.0347601
0.909453 0.0300908 0.048661
0.950225 0.0332799 0.0644541
0.984802 0.0365148 0.0778058
1 0.0396124 0.0879835
1 0.0424964 0.0949264
1 0.0460365 0.0994583
1 0.0492714 0.1019
1 0.0522316 0.102968
1 0.0550088 0.103334
1 0.0576333 0.103502
1 0.0601205 0.103609
1 0.0622263 0.10248
1 0.0637675 0.099443
1 0.0643778 0.0940719
0.0865644 0.0857099 0.0854505
0.108904 0.0849012 0.0762188
0.141741 0.080354 0.0688487
0.175006 0.0779583 0.0534218
0.202991 0.073106 0.0370184
0.227039 0.0694438 0.0211948
0.25034 0.0670024 0.00796521
0.277195 0.065156 0
0.30927 0.0637522 0
0.345388 0.0628519 0
0.3832 0.0622263 0
0.421592 0.0618296 0
0.461265 0.0616617 0
0.50341 0.0618753 0
0.551934 0.0624857 0
0.612161 0.063508 0
0.687007 0.0649119 0
0.769406 0.0665293 0.00393683
0.849317 0.0684215 0.021088
0.90341 0.0724193 0.0351415
0.945846 0.0769055 0.0503548
0.982071 0.0811017 0.0638437
1 0.0848554 0.0746014
1 0.087953 0.0823072
1 0.090425 0.0873426
1 0.0922255 0.0899062
1 0.0934005 0.0908217
1 0.0940414 0.0907454
1 0.0941024 0.0903029
1 0.0932631 0.0899672
1 0.0870985 0.0899062
1 0.0791333 0.0884108
1 0.0778973 0.084062
0.0791638 0.127398 0.0791943
0.0999771 0.124025 0.0700084
0.132753 0.120027 0.0618296
0.166659 0.114611 0.0544747
0.200931 0.111192 0.0407874
0.233631 0.105364 0.0277256
0.266133 0.10016 0.0137484
0.296834 0.096849 0.00158694
0.324849 0.0951095 0
0.352712 0.0942245 0
0.383322 0.0936904 0
0.41825 0.0930495 0
0.45655 0.0922866 0
0.497368 0.0916152 0
0.541924 0.0912032 0
0.596613 0.090837 0
0.665537 0.090486 0
0.747646 0.0898909 0
0.829053 0.0894942 0.0093843
0.893233 0.090425 0.026688
0.936782 0.0930953 0.0430152
0.974304 0.0959487 0.0569772
1 0.0987411 0.068513
1 0.101366 0.0771649
1 0.103792 0.0829175
1 0.105913 0.086183
1 0.107744 0.0877241
1 0.1093 0.0879225
1 0.110658 0.0875257
1 0.111864 0.0869917
1 0.113008 0.0864881
1 0.113924 0.0857557
1 0.114504 0.0836347
0.0721752 0.171038 0.0793774
0.0950179 0.165347 0.071107
0.12462 0.159335 0.0633097
0.161288 0.156207 0.0553902
0.196628 0.149966 0.0501411
0.232334 0.145693 0.0361944
0.266209 0.139803 0.0234379
0.300649 0.133227 0.0141756
0.335958 0.128359 0.00218204
0.369635 0.125032 0
0.401175 0.123232 0
0.431785 0.122606 0
0.463661 0.122393 0
0.498466 0.122072 0
0.537636 0.121447 0
0.58558 0.120241 0
0.647562 0.118593 0
0.725902 0.116487 0
0.808545 0.114092 0.00148013
0.883436 0.1122 0.0181125
0.928191 0.11284 0.0361028
0.966567 0.114031 0.0501106
0.999634 0.115419 0.0621042
1 0.116884 0.0713054
1 0.118318 0.0777142
1 0.119631 0.081529
1 0.120851 0.0833448
1 0.121965 0.0838483
1 0.122927 0.0836347
1 0.123751 0.08336
1 0.124529 0.0830091
1 0.1252 0.0827649
1 0.12575 0.0822614
0.0580148 0.214862 0.0746624
0.0883497 0.206287 0.0698405
0.115724 0.199786 0.0603799
0.15169 0.196262 0.054902
0.190036 0.192737 0.0467231
0.225956 0.185351 0.0455024
0.262882 0.180163 0.0320592
0.298985 0.174456 0.0180514
0.334768 0.16762 0.00921645
0.371008 0.161654 0.00173953
0.407202 0.156954 0
0.442649 0.153536 0
0.477699 0.151476 0
0.512474 0.150423 0
0.548241 0.149905 0
0.588586 0.149294 0
0.64097 0.147784 0
0.709667 0.145357 0
0.790341 0.141802 0
0.868849 0.138125 0.0115663
0.920577 0.136461 0.0302892
0.959426 0.136172 0.0441444
0.993179 0.136217 0.0562905
1 0.1364 0.0658427
1 0.136767 0.0726024
1 0.137255 0.0767987
1 0.137713 0.0788891
1 0.13814 0.07953
1 0.138521 0.0793774
1 0.138827 0.078996
1 0.139086 0.078706
1 0.1393 0.0787213
1 0.139437 0.0788586
0.0444648 0.257664 0.0636912
0.0789197 0.248585 0.0619211
0.0887312 0.248539 0.039292
0.111238 0.243946 0.0292668
0.14316 0.240223 0.0192721
0.181186 0.236194 0.00810254
0.221622 0.230579 0
0.258198 0.221302 0
0.295903 0.214832 0
0.333806 0.209033 0
0.371344 0.202869 0
0.409216 0.19736 0
0.447791 0.192798 0
0.487312 0.18909 0
0.528115 0.186252 0
0.57174 0.183627 0
0.623606 0.180407 0
0.689448 0.176577 0
0.769207 0.172152 0
0.849317 0.167452 0.0043946
0.912077 0.163714 0.0230716
0.952605 0.161959 0.0392767
0.987533 0.160647 0.0522469
1 0.159655 0.0623789
1 0.158938 0.0694743
1 0.158434 0.0738231
1 0.158007 0.0759747
1 0.157717 0.0765545
1 0.157427 0.076173
1 0.157122 0.0755016
1 0.156786 0.0750286
1 0.156435 0.0743572
1 0.156039 0.0731212
0.0318151 0.299336 0.0429847
0.0663005 0.289219 0.0393683
0.0955062 0.281849 0.0273747
0.120867 0.275227 0.0187533
0.151766 0.273426 0.00976577
0.181506 0.271717 0
0.214191 0.268818 0
0.249805 0.263676 0
0.285771 0.254566 0
0.324849 0.248157 0
0.364599 0.242771 0
0.403708 0.237018 0
0.442786 0.231373 0
0.482597 0.226337 0
0.523522 0.221836 0
0.566552 0.217914 0
0.615671 0.213642 0
0.6748 0.209064 0
0.747906 0.204181 0
0.827054 0.199344 0
0.90132 0.194217 0.0149233
0.94284 0.19115 0.032578
0.979019 0.188617 0.0462196
1 0.186419 0.0572061
1 0.184558 0.0651713
1 0.182986 0.0702678
1 0.181689 0.0729686
1 0.180499 0.0739147
1 0.179431 0.0736858
1 0.17847 0.0729076
1 0.177478 0.0720836
1 0.176516 0.0713359
1 0.175616 0.0697795
0.021561 0.340414 0.0278477
0.0559091 0.330358 0.0221408
0.0848402 0.32163 0.0163729
0.112871 0.313237 0.0101167
0.146715 0.30779 0.00482185
0.184451 0.303014 0
0.221057 0.298619 0
0.254932 0.294789 0
0.286 0.290517 0
0.317617 0.285176 0
0.354162 0.280171 0
0.394232 0.275288 0
0.43505 0.270069 0
0.475944 0.264775 0
0.517601 0.25977 0
0.560296 0.254887 0
0.606287 0.249943 0
0.660258 0.244587 0
0.726528 0.239124 0
0.803647 0.233677 0
0.881025 0.227909 0.00517281
0.932723 0.223178 0.0248417
0.969406 0.219516 0.0392767
1 0.216251 0.0510262
1 0.213367 0.059266
1 0.210819 0.0640574
1 0.208621 0.0659037
1 0.206668 0.0654459
1 0.204929 0.0635538
1 0.203296 0.0608988
1 0.201755 0.0581369
1 0.200214 0.0557107
1 0.198718 0.0535744
0.00526436 0.377691 0.0121767
0.0419318 0.367575 0.00717174
0.0717174 0.358907 0.00225834
0.100557 0.350652 0
0.131136 0.343572 0
0.169451 0.339239 0
0.208682 0.333761 0
0.248676 0.328176 0
0.287831 0.32285 0
0.323308 0.317403 0
0.356756 0.312703 0
0.391348 0.309285 0
0.42826 0.306127 0
0.467796 0.302312 0
0.509285 0.297688 0
0.552453 0.292836 0
0.59736 0.28777 0
0.647135 0.281819 0
0.706737 0.275669 0
0.77995 0.269535 0
0.857649 0.263523 0
0.922118 0.257359 0.0135195
0.959792 0.252811 0.0309758
0.992905 0.248585 0.0447395
1 0.244678 0.055314
1 0.241154 0.0622263
1 0.23798 0.0656596
1 0.235126 0.0662089
1 0.232456 0.0647898
1 0.230076 0.0622416
1 0.227787 0.059205
1 0.225605 0.056199
1 0.223468 0.0534829
0 0.418418 0.00335698
0.0308385 0.408438 0
0.0608682 0.399863 0
0.0898909 0.391592 0
0.118303 0.383413 0
0.155398 0.379141 0
0.195087 0.374105 0
0.235706 0.368368 0
0.276478 0.362203 0
0.316915 0.355703 0
0.35523 0.34902 0
0.393408 0.342916 0
0.431693 0.338552 0
0.469596 0.335378 0
0.507774 0.332464 0
0.547478 0.329091 0
0.589731 0.325078 0
0.636652 0.31986 0
0.690761 0.313268 0
0.757198 0.306538 0
0.83386 0.300481 0
0.90956 0.293782 0
0.950149 0.28809 0.0195315
0.983642 0.28304 0.0347295
1 0.278264 0.0472725
1 0.273777 0.0562905
1 0.269673 0.061677
1 0.265919 0.063798
1 0.262486 0.0632639
1 0.259312 0.0610208
1 0.256275 0.0580301
1 0.253437 0.054902
1 0.25066 0.0519722
0 0.459083 0
0.0188754 0.449088 0
0.0487984 0.440528 0
0.0777905 0.432319 0
0.106355 0.424247 0
0.139086 0.418418 0
0.179294 0.41445 0
0.220645 0.409216 0
0.262867 0.403433 0
0.304479 0.396689 0
0.345586 0.389517 0
0.385016 0.382559 0
0.425269 0.375647 0
0.466896 0.370123 0
0.508415 0.365713 0
0.549065 0.36199 0
0.589517 0.358541 0
0.63238 0.354833 0
0.681361 0.349752 0
0.740124 0.343633 0
0.8112 0.337423 0
0.88687 0.331334 0
0.940871 0.324865 0.00569161
0.974853 0.319265 0.0218814
1 0.313771 0.0361181
1 0.308507 0.0472267
1 0.303593 0.0548104
1 0.298924 0.0589914
1 0.294636 0.0601358
1 0.2907 0.0589609
1 0.2869 0.0564584
1 0.28333 0.0534066
1 0.27982 0.0504768
0 0.499748 0
0.00646983 0.489769 0
0.0365911 0.481498 0
0.0657054 0.473899 0
0.0904097 0.464912 0
0.117891 0.457725 0
0.153903 0.454108 0
0.193759 0.449027 0
0.23563 0.442542 0
0.278309 0.435981 0
0.320745 0.429099 0
0.362875 0.422293 0
0.403861 0.416114 0
0.444938 0.409873 0
0.487678 0.404379 0
0.531609 0.399481 0
0.576318 0.395071 0
0.621607 0.390524 0
0.670115 0.385275 0
0.725048 0.379461 0
0.789654 0.373541 0
0.86186 0.36817 0
0.929992 0.362264 0
0.965118 0.356268 0.00730907
0.996338 0.350332 0.0231937
1 0.344488 0.0364538
1 0.338933 0.0462806
1 0.333608 0.0525673
1 0.328557 0.0556954
1 0.323888 0.0562295
1 0.319417 0.0548104
1 0.315175 0.0524147
1 0.311055 0.0496681
0 0.540215 0
0 0.529717 0
0.023331 0.520745 0
0.0527047 0.512123 0
0.081651 0.503563 0
0.109926 0.495384 0
0.143252 0.490471 0
0.181704 0.486732 0
0.221012 0.481209 0
0.262608 0.475135 0
0.305715 0.468788 0
0.348669 0.461845 0
0.391012 0.454688 0
0.432334 0.448539 0
0.473747 0.442145 0
0.51754 0.43682 0
0.563287 0.432181 0
0.610513 0.427741 0
0.65948 0.422431 0
0.711315 0.416373 0
0.77026 0.410513 0
0.837064 0.405417 0
0.908751 0.400259 0
0.952804 0.394202 0
0.984344 0.3879 0.0052491
1 0.381552 0.0201114
1 0.375326 0.0324559
1 0.369482 0.0415808
1 0.363867 0.0475166
1 0.358541 0.0505989
1 0.35346 0.0513924
1 0.348547 0.0504463
1 0.343801 0.0485542
0 0.581506 0
0 0.570779 0
0.0100252 0.56141 0
0.039353 0.55227 0
0.0683909 0.543267 0
0.0974594 0.534417 0
0.128084 0.526329 0
0.169757 0.52282 0
0.210819 0.517281 0
0.25156 0.511406 0
0.292744 0.506035 0
0.334752 0.500557 0
0.377508 0.494606 0
0.420325 0.487861 0
0.461952 0.48191 0
0.503883 0.475517 0
0.548592 0.470283 0
0.595148 0.465461 0
0.644114 0.46067 0
0.695415 0.455009 0
0.750027 0.448493 0
0.811841 0.442832 0
0.880827 0.438071 0
0.940063 0.432441 0
0.972137 0.426169 0
1 0.41976 0.00047303
1 0.413275 0.0132906
1 0.406973 0.0233005
1 0.400854 0.0298924
1 0.395087 0.0332036
1 0.389609 0.0337377
1 0.384405 0.0322271
1 0.379583 0.0294499
0 0.616419 0
0 0.605493 0
0 0.59617 0
0.0266728 0.587152 0
0.0563516 0.578347 0
0.0860456 0.569635 0
0.115877 0.561059 0
0.153933 0.556497 0
0.195987 0.551644 0
0.238315 0.545785 0
0.281071 0.540307 0
0.32372 0.535058 0
0.36585 0.530022 0
0.407782 0.52488 0
0.450156 0.519554 0
0.491585 0.514672 0
0.533837 0.508705 0
0.579553 0.503807 0
0.62739 0.499001 0
0.678004 0.493812 0
0.731258 0.487694 0
0.788815 0.481056 0
0.85304 0.475731 0
0.923491 0.470893 0
0.960342 0.46479 0
0.989807 0.458274 0
1 0.45156 0
1 0.444785 0.00770581
1 0.438178 0.0172274
1 0.431785 0.0238193
1 0.425742 0.027512
1 0.419959 0.028687
1 0.414435 0.027924
0 0.659251 0
0 0.647807 0
0 0.638193 0
0.0126192 0.629068 0
0.0422065 0.620172 0
0.0717632 0.611414 0
0.101427 0.602823 0
0.134401 0.596063 0
0.176486 0.592309 0
0.21915 0.586526 0
0.262867 0.580728 0
0.307485 0.575463 0
0.351644 0.569665 0
0.395575 0.56376 0
0.43917 0.558068 0
0.482582 0.552605 0
0.523659 0.548089 0
0.565438 0.542138 0
0.611337 0.537514 0
0.660197 0.532525 0
0.712261 0.526848 0
0.767681 0.520348 0
0.827726 0.514076 0
0.894057 0.50901 0
0.947982 0.503609 0
0.977905 0.4972 0
1 0.490425 0
1 0.483558 0
1 0.476646 0
1 0.469856 0.00787366
1 0.463249 0.0138552
1 0.45687 0.0175174
1 0.450736 0.0191501
0 0.701335 0
0 0.689708 0
0 0.679911 0
0 0.670787 0
0.027924 0.662043 0
0.0572213 0.653391 0
0.0865797 0.644953 0
0.116091 0.636606 0
0.15642 0.633509 0
0.198871 0.628611 0
0.241611 0.621759 0
0.285695 0.615045 0
0.330785 0.608804 0
0.376425 0.603006 0
0.422171 0.597162 0
0.468223 0.591669 0
0.514305 0.586572 0
0.556466 0.582101 0
0.598611 0.575677 0
0.645151 0.571038 0
0.694865 0.56582 0
0.747768 0.559747 0
0.804685 0.553216 0
0.866529 0.547326 0
0.933913 0.542245 0
0.965454 0.536095 0
0.993317 0.529534 0
1 0.522652 0
1 0.515633 0
1 0.508553 0
1 0.50161 0
1 0.494804 0.00302129
1 0.488228 0.00669871
0 0.743252 0
0 0.73167 0
0 0.721874 0
0 0.712886 0
0.013489 0.704555 0
0.0422065 0.696742 0
0.0739605 0.683482 0
0.103288 0.675486 0
0.138079 0.670237 0
0.181033 0.667018 0
0.22417 0.661128 0
0.267689 0.6542 0
0.312398 0.647761 0
0.3579 0.641642 0
0.403388 0.635386 0
0.448859 0.628901 0
0.494987 0.623041 0
0.541695 0.617761 0
0.585626 0.614084 0
0.629938 0.608331 0
0.678981 0.604227 0
0.730114 0.598993 0
0.783734 0.592599 0
0.841321 0.586297 0
0.904753 0.58085 0
0.953674 0.575204 0
0.981643 0.568765 0
1 0.561868 0
1 0.554757 0
1 0.547539 0
1 0.540429 0
1 0.533364 0
1 0.52639 0
0 0.785412 0
0 0.773693 0
0 0.763699 0
0 0.754177 0
0 0.7449 0
0.0293431 0.735729 0
0.0588235 0.72665 0
0.0884718 0.717678 0
0.118425 0.708812 0
0.161013 0.706218 0
0.2047 0.701518 0
0.248539 0.695384 0
0.292744 0.688609 0
0.338155 0.682445 0
0.384237 0.676478 0
0.430549 0.67042 0
0.476616 0.66392 0
0.523308 0.657923 0
0.571237 0.65272 0
0.616144 0.649165 0
0.660822 0.642374 0
0.711269 0.637873 0
0.763592 0.63241 0
0.817426 0.625772 0
0.875685 0.619471 0
0.939742 0.613993 0
0.968353 0.607828 0
0.995117 0.601236 0
1 0.594278 0
1 0.587106 0
1 0.579812 0
1 0.572381 0
1 0.565087 0
0 0.828412 0
0 0.816358 0
0 0.806104 0
0 0.796292 0
0 0.786709 0
0.0145571 0.777188 0
0.0443732 0.767773 0
0.074342 0.758526 0
0.104601 0.749386 0
0.141894 0.743893 0
0.185504 0.740063 0
0.229297 0.734554 0
0.273503 0.728557 0
0.318593 0.722683 0
0.364294 0.716808 0
0.410574 0.710979 0
0.457282 0.705074 0
0.504158 0.698848 0
0.551598 0.692897 0
0.600732 0.688029 0
0.64686 0.684901 0
0.691814 0.677516 0
0.742641 0.672419 0
0.795254 0.666209 0
0.849714 0.659144 0
0.909087 0.652674 0
0.954238 0.646754 0
0.981033 0.640299 0
1 0.633463 0
1 0.626429 0
1 0.619257 0
1 0.612085 0
1 0.60499 0
0 0.863767 0
0 0.850935 0
0 0.840085 0
0 0.829892 0
0 0.819791 0
0.000534066 0.809888 0
0.0311742 0.800168 0
0.0619821 0.79086 0
0.0929274 0.781949 0
0.124224 0.773388 0
0.167254 0.770352 0
0.211597 0.766201 0
0.256352 0.761334 0
0.301579 0.757259 0
0.347097 0.75346 0
0.392187 0.748867 0
0.43798 0.743877 0
0.484627 0.738796 0
0.531884 0.733257 0
0.580026 0.727825 0
0.630365 0.723537 0
0.677714 0.720928 0
0.722408 0.712749 0
0.773373 0.706844 0
0.826215 0.699916 0
0.881956 0.692668 0
0.941329 0.686122 0
0.9682 0.679744 0
0.993744 0.672908 0
1 0.665995 0
1 0.658854 0
1 0.651743 0
1 0.644648 0
0 0.914977 0
0 0.900572 0
0 0.888258 0
0 0.876417 0
0 0.864866 0
0 0.854139 0
0.0140993 0.8439 0
0.0450141 0.834104 0
0.0759136 0.824765 0
0.106798 0.815946 0
0.144183 0.810773 0
0.188632 0.807401 0
0.23328 0.802365 0
0.277577 0.796246 0
0.322408 0.790692 0
0.368185 0.78616 0
0.414923 0.782132 0
0.462303 0.777752 0
0.510582 0.77348 0
0.559335 0.768704 0
0.608591 0.763485 0
0.660044 0.759503 0
0.708476 0.757137 0
0.752758 0.74786 0
0.803677 0.74107 0
0.857053 0.733577 0
0.914214 0.726253 0
0.955703 0.719585 0
0.981323 0.71284 0
1 0.705837 0
1 0.698573 0
1 0.691173 0
1 0.68368 0
0 0.943572 0
0 0.937057 0
0 0.931044 0
0 0.919768 0
0 0.908141 0
0 0.897475 0
0 0.887358 0
0.0291142 0.877668 0
0.0595865 0.868299 0
0.0899825 0.859342 0
0.122057 0.851835 0
0.164614 0.849012 0
0.209552 0.845304 0
0.254826 0.839872 0
0.299825 0.833677 0
0.345418 0.827817 0
0.391714 0.822492 0
0.438544 0.816983 0
0.485786 0.811078 0
0.53373 0.805447 0
0.58262 0.800153 0
0.634073 0.796613 0
0.68809 0.794324 0
0.738537 0.79292 0
0.782773 0.782803 0
0.833692 0.775158 0
0.887678 0.767163 0
0.943343 0.759716 0
0.968917 0.752987 0
0.993729 0.745983 0
1 0.73875 0
1 0.731319 0
1 0.723766 0
0 0.962417 0
0 0.956298 0
0 0.951064 0
0 0.945876 0
0 0.94052 0
0 0.935576 0
0 0.931151 0
0.0115969 0.923201 0
0.047013 0.907195 0
0.0766613 0.899321 0
0.10634 0.891417 0
0.144183 0.887648 0
0.187762 0.884825 0
0.232654 0.880919 0
0.277882 0.875868 0
0.323125 0.870115 0
0.369024 0.864363 0
0.415732 0.858854 0
0.463249 0.853284 0
0.511101 0.847333 0
0.55964 0.841505 0
0.609552 0.836347 0
0.661662 0.832593 0
0.71664 0.830381 0
0.768139 0.828885 0
0.811978 0.817548 0
0.863447 0.809171 0
0.918166 0.800626 0
0.955917 0.79324 0
0.980758 0.786252 0
1 0.779019 0
1 0.771618 0
1 0.764096 0
0 0.98291 0
0 0.976989 0
0 0.971801 0
0 0.966766 0
0 0.9617 0
0 0.956573 0
0 0.951385 0
0.00401312 0.946181 0
0.0326085 0.941115 0
0.0615396 0.936187 0
0.0906233 0.931395 0
0.123293 0.927504 0
0.165576 0.924636 0
0.209827 0.921447 0
0.254826 0.917113 0
0.300221 0.912169 0
0.34609 0.906813 0
0.392477 0.901091 0
0.439796 0.895232 0
0.488045 0.889494 0
0.53669 0.883391 0
0.585916 0.877348 0
0.637064 0.872587 0
0.691066 0.86952 0
0.747433 0.867552 0
0.79913 0.865324 0
0.84184 0.851972 0
0.892897 0.84268 0
0.942718 0.833768 0
0.967132 0.826459 0
0.99144 0.819089 0
1 0.811673 0
1 0.804074 0
0 1 0
0 0.997848 0
0 0.992935 0
0 0.988144 0
0 0.983352 0
0 0.978546 0
0 0.973648 0
0 0.968612 0
0.0251621 0.963531 0
0.0534524 0.958511 0
0.0819715 0.953643 0
0.110704 0.94905 0
0.149432 0.949828 0
0.191608 0.950973 0
0.234806 0.951217 0
0.278309 0.950179 0
0.322911 0.948379 0
0.369223 0.943435 0
0.416098 0.937697 0
0.463981 0.931609 0
0.512856 0.925658 0
0.562264 0.919463 0
0.612314 0.913436 0
0.664912 0.909224 0
0.720851 0.906767 0
0.777996 0.904448 0
0.829923 0.901305 0
0.871626 0.886198 0
0.922545 0.875975 0
0.954589 0.867475 0
0.978363 0.859556 0
1 0.851667 0
1 0.843839 0
0 1 0
0 1 0
0 1 0
0 1 0
0 0.994766 0
0 0.988876 0
0 0.983154 0
0 0.97763 0
0.0235142 0.97232 0
