public/filters/konnect/Presets B Darker Skin Tone/Vibrant v2_26.2021-06-15 11-45-45.cube
TITLE "Generated by Resolve"
LUT_3D_SIZE 9
0.0527047 0.0132753 0.0844892
0.160327 0.00190738 0.0362707
0.316136 0 0.0197452
0.47541 0 0.0153811
0.734188 0 0.0310674
0.963302 0.0182498 0.0754864
1 0.0404974 0.105211
1 0.0513161 0.107454
1 0.0547951 0.0993362
0.0721752 0.171038 0.0793774
0.196628 0.149966 0.0501411
0.335958 0.128359 0.00218204
0.463661 0.122393 0
0.647562 0.118593 0
0.928191 0.11284 0.0361028
1 0.118318 0.0777142
1 0.122927 0.0836347
1 0.12575 0.0822614
0.021561 0.340414 0.0278477
0.146715 0.30779 0.00482185
0.286 0.290517 0
0.43505 0.270069 0
0.606287 0.249943 0
0.881025 0.227909 0.00517281
1 0.213367 0.059266
1 0.204929 0.0635538
1 0.198718 0.0535744
0 0.499748 0
0.0904097 0.464912 0
0.23563 0.442542 0
0.403861 0.416114 0
0.576318 0.395071 0
0.789654 0.373541 0
0.996338 0.350332 0.0231937
1 0.328557 0.0556954
1 0.311055 0.0496681
0 0.659251 0
0.0422065 0.620172 0
0.176486 0.592309 0
0.351644 0.569665 0
0.523659 0.548089 0
0.712261 0.526848 0
0.947982 0.503609 0
1 0.476646 0
1 0.450736 0.0191501
0 0.828412 0
0 0.786709 0
0.104601 0.749386 0
0.273503 0.728557 0
0.457282 0.705074 0
0.64686 0.684901 0
0.849714 0.659144 0
1 0.633463 0
1 0.60499 0
0 0.962417 0
0 0.94052 0
0.047013 0.907195 0
0.187762 0.884825 0
0.369024 0.864363 0
0.55964 0.841505 0
0.768139 0.828885 0
0.955917 0.79324 0
1 0.764096 0
0 1 0
0 1 0
0.0108034 0.995499 0
0.129458 0.97937 0
0.295247 0.988266 0
0.471748 0.985382 0
0.668544 0.978119 0
0.890623 0.972152 0
1 0.926635 0
0 1 0
0 1 0
0 1 0
0.0880598 1 0
0.226398 1 0
0.39678 1 0
0.587518 1 0
0.805066 1 0
0.976471 1 0
0.0789044 0.0143435 0.328069
0.259266 0.0099031 0.304463
0.415732 0 0.271321
0.569757 0 0.240742
0.738537 0 0.210697
0.90602 0 0.177722
1 0 0.168139
1 0.00399786 0.157946
1 0.0219883 0.153475
0.0497444 0.168353 0.257847
0.187472 0.150958 0.24358
0.318074 0.135424 0.222568
0.478126 0.135592 0.205646
0.643488 0.141283 0.199664
0.87274 0.149172 0.201511
1 0.162066 0.210941
1 0.171145 0.213077
1 0.179309 0.213016
0.0150912 0.326268 0.189166
0.142229 0.297536 0.165515
0.302815 0.280461 0.149264
0.452445 0.2654 0.146517
0.595193 0.261021 0.152697
0.773877 0.256626 0.159777
0.980835 0.252613 0.170748
1 0.252689 0.180194
1 0.250935 0.178866
0 0.48336 0.114687
0.0900893 0.450904 0.10486
0.236912 0.431296 0.102892
0.398856 0.411048 0.0999008
0.549889 0.391928 0.106981
0.717556 0.375036 0.112505
0.951156 0.360769 0.114702
1 0.340398 0.0919661
1 0.326375 0.0969863
0 0.64303 0.0641642
0.0386358 0.606821 0.0565194
0.163333 0.58439 0.0538643
0.331655 0.566949 0.0571908
0.513191 0.542275 0.053666
0.690959 0.517617 0.0543832
0.911711 0.494133 0.0503853
1 0.471107 0.0505226
1 0.449592 0.0506142
0 0.813901 0.00654612
0 0.77348 0.00115969
0.0983444 0.738872 0
0.261997 0.719661 0.00363165
0.446097 0.695659 0.00477607
0.630396 0.672694 0.00648508
0.817685 0.645838 0.018967
0.993729 0.620768 0.0198215
1 0.593881 0.0264744
0 0.957061 0
0 0.934447 0
0.0459602 0.896071 0
0.185306 0.868742 0
0.363912 0.847227 0
0.551598 0.826322 0
0.756481 0.81149 0
0.946899 0.777905 0
1 0.749554 0
0 1 0
0 1 0
0.00906386 0.992172 0
0.128557 0.975723 0
0.288075 0.977646 0
0.46389 0.977615 0
0.657313 0.968917 0
0.878065 0.953964 0
0.994949 0.911254 0
0 1 0
0 1 0
0 1 0
0.0839246 1 0
0.225055 1 0
0.398428 1 0
0.581308 1 0
0.792721 1 0
0.971588 1 0
0.0691234 0.00866712 0.547127
0.258442 0.00762951 0.54197
0.43679 0 0.492485
0.589151 0 0.429313
0.754467 0 0.405615
0.89276 0 0.397299
1 0 0.373922
1 0 0.335515
1 0 0.291814
0.0340581 0.157931 0.467994
0.189425 0.138628 0.456352
0.366613 0.12311 0.429465
0.513985 0.119265 0.39379
0.652628 0.119356 0.360021
0.790829 0.0984207 0.311574
0.949706 0.0303044 0.26331
1 0.0322576 0.23592
1 0.037583 0.212192
0.00195315 0.313313 0.399649
0.131868 0.286015 0.379995
0.293263 0.276646 0.37319
0.4206 0.247089 0.337301
0.551659 0.218158 0.291173
0.722469 0.226062 0.28719
0.958663 0.241001 0.303349
1 0.244602 0.303334
1 0.246754 0.29749
0 0.469917 0.323613
0.0842298 0.438636 0.299763
0.233127 0.423484 0.288487
0.406348 0.402274 0.269902
0.556756 0.382101 0.253986
0.694255 0.372763 0.258183
0.877775 0.365423 0.261646
1 0.356344 0.256641
1 0.350164 0.25716
0 0.629084 0.23978
0.0326848 0.593286 0.217655
0.159716 0.570504 0.203006
0.333577 0.553399 0.195514
0.504295 0.530465 0.189441
0.664271 0.511437 0.194293
0.832639 0.492226 0.195987
0.998886 0.476905 0.191745
1 0.461173 0.194858
0 0.795514 0.149798
0 0.75906 0.129503
0.0947433 0.72697 0.119768
0.249516 0.709911 0.126223
0.429969 0.68307 0.133745
0.618402 0.658244 0.13344
0.788602 0.635264 0.140047
0.968017 0.612757 0.134493
1 0.589166 0.141268
0 0.948638 0.0733959
0 0.927733 0.0618753
0.0396582 0.887282 0.0646677
0.179431 0.858869 0.0721294
0.362097 0.832792 0.0831769
0.549645 0.809567 0.0836042
0.742275 0.793347 0.0807202
0.917128 0.764065 0.0852369
1 0.735714 0.0896162
0 1 0.0439918
0 1 0.0276188
0.00225834 0.992401 0.0272831
0.128481 0.972839 0.0304417
0.292485 0.968078 0.0387884
0.467399 0.963623 0.0308995
0.655406 0.949935 0.0195621
0.869307 0.935149 0.0112459
0.990463 0.898146 0.018616
0 1 0.0154269
0 1 0
0 1 0
0.0814527 1 0
0.22385 1 0
0.399222 1 4.57771e-05
0.58204 1 0
0.785931 1 0
0.968536 1 0
0.0601663 0.00256352 0.757458
0.252842 0.00369268 0.774258
0.448203 0 0.751629
0.625437 0 0.686076
0.776043 0 0.611978
0.889174 0 0.58085
1 0 0.57258
1 0 0.566232
1 0 0.541451
0.0320287 0.149142 0.68806
0.181979 0.128679 0.67747
0.364523 0.113436 0.661814
0.547005 0.0938582 0.610285
0.703166 0.0894331 0.550134
0.843671 0.0999161 0.52018
0.95758 0.10837 0.508736
1 0.105043 0.4766
1 0.0418402 0.422583
0 0.304067 0.612741
0.124956 0.275776 0.593194
0.295125 0.264637 0.587198
0.478233 0.245319 0.551736
0.625437 0.232746 0.505547
0.761898 0.226307 0.470893
0.894896 0.180301 0.418204
0.997665 0.139757 0.352255
1 0.125368 0.316152
0 0.458976 0.533944
0.0800946 0.42855 0.510216
0.224948 0.414466 0.501762
0.395514 0.399741 0.4907
0.530205 0.366979 0.454902
0.628733 0.300618 0.378988
0.797711 0.299779 0.373037
0.999359 0.329534 0.39736
1 0.332494 0.39765
0 0.61529 0.451225
0.027985 0.583429 0.42858
0.149004 0.558724 0.410758
0.32932 0.54844 0.405463
0.512139 0.523949 0.386923
0.669734 0.502129 0.36849
0.807736 0.487968 0.371405
0.957977 0.477592 0.370443
1 0.464118 0.353643
0 0.772793 0.36408
0 0.745159 0.342855
0.0887007 0.713008 0.325063
0.248341 0.701534 0.320455
0.4327 0.675578 0.310842
0.609216 0.646769 0.305791
0.77113 0.626963 0.306798
0.934295 0.607538 0.301106
1 0.589975 0.284489
0 0.926818 0.281498
0 0.912047 0.250202
0.0331426 0.875776 0.236454
0.167865 0.847807 0.230701
0.345724 0.82649 0.23064
0.533349 0.799084 0.230884
0.73077 0.779248 0.223362
0.901884 0.753994 0.223285
1 0.732113 0.210178
0 1 0.226246
0 1 0.177172
0 0.993103 0.156435
0.110567 0.974472 0.148638
0.280781 0.968032 0.154299
0.464225 0.956527 0.157824
0.654749 0.93373 0.154665
0.855726 0.914366 0.153903
0.990402 0.884352 0.150759
0 1 0.160082
0 1 0.115663
0 1 0.0998703
0.0724804 1 0.10367
0.220188 1 0.115892
0.401129 1 0.127687
0.584298 1 0.118929
0.780362 1 0.102342
0.972442 1 0.0931868
0.0464485 0 0.91368
0.244114 0 0.943358
0.446525 0 0.945296
0.645792 0 0.902647
0.82118 0 0.832181
0.922286 0 0.800671
1 0 0.783719
1 0 0.772519
1 0 0.75761
0.0247959 0.13994 0.880888
0.17499 0.118761 0.895842
0.358495 0.103273 0.895994
0.554421 0.0829328 0.863447
0.733043 0.0641337 0.793805
0.872206 0.0603647 0.72874
0.972671 0.0768139 0.701625
1 0.0905623 0.689494
1 0.0998703 0.672099
0 0.295842 0.830213
0.124819 0.267582 0.816709
0.287526 0.254734 0.813031
0.478737 0.235447 0.788968
0.6663 0.21384 0.730724
0.82768 0.201953 0.669062
0.936843 0.205524 0.648066
1 0.204562 0.644709
1 0.180255 0.600504
0 0.45214 0.749844
0.0827344 0.423285 0.73341
0.216663 0.405127 0.720363
0.398276 0.389212 0.706432
0.590112 0.36701 0.6692
0.745602 0.349767 0.623804
0.894392 0.341497 0.597436
0.974166 0.270863 0.532341
1 0.190951 0.436011
0 0.607263 0.664103
0.0312505 0.579385 0.648554
0.145708 0.552377 0.627085
0.31928 0.542092 0.620813
0.50042 0.522194 0.606699
0.651713 0.493263 0.579049
0.720287 0.389593 0.475517
0.859861 0.353109 0.442084
1 0.408057 0.485328
0 0.765454 0.585626
0 0.73724 0.558419
0.0843671 0.706706 0.537377
0.2383 0.693858 0.531395
0.427131 0.674479 0.520211
0.620096 0.646342 0.500816
0.78381 0.623423 0.481376
0.923842 0.604898 0.484077
1 0.590829 0.480522
0 0.916197 0.505119
0 0.898283 0.464515
0.0233768 0.866697 0.444862
0.152483 0.838666 0.433509
0.342245 0.827985 0.433936
0.535714 0.800153 0.423209
0.719097 0.768444 0.417929
0.882856 0.744488 0.417472
1 0.725826 0.406806
0 0.992615 0.45745
0 0.998596 0.391745
0 0.99089 0.363195
0.0920272 0.974426 0.34696
0.259007 0.972732 0.345876
0.44271 0.954131 0.340658
0.632319 0.920501 0.336614
0.841596 0.899138 0.335851
0.986145 0.874403 0.331868
0 1 0.385077
0 1 0.332387
0 1 0.292988
0.050782 1 0.274174
0.193729 1 0.274434
0.385626 1 0.277928
0.572213 1 0.265614
0.770291 1 0.249485
0.966461 1 0.247486
0.0413062 0 1
0.236927 0 1
0.439765 0 1
0.655604 0 1
0.858747 0 1
0.944976 0 0.952209
1 0 0.952056
1 0 0.938888
1 0 0.933013
0.0229648 0.13135 1
0.16788 0.108812 1
0.349142 0.0934462 1
0.550958 0.0721294 1
0.754162 0.0539712 0.968429
0.908171 0.0454108 0.916213
1 0.0397803 0.901869
1 0.0538796 0.899702
1 0.0663005 0.881987
0 0.286702 0.974456
0.120836 0.258 0.974945
0.279591 0.244343 0.986908
0.473182 0.22475 0.985473
0.677211 0.201465 0.961654
0.86273 0.181048 0.906325
0.971405 0.168399 0.866178
1 0.172015 0.854536
1 0.175631 0.834958
0 0.443549 0.932387
0.0796674 0.414496 0.933394
0.209461 0.395834 0.939681
0.390372 0.379538 0.938384
0.591424 0.356985 0.909026
0.790356 0.333257 0.854749
0.930312 0.320394 0.791028
1 0.314137 0.78996
1 0.305776 0.77937
0 0.60148 0.882139
0.0325933 0.573632 0.871962
0.142672 0.546502 0.854566
0.308629 0.533837 0.845197
0.502251 0.513222 0.823667
0.704967 0.488746 0.787579
0.872984 0.467994 0.745495
0.987274 0.458869 0.726253
1 0.340093 0.620249
0 0.761578 0.799558
0 0.733989 0.782055
0.0889296 0.705028 0.762478
0.228412 0.687434 0.750423
0.414435 0.668727 0.7355
0.605844 0.644144 0.719387
0.771649 0.615534 0.697505
0.819303 0.484184 0.576272
0.933349 0.396185 0.501137
0 0.912749 0.710979
0 0.893248 0.68426
0.0247349 0.86363 0.664057
0.140414 0.83621 0.646662
0.325551 0.82446 0.643885
0.52578 0.800244 0.630976
0.728923 0.77023 0.612696
0.900572 0.745968 0.594293
1 0.724926 0.592416
0 0.992187 0.654902
0 0.997269 0.603906
0 0.9906 0.576822
0.0784314 0.977417 0.552911
0.236057 0.976181 0.545815
0.433951 0.955947 0.542062
0.635462 0.926009 0.529656
0.828336 0.888304 0.528954
0.969604 0.859861 0.526604
0 1 0.581338
0 1 0.540337
0 1 0.504952
0.0408331 1 0.480827
0.170184 1 0.470146
0.364309 1 0.471626
0.546227 1 0.455787
0.738079 1 0.444007
0.955123 1 0.445502
0.0594034 0 1
0.230411 0 1
0.430655 0 1
0.650278 0 1
0.879622 0 1
0.988327 0 1
1 0 1
1 0 1
1 0 1
0.0187228 0.1252 1
0.160922 0.0989395 1
0.339452 0.0838026 1
0.541131 0.0624399 1
0.760494 0.0467994 1
0.941527 0.0342412 1
1 0.0283055 1
1 0.0176852 1
1 0.0352483 1
0 0.27808 1
0.117067 0.248219 1
0.27155 0.233692 1
0.463981 0.214191 1
0.675135 0.189502 1
0.888762 0.163363 1
1 0.146532 1
1 0.124422 1
1 0.131365 1
0 0.435218 1
0.076112 0.404547 1
0.202243 0.38471 1
0.381613 0.368566 1
0.584878 0.345815 1
0.79823 0.319539 1
0.968292 0.297963 0.992416
1 0.279622 0.974823
1 0.273747 0.973922
0 0.594079 1
0.0290684 0.563684 1
0.138369 0.536248 1
0.299138 0.523522 1
0.493019 0.50312 1
0.703685 0.477943 0.98999
0.912215 0.452293 0.953246
1 0.436271 0.925231
1 0.423667 0.928588
0 0.751751 0.953155
0 0.724178 0.955627
0.0870832 0.696284 0.952071
0.21799 0.678523 0.956344
0.40209 0.660502 0.95407
0.606928 0.636759 0.936477
0.820081 0.61001 0.902373
0.975998 0.587457 0.865995
1 0.575753 0.849805
0 0.906249 0.894667
0 0.887236 0.901167
0.0292668 0.859449 0.889326
0.139635 0.832944 0.87248
0.311849 0.81738 0.862074
0.511055 0.794675 0.845518
0.711025 0.765408 0.828595
0.886336 0.731395 0.80798
0.914839 0.561364 0.661341
0 0.994904 0.837705
0 1 0.821241
0 0.994385 0.798596
0.0771038 0.983307 0.773404
0.218692 0.974777 0.760067
0.415122 0.952483 0.750851
0.624018 0.925795 0.737591
0.840543 0.893004 0.72105
0.993225 0.871107 0.706096
0 1 0.800183
0 1 0.751125
0 1 0.72398
0.0399939 1 0.697643
0.153933 1 0.677653
0.340719 1 0.672679
0.536095 1 0.658534
0.743618 1 0.640879
0.935103 1 0.639948
0.0655375 0 1
0.224399 0 1
0.421714 0 1
0.639612 0 1
0.874861 0 1
1 0 1
1 0 1
1 0 1
1 0 1
0.0304875 0.113603 1
0.15462 0.0888075 1
0.329488 0.0743877 1
0.530236 0.0566262 1
0.753124 0.0422065 1
0.959442 0.0260166 1
1 0.018677 1
1 0.00933852 1
1 0.000411994 1
0 0.269718 1
0.112474 0.239155 1
0.263401 0.223133 1
0.454032 0.203891 1
0.665446 0.17911 1
0.891783 0.150072 1
1 0.128786 1
1 0.10901 1
1 0.0871595 1
0 0.427695 1
0.0725109 0.39498 1
0.195407 0.373449 1
0.372824 0.35758 1
0.575341 0.33489 1
0.795773 0.307195 1
0.989975 0.280308 1
1 0.261006 1
1 0.235096 1
0 0.586725 1
0.0253605 0.553903 1
0.134707 0.525628 1
0.290822 0.512123 1
0.483497 0.491951 1
0.696086 0.466316 1
0.918715 0.437064 1
1 0.415595 1
1 0.390936 1
0 0.746197 1
0 0.715572 1
0.0829786 0.685863 1
0.210346 0.666773 1
0.391562 0.649592 1
0.596384 0.626001 1
0.815976 0.598306 1
1 0.572198 1
1 0.550927 1
0 0.904479 1
0 0.878355 1
0.0258488 0.848646 1
0.133486 0.82089 1
0.299687 0.80766 1
0.497749 0.785611 1
0.711971 0.759426 1
0.934249 0.730632 0.98294
1 0.709529 0.971115
0 1 0.974853
0 0.998428 0.967376
0 0.990738 0.958251
0.0730755 0.980514 0.947753
0.208789 0.966003 0.950423
0.39913 0.945449 0.951751
0.607172 0.920714 0.94905
0.807843 0.882704 0.93611
0.979873 0.84268 0.920363
0 1 0.944732
0 1 0.935744
0 1 0.927001
0.0386206 1 0.916167
0.145602 1 0.896345
0.315999 1 0.883436
0.514153 1 0.867277
0.728603 1 0.848798
0.955093 1 0.829877
0.0657664 0 1
0.218433 0 1
0.412955 0 1
0.629038 0 1
0.863859 0 1
1 0 1
1 0 1
1 0 1
1 0 1
0.029099 0.104494 1
0.147967 0.0786908 1
0.319783 0.0650645 1
0.520165 0.0525978 1
0.741817 0.0384527 1
0.960037 0.0209964 1
1 0.0121157 1
1 0.00291447 1
1 0 1
0 0.259998 1
0.110002 0.228489 1
0.255512 0.212573 1
0.444053 0.19382 1
0.653956 0.169345 1
0.882063 0.139803 1
1 0.114794 1
1 0.0941939 1
1 0.0734417 1
0 0.418601 1
0.0688182 0.385153 1
0.188266 0.362234 1
0.363973 0.346654 1
0.565133 0.324269 1
0.785901 0.296407 1
0.997971 0.265965 1
1 0.243763 1
1 0.220661 1
0 0.57911 1
0.0211948 0.544503 1
0.130037 0.515221 1
0.282994 0.500618 1
0.474174 0.480751 1
0.686061 0.455238 1
0.915663 0.424689 1
1 0.398795 1
1 0.374624 1
0 0.741604 1
0 0.706096 1
0.0785077 0.675563 1
0.203342 0.654795 1
0.382452 0.638056 1
0.586221 0.614664 1
0.807218 0.586435 1
1 0.555917 1
1 0.532357 1
0 0.904494 1
0 0.869581 1
0.0216068 0.8383 1
0.128618 0.808896 1
0.290883 0.795926 1
0.485954 0.774639 1
0.700298 0.748287 1
0.928695 0.717891 1
1 0.691051 1
0 1 1
0 0.997604 1
0 0.9879 1
0.0683757 0.972793 1
0.200855 0.953887 1
0.384497 0.935531 1
0.592752 0.910414 1
0.81706 0.881376 1
1 0.852171 1
0 1 1
0 1 1
0 1 1
0.0338293 1 1
0.137728 1 1
0.300649 1 1
0.494377 1 1
0.709209 1 1
0.936217 1 0.996826
