public/filters/konnect/Presets B Darker Skin Tone/Vibrant v2_26.2021-06-15 11-45-45.cube
TITLE "Generated by Resolve"
LUT_3D_SIZE 5
0.0527047 0.0132753 0.0844892
0.316136 0 0.0197452
0.734188 0 0.0310674
1 0.0404974 0.105211
1 0.0547951 0.0993362
0.021561 0.340414 0.0278477
0.286 0.290517 0
0.606287 0.249943 0
1 0.213367 0.059266
1 0.198718 0.0535744
0 0.659251 0
0.176486 0.592309 0
0.523659 0.548089 0
0.947982 0.503609 0
1 0.450736 0.0191501
0 0.962417 0
0.047013 0.907195 0
0.369024 0.864363 0
0.768139 0.828885 0
1 0.764096 0
0 1 0
0 1 0
0.226398 1 0
0.587518 1 0
0.976471 1 0
0.0691234 0.00866712 0.547127
0.43679 0 0.492485
0.754467 0 0.405615
1 0 0.373922
1 0 0.291814
0.00195315 0.313313 0.399649
0.293263 0.276646 0.37319
0.551659 0.218158 0.291173
0.958663 0.241001 0.303349
1 0.246754 0.29749
0 0.629084 0.23978
0.159716 0.570504 0.203006
0.504295 0.530465 0.189441
0.832639 0.492226 0.195987
1 0.461173 0.194858
0 0.948638 0.0733959
0.0396582 0.887282 0.0646677
0.362097 0.832792 0.0831769
0.742275 0.793347 0.0807202
1 0.735714 0.0896162
0 1 0.0154269
0 1 0
0.22385 1 0
0.58204 1 0
0.968536 1 0
0.0464485 0 0.91368
0.446525 0 0.945296
0.82118 0 0.832181
1 0 0.783719
1 0 0.75761
0 0.295842 0.830213
0.287526 0.254734 0.813031
0.6663 0.21384 0.730724
0.936843 0.205524 0.648066
1 0.180255 0.600504
0 0.607263 0.664103
0.145708 0.552377 0.627085
0.50042 0.522194 0.606699
0.720287 0.389593 0.475517
1 0.408057 0.485328
0 0.916197 0.505119
0.0233768 0.866697 0.444862
0.342245 0.827985 0.433936
0.719097 0.768444 0.417929
1 0.725826 0.406806
0 1 0.385077
0 1 0.292988
0.193729 1 0.274434
0.572213 1 0.265614
0.966461 1 0.247486
0.0594034 0 1
0.430655 0 1
0.879622 0 1
1 0 1
1 0 1
0 0.27808 1
0.27155 0.233692 1
0.675135 0.189502 1
1 0.146532 1
1 0.131365 1
0 0.594079 1
0.138369 0.536248 1
0.493019 0.50312 1
0.912215 0.452293 0.953246
1 0.423667 0.928588
0 0.906249 0.894667
0.0292668 0.859449 0.889326
0.311849 0.81738 0.862074
0.711025 0.765408 0.828595
0.914839 0.561364 0.661341
0 1 0.800183
0 1 0.72398
0.153933 1 0.677653
0.536095 1 0.658534
0.935103 1 0.639948
0.0657664 0 1
0.412955 0 1
0.863859 0 1
1 0 1
1 0 1
0 0.259998 1
0.255512 0.212573 1
0.653956 0.169345 1
1 0.114794 1
1 0.0734417 1
0 0.57911 1
0.130037 0.515221 1
0.474174 0.480751 1
0.915663 0.424689 1
1 0.374624 1
0 0.904494 1
0.0216068 0.8383 1
0.290883 0.795926 1
0.700298 0.748287 1
1 0.691051 1
0 1 1
0 1 1
0.137728 1 1
0.494377 1 1
0.936217 1 0.996826
