public/filters/konnect/Presets B Darker Skin Tone/Warm v2_22.2021-06-15 11-45-45.cube
TITLE "Generated by Resolve"
LUT_3D_SIZE 33
0.092256 0.0838026 0.073991
0.104799 0.0829786 0.0708782
0.121904 0.0824598 0.0671397
0.139284 0.0841077 0.0656901
0.158022 0.0849012 0.0641794
0.178332 0.0855421 0.0627298
0.198871 0.0864881 0.0620584
0.21912 0.0876326 0.0615244
0.242435 0.0886702 0.0607919
0.266636 0.0895247 0.0599985
0.292607 0.0899367 0.0586252
0.318395 0.0902724 0.056199
0.344625 0.0904707 0.0505531
0.371847 0.0906233 0.0454719
0.39852 0.0900893 0.0429389
0.423774 0.0881971 0.0412604
0.448356 0.0849928 0.0393988
0.474571 0.0810864 0.0376745
0.50193 0.0729229 0.0361028
0.530358 0.0657969 0.0348211
0.558923 0.0639963 0.0335699
0.586816 0.0637217 0.0322271
0.613184 0.0637064 0.0310521
0.63769 0.0637064 0.0301366
0.660899 0.0636301 0.0295415
0.683101 0.0635538 0.0293889
0.70454 0.0633707 0.0300603
0.725093 0.0631113 0.0314031
0.744945 0.0627604 0.032639
0.764309 0.0623331 0.0334783
0.7832 0.0618601 0.0344091
0.801221 0.0614328 0.0352636
0.816815 0.0610361 0.0359197
0.105028 0.093904 0.0762341
0.118715 0.0945144 0.0737163
0.128969 0.0962844 0.0721599
0.141253 0.0984665 0.0696727
0.157107 0.100221 0.066743
0.176455 0.101534 0.0636301
0.197147 0.102556 0.062211
0.217273 0.103746 0.0612497
0.239673 0.104982 0.0604105
0.263828 0.105974 0.0593729
0.289219 0.106432 0.0577707
0.314992 0.106752 0.0552682
0.340764 0.106935 0.0504158
0.367498 0.107149 0.0456245
0.394934 0.106462 0.0427558
0.422812 0.104372 0.0412451
0.450858 0.100206 0.040238
0.479316 0.0951247 0.0391852
0.507378 0.0854658 0.0380407
0.53576 0.0785534 0.0369116
0.56437 0.0768597 0.0357061
0.592065 0.0767224 0.0344549
0.618173 0.0767376 0.033402
0.642542 0.0767681 0.0330358
0.665599 0.0767834 0.033051
0.687648 0.0767987 0.0331273
0.708766 0.0766766 0.0336919
0.729137 0.0764324 0.0349889
0.748821 0.0760967 0.0360418
0.768032 0.0757458 0.03682
0.786831 0.075288 0.037583
0.804364 0.0748608 0.0383001
0.82002 0.074464 0.0389258
0.103563 0.106126 0.0802319
0.117479 0.106691 0.0803235
0.131304 0.107591 0.0776989
0.145724 0.108568 0.0747997
0.16112 0.109758 0.0719463
0.178592 0.111925 0.0683452
0.197864 0.114794 0.0652171
0.217884 0.117952 0.0626688
0.240101 0.1205 0.0609903
0.264424 0.121859 0.0593271
0.289906 0.122438 0.0572366
0.31606 0.122881 0.0542916
0.342061 0.123308 0.0494698
0.368887 0.123674 0.0451209
0.396857 0.123491 0.0426184
0.425544 0.12163 0.0415045
0.45478 0.117708 0.0407874
0.484062 0.111971 0.0400854
0.51252 0.102251 0.0393225
0.5411 0.0936904 0.0383764
0.569604 0.090425 0.0372473
0.59733 0.0903944 0.0362249
0.623346 0.0904097 0.0353857
0.647669 0.0905165 0.0359655
0.670802 0.0905776 0.0364538
0.692851 0.0906081 0.0366674
0.71397 0.0905013 0.0370794
0.734234 0.0903182 0.0377813
0.753918 0.0899977 0.0385138
0.773053 0.0896468 0.0392004
0.79176 0.0892195 0.0399634
0.809018 0.0888685 0.0406348
0.82475 0.0884718 0.0412451
0.102159 0.119234 0.0841993
0.114611 0.120119 0.0873426
0.129824 0.120974 0.0837262
0.145617 0.121859 0.0800793
0.161975 0.122591 0.0768597
0.180255 0.12343 0.0736095
0.199527 0.124605 0.0709392
0.218555 0.126818 0.0686503
0.240146 0.130037 0.065568
0.264408 0.133791 0.0627298
0.29041 0.137072 0.059968
0.317174 0.13933 0.0567025
0.343511 0.140673 0.0517128
0.370611 0.141588 0.0469978
0.398886 0.142077 0.0446174
0.428336 0.140703 0.0438087
0.458381 0.137087 0.0430457
0.488289 0.131014 0.0420081
0.517128 0.122499 0.0406195
0.545769 0.111574 0.0396124
0.574105 0.105516 0.0387427
0.601678 0.104616 0.0385595
0.62771 0.104479 0.037995
0.652064 0.104601 0.0386053
0.675166 0.104723 0.0388495
0.697292 0.104707 0.0390631
0.718456 0.104662 0.0393835
0.738766 0.104509 0.0398871
0.758495 0.104173 0.040589
0.7776 0.103838 0.0412451
0.796292 0.103471 0.0419623
0.813443 0.103075 0.042649
0.829068 0.10277 0.0432288
0.10277 0.132601 0.0861677
0.115724 0.133165 0.0918135
0.128969 0.134585 0.0911574
0.142718 0.13608 0.0905623
0.15877 0.137362 0.0873121
0.177356 0.138582 0.0831006
0.198489 0.139132 0.0771496
0.219013 0.139849 0.0728313
0.241596 0.140841 0.0691234
0.265843 0.143023 0.067277
0.291539 0.1458 0.0650492
0.318105 0.149264 0.061326
0.344701 0.153063 0.0552071
0.372107 0.156573 0.0493477
0.400732 0.159014 0.0462806
0.430457 0.159197 0.0453346
0.461082 0.156542 0.0449531
0.491844 0.151095 0.0443122
0.52137 0.143893 0.0438392
0.550027 0.132967 0.0420233
0.578134 0.123583 0.040589
0.605371 0.119387 0.0410773
0.63122 0.118914 0.0407568
0.655543 0.118944 0.0407263
0.678721 0.119036 0.0407263
0.700984 0.119081 0.0408789
0.722362 0.119051 0.0411688
0.74284 0.118914 0.0416571
0.762661 0.118608 0.0423285
0.781994 0.118288 0.0430457
0.80061 0.117937 0.0437629
0.817716 0.117601 0.0444343
0.833295 0.117311 0.0449836
0.10341 0.146273 0.0876478
0.117159 0.146593 0.0948196
0.128878 0.14844 0.0970169
0.141207 0.150332 0.0994888
0.156802 0.152087 0.0967422
0.174945 0.153719 0.0928664
0.196063 0.154559 0.0862898
0.216541 0.155367 0.0812085
0.23946 0.156146 0.0761273
0.265461 0.157198 0.071519
0.292744 0.158373 0.0681621
0.320104 0.160159 0.0649729
0.347204 0.162631 0.0593576
0.375067 0.166064 0.0534981
0.404013 0.169848 0.0498207
0.433768 0.172747 0.0478981
0.464118 0.172915 0.0471199
0.494804 0.169924 0.0467842
0.52462 0.16405 0.04654
0.553429 0.155398 0.0452888
0.581186 0.143908 0.043534
0.607782 0.136355 0.0428779
0.633402 0.133791 0.0424964
0.657832 0.133639 0.0423285
0.681331 0.1337 0.0422675
0.70396 0.133761 0.0424201
0.725765 0.133715 0.0427253
0.746639 0.133532 0.0432288
0.766659 0.133288 0.0438849
0.786191 0.132967 0.0446021
0.804868 0.132631 0.0453193
0.822095 0.132296 0.0459907
0.837583 0.132036 0.0465705
0.104448 0.160784 0.0856031
0.119554 0.161105 0.0904097
0.127291 0.166964 0.0915389
0.139452 0.170245 0.0978408
0.152804 0.173709 0.102052
0.167559 0.176974 0.104051
0.186175 0.179232 0.102434
0.205631 0.181018 0.0984054
0.228 0.182055 0.0916152
0.256214 0.182193 0.0814679
0.285786 0.182742 0.0731975
0.315938 0.18407 0.0667277
0.345403 0.185657 0.0592508
0.375113 0.187594 0.0525368
0.405371 0.189853 0.0493782
0.43621 0.191623 0.0481575
0.467826 0.191394 0.0477607
0.499321 0.188663 0.0480964
0.529671 0.183368 0.0484627
0.558572 0.176608 0.0478065
0.58584 0.16669 0.0461585
0.611704 0.157107 0.0447242
0.63682 0.151369 0.0439612
0.661173 0.150134 0.0437629
0.684688 0.149508 0.0436866
0.70753 0.148974 0.0438392
0.72961 0.148699 0.0441596
0.750744 0.148577 0.0447089
0.770977 0.14844 0.0453498
0.790677 0.14815 0.0460822
0.809445 0.147906 0.0468299
0.826688 0.147509 0.0474708
0.842206 0.147219 0.0480354
0.103532 0.176593 0.0839551
0.119951 0.176989 0.0865644
0.133135 0.178363 0.0945449
0.145937 0.180499 0.101686
0.158419 0.184405 0.104799
0.172381 0.189487 0.108385
0.18909 0.194522 0.10869
0.206104 0.19855 0.108629
0.225223 0.20148 0.10692
0.249332 0.202472 0.0991684
0.277333 0.202472 0.0876783
0.310109 0.202777 0.0745098
0.342382 0.204135 0.0628519
0.373846 0.206378 0.054963
0.406027 0.208942 0.0508888
0.438941 0.210941 0.0486
0.471626 0.211414 0.0481727
0.503761 0.209644 0.0486915
0.534981 0.205203 0.0495155
0.565164 0.199405 0.049424
0.593835 0.192447 0.0484169
0.620233 0.184421 0.046891
0.645258 0.17792 0.0457465
0.669306 0.174609 0.0452735
0.692439 0.17171 0.0451209
0.714748 0.168887 0.045243
0.736233 0.167346 0.0456397
0.756878 0.167437 0.0463111
0.776745 0.167773 0.0470283
0.796063 0.168109 0.0478065
0.814618 0.168246 0.0485084
0.831724 0.167956 0.0491188
0.847425 0.167361 0.0496681
0.0982834 0.193927 0.0841688
0.115267 0.194507 0.0854353
0.131823 0.195361 0.0909743
0.147967 0.196262 0.0979019
0.162356 0.198291 0.105486
0.178012 0.201038 0.11339
0.19408 0.205127 0.11577
0.210498 0.210086 0.116152
0.228855 0.21561 0.11516
0.250324 0.220127 0.111711
0.274693 0.222522 0.103883
0.302663 0.223194 0.091249
0.332784 0.224353 0.0771649
0.365484 0.226215 0.0645762
0.402533 0.228489 0.0539101
0.440009 0.231205 0.0480659
0.473579 0.233387 0.0479286
0.506783 0.233249 0.0486305
0.538216 0.23032 0.049897
0.569192 0.225437 0.0508278
0.598779 0.220462 0.0507668
0.626154 0.215839 0.049897
0.651194 0.212131 0.0487221
0.674784 0.208652 0.0477913
0.697398 0.204349 0.0471962
0.719432 0.200397 0.0470741
0.740826 0.19826 0.0473487
0.761532 0.198276 0.0480049
0.781552 0.199054 0.0487526
0.801007 0.2 0.0495155
0.819883 0.200824 0.0502785
0.837156 0.200824 0.0508888
0.853315 0.200183 0.0514229
0.093019 0.211627 0.0858473
0.10985 0.212238 0.0868391
0.127428 0.212909 0.089128
0.144884 0.213977 0.0928511
0.162509 0.21561 0.100252
0.181628 0.217884 0.110674
0.199069 0.221225 0.117723
0.215778 0.224704 0.121279
0.234134 0.228641 0.123033
0.254307 0.232853 0.122698
0.277058 0.236561 0.116594
0.30219 0.239734 0.106157
0.32871 0.242878 0.0939803
0.358343 0.245853 0.082475
0.39237 0.248692 0.0720684
0.429404 0.25153 0.063447
0.468071 0.254292 0.0562295
0.506111 0.25568 0.0518044
0.539696 0.254902 0.0516365
0.57203 0.251408 0.0525216
0.602777 0.24744 0.0527657
0.631174 0.244312 0.0523384
0.656779 0.242359 0.0514382
0.680583 0.24007 0.0505226
0.703197 0.237293 0.0497749
0.725109 0.234791 0.0494392
0.746303 0.233524 0.0495155
0.766918 0.233722 0.0499886
0.787076 0.234348 0.0506447
0.806714 0.23534 0.0513313
0.825803 0.236454 0.0520638
0.843366 0.236881 0.0526894
0.859709 0.236332 0.0532235
0.0903792 0.229694 0.0879072
0.105653 0.23032 0.0888685
0.122179 0.230915 0.0896773
0.139727 0.232181 0.0905776
0.16022 0.233722 0.0949111
0.183551 0.235752 0.105165
0.203296 0.239078 0.116167
0.220905 0.242741 0.12285
0.239384 0.246647 0.127398
0.259815 0.25037 0.12903
0.282277 0.25359 0.127001
0.305943 0.256031 0.119356
0.329809 0.25832 0.108293
0.357855 0.26247 0.0982071
0.388846 0.266972 0.0892042
0.422675 0.271244 0.0804913
0.458869 0.275273 0.0723278
0.496834 0.27805 0.0649577
0.534493 0.279026 0.0594186
0.571664 0.277134 0.0556497
0.605051 0.274052 0.0547951
0.634745 0.271351 0.0544442
0.661173 0.269795 0.0537575
0.685481 0.268513 0.0530251
0.708476 0.267216 0.0523995
0.730739 0.266316 0.052079
0.752224 0.266011 0.052018
0.772931 0.266072 0.0522621
0.793332 0.266148 0.0527352
0.813291 0.266606 0.053315
0.832578 0.267399 0.0539101
0.850248 0.267659 0.0544442
0.866285 0.267247 0.0550088
0.0898146 0.248997 0.0896925
0.10396 0.249729 0.0906844
0.119417 0.250294 0.0914321
0.13579 0.251774 0.0915847
0.155291 0.253422 0.092195
0.180819 0.255818 0.0965896
0.205509 0.258808 0.110079
0.225452 0.262501 0.120546
0.245014 0.266621 0.128527
0.26566 0.270893 0.133272
0.287617 0.274968 0.134661
0.310811 0.27834 0.130434
0.334508 0.280949 0.123369
0.359869 0.283009 0.115068
0.388937 0.285924 0.106325
0.421988 0.29015 0.097612
0.456214 0.295048 0.0896162
0.49044 0.299657 0.0822156
0.52607 0.302617 0.0746014
0.564157 0.303181 0.0668956
0.602029 0.301656 0.0613107
0.634943 0.299931 0.0583047
0.663279 0.298634 0.056672
0.688243 0.297993 0.0558175
0.712001 0.297108 0.0551614
0.734905 0.2963 0.0547494
0.757183 0.296071 0.0546273
0.778592 0.295949 0.0547189
0.79942 0.295949 0.0549477
0.819898 0.2963 0.0554208
0.839612 0.297124 0.0558938
0.857404 0.297322 0.0562905
0.873213 0.29691 0.0567788
0.0894484 0.270588 0.0911574
0.10341 0.271321 0.0922408
0.118654 0.271809 0.0931411
0.134035 0.273228 0.0932937
0.148898 0.276799 0.0929427
0.169238 0.28072 0.0924392
0.196506 0.284703 0.0953536
0.224292 0.288716 0.105531
0.248432 0.292653 0.119463
0.271366 0.297093 0.129519
0.293706 0.301518 0.133684
0.31722 0.306432 0.134295
0.340871 0.311498 0.13434
0.364309 0.315404 0.1337
0.387915 0.317098 0.129396
0.416693 0.318914 0.121202
0.448966 0.321798 0.112535
0.482444 0.325139 0.104097
0.516472 0.327993 0.0959945
0.55314 0.329793 0.0876631
0.592325 0.330083 0.0786908
0.629633 0.329854 0.0704814
0.662516 0.329427 0.0643778
0.6907 0.329122 0.0610208
0.716472 0.328588 0.0590677
0.740917 0.328145 0.0580606
0.764019 0.327886 0.0576638
0.785946 0.327886 0.0575723
0.807034 0.328069 0.0576791
0.827634 0.328649 0.057908
0.847456 0.32961 0.0582742
0.865019 0.329839 0.0585641
0.881117 0.329442 0.0588693
0.089189 0.293339 0.0920577
0.102907 0.294148 0.0933242
0.118029 0.294728 0.0944076
0.133104 0.296345 0.0947433
0.148714 0.298268 0.0949874
0.166827 0.301534 0.0942397
0.191379 0.305776 0.0935225
0.222202 0.311406 0.0958267
0.251347 0.316426 0.107576
0.277531 0.321279 0.121035
0.301488 0.32604 0.128344
0.326192 0.33164 0.133196
0.350759 0.337896 0.138323
0.375326 0.343801 0.141939
0.399283 0.348104 0.14316
0.422889 0.349462 0.139147
0.450004 0.35108 0.132494
0.480079 0.353582 0.125078
0.510979 0.35584 0.117678
0.544106 0.357458 0.110109
0.580041 0.358679 0.102022
0.615961 0.359976 0.0944228
0.650126 0.361059 0.0872053
0.682353 0.361471 0.0798505
0.713115 0.361379 0.0727703
0.742184 0.361059 0.0668956
0.768154 0.360952 0.0637217
0.791485 0.361242 0.0624857
0.813626 0.3617 0.061738
0.83476 0.362539 0.0613565
0.854765 0.363882 0.0613718
0.872496 0.364157 0.0614328
0.889036 0.363806 0.0614481
0.0888838 0.316808 0.0928206
0.102541 0.317678 0.0942092
0.117479 0.318441 0.0954147
0.132479 0.320211 0.0957656
0.147738 0.322225 0.0959793
0.164248 0.325048 0.0950332
0.186236 0.328832 0.0932021
0.218357 0.334493 0.0904555
0.252735 0.339818 0.0962997
0.283421 0.344915 0.109239
0.309667 0.350622 0.119951
0.335729 0.357214 0.129976
0.361212 0.364279 0.138643
0.386633 0.371145 0.144884
0.412436 0.377661 0.148806
0.437263 0.381979 0.149416
0.4607 0.38349 0.146426
0.485557 0.385 0.141894
0.511269 0.386633 0.137575
0.539406 0.387808 0.132769
0.570611 0.388769 0.126619
0.60351 0.389868 0.11986
0.635798 0.391409 0.113405
0.666636 0.392966 0.107164
0.696529 0.394308 0.100679
0.72604 0.395315 0.0938735
0.755077 0.395895 0.0867475
0.783215 0.396246 0.0796979
0.809735 0.396674 0.0741741
0.833722 0.39762 0.0708782
0.856046 0.398993 0.0686046
0.876036 0.399268 0.0665599
0.893904 0.398978 0.0653697
0.0886244 0.34139 0.0932326
0.10222 0.342214 0.0946365
0.117082 0.343069 0.0957656
0.131914 0.3449 0.0961318
0.147021 0.34696 0.0962692
0.162783 0.349935 0.0950637
0.181079 0.353552 0.092256
0.208667 0.359274 0.0865644
0.246372 0.366049 0.0835279
0.285618 0.371923 0.0927138
0.317311 0.377172 0.109499
0.345922 0.383597 0.12546
0.372625 0.39089 0.137881
0.398505 0.398489 0.147356
0.424414 0.405875 0.154482
0.450675 0.412543 0.15906
0.475563 0.416953 0.161212
0.49836 0.419181 0.160983
0.51989 0.420447 0.159411
0.542428 0.420859 0.156924
0.567803 0.42121 0.15288
0.596246 0.421866 0.147265
0.625452 0.422858 0.140932
0.654536 0.424155 0.134417
0.682933 0.425666 0.128084
0.711223 0.427359 0.121874
0.739025 0.429099 0.115663
0.766079 0.430594 0.109239
0.792798 0.431968 0.102556
0.819593 0.433112 0.0955367
0.844953 0.434577 0.0895552
0.867948 0.434928 0.08365
0.888731 0.434669 0.079118
0.088426 0.367147 0.092668
0.102007 0.368063 0.0940261
0.116915 0.368963 0.0950027
0.131487 0.370886 0.0952468
0.146288 0.373007 0.0950027
0.161715 0.37612 0.0928359
0.177661 0.379965 0.088426
0.199222 0.385641 0.0820783
0.234272 0.393408 0.0764935
0.280644 0.401663 0.078645
0.321111 0.407874 0.0953841
0.353826 0.413931 0.113985
0.383322 0.420768 0.130922
0.411002 0.428 0.145418
0.437919 0.435538 0.155917
0.464683 0.442817 0.163668
0.490867 0.449317 0.169558
0.515145 0.454337 0.173251
0.536492 0.457099 0.174899
0.556435 0.45774 0.174929
0.576684 0.45716 0.173632
0.598947 0.456901 0.171435
0.623301 0.457282 0.167636
0.648646 0.458152 0.1626
0.67422 0.459205 0.156847
0.699962 0.460685 0.151034
0.725658 0.46244 0.14522
0.750835 0.464302 0.139422
0.775814 0.466224 0.133577
0.800595 0.468208 0.12755
0.825162 0.470161 0.121386
0.847486 0.471061 0.115129
0.869123 0.471107 0.108431
0.0883345 0.394705 0.090959
0.101961 0.39559 0.0921492
0.116854 0.396521 0.0925765
0.131212 0.398352 0.0920729
0.145785 0.400671 0.0907149
0.160983 0.404044 0.0871138
0.176593 0.408392 0.0818799
0.19443 0.414328 0.0782025
0.221195 0.421988 0.0757305
0.268971 0.432212 0.0737774
0.320653 0.440604 0.0830091
0.358557 0.447166 0.0993362
0.391516 0.454032 0.11693
0.421775 0.461158 0.134768
0.450416 0.468391 0.149874
0.478569 0.47541 0.162371
0.506233 0.482322 0.172442
0.532067 0.488594 0.179904
0.554864 0.493492 0.184771
0.575692 0.496391 0.18764
0.595026 0.497017 0.188602
0.613443 0.496101 0.18819
0.632197 0.495216 0.187671
0.651942 0.495094 0.186419
0.672877 0.495613 0.18378
0.694804 0.496757 0.180087
0.717433 0.498344 0.175692
0.740108 0.500175 0.171008
0.763119 0.5019 0.165637
0.786084 0.503883 0.160266
0.808667 0.506065 0.154925
0.829007 0.507012 0.149126
0.848005 0.507286 0.143252
0.0885786 0.423499 0.0874037
0.102235 0.424201 0.0878614
0.117174 0.424949 0.0867323
0.131518 0.426642 0.0846571
0.145983 0.428656 0.0825513
0.160937 0.43212 0.0804456
0.176074 0.437583 0.0784009
0.19237 0.445014 0.0778515
0.21355 0.452125 0.0772412
0.255924 0.462562 0.0744793
0.314015 0.473716 0.074815
0.359884 0.481376 0.0868086
0.396674 0.488716 0.101396
0.429816 0.496056 0.119066
0.460777 0.503258 0.136721
0.490654 0.510033 0.153445
0.519478 0.516838 0.168017
0.546258 0.523217 0.179049
0.570077 0.528481 0.186984
0.592477 0.532616 0.19292
0.613611 0.535271 0.19707
0.633448 0.536446 0.199557
0.65211 0.536034 0.200443
0.669993 0.534966 0.200336
0.68809 0.534249 0.199969
0.706981 0.534478 0.199145
0.726833 0.535912 0.197726
0.746685 0.537652 0.195697
0.766796 0.539376 0.192538
0.786755 0.541253 0.188907
0.806226 0.54345 0.185245
0.823362 0.544259 0.180865
0.84007 0.544549 0.176028
0.0889448 0.450614 0.0776837
0.102663 0.451377 0.0780957
0.117662 0.452537 0.0777142
0.13193 0.454856 0.0774701
0.146319 0.457649 0.0777752
0.161074 0.461784 0.0781262
0.175906 0.466758 0.078584
0.191745 0.473304 0.0785382
0.209415 0.480613 0.0783246
0.238193 0.49015 0.0767681
0.297261 0.503258 0.0735027
0.359838 0.513985 0.0790723
0.400015 0.522148 0.0898756
0.436011 0.529931 0.104936
0.469795 0.53727 0.122148
0.502205 0.544167 0.140322
0.532769 0.550958 0.157351
0.560586 0.557427 0.170932
0.585168 0.562737 0.181338
0.608438 0.567147 0.190112
0.630884 0.57084 0.197589
0.65214 0.573571 0.203952
0.671824 0.57499 0.208408
0.689982 0.575051 0.210986
0.707134 0.574258 0.2121
0.724208 0.573754 0.212451
0.741421 0.573999 0.212329
0.758587 0.57496 0.212085
0.77583 0.57641 0.211673
0.792905 0.578073 0.210864
0.809903 0.580011 0.209308
0.824704 0.58088 0.207095
0.838911 0.581003 0.204013
0.0893721 0.478523 0.071397
0.10312 0.479225 0.0728923
0.118166 0.480552 0.0740215
0.132448 0.482872 0.0751202
0.146853 0.485695 0.0763409
0.161303 0.489754 0.0773175
0.175921 0.494789 0.078233
0.191424 0.501427 0.0784161
0.207935 0.508873 0.0785077
0.23209 0.518151 0.0775616
0.288365 0.531563 0.0741588
0.357519 0.544625 0.0745403
0.401297 0.553887 0.0818189
0.43978 0.562371 0.0935988
0.476127 0.570123 0.108248
0.510857 0.577279 0.124926
0.543206 0.584237 0.142428
0.572396 0.590692 0.157733
0.597803 0.595956 0.17026
0.621576 0.600305 0.181491
0.644404 0.604044 0.191806
0.6663 0.607324 0.201556
0.687068 0.61001 0.209766
0.706661 0.61178 0.216251
0.725032 0.612589 0.220706
0.742535 0.612802 0.223178
0.759365 0.613016 0.224079
0.77525 0.61326 0.224353
0.790494 0.613535 0.224369
0.805325 0.614099 0.224338
0.819898 0.615152 0.224399
0.832517 0.615488 0.224048
0.844251 0.615381 0.223362
0.0895247 0.506767 0.0688792
0.102678 0.507683 0.0705272
0.117021 0.509239 0.0719158
0.131029 0.511467 0.073106
0.145602 0.514168 0.0741741
0.160037 0.517922 0.0750439
0.174517 0.522835 0.0758373
0.189731 0.52929 0.0760052
0.205524 0.536721 0.0760052
0.226352 0.545632 0.0753643
0.272343 0.557809 0.0731518
0.34905 0.573724 0.0707103
0.398901 0.584802 0.0752728
0.440726 0.594339 0.0843519
0.479469 0.602838 0.0963302
0.516197 0.610376 0.110719
0.550469 0.617441 0.128084
0.581491 0.623896 0.144884
0.608164 0.629068 0.159823
0.632792 0.63331 0.173693
0.656092 0.636927 0.186404
0.678264 0.640192 0.197955
0.699382 0.643122 0.207904
0.719707 0.645701 0.216434
0.739437 0.647913 0.223529
0.75848 0.649805 0.228916
0.77615 0.651179 0.232395
0.792111 0.651743 0.234424
0.80676 0.651926 0.235523
0.819547 0.651392 0.235676
0.831235 0.650904 0.235142
0.840955 0.650111 0.234257
0.849851 0.648844 0.233341
0.0846113 0.537758 0.0665904
0.0989548 0.537148 0.0679789
0.114214 0.537865 0.0695201
0.129641 0.5393 0.0709087
0.14519 0.541375 0.0721752
0.160021 0.544884 0.073167
0.174731 0.549844 0.0739605
0.189853 0.55639 0.0741436
0.205524 0.564019 0.0742046
0.224887 0.572976 0.0738231
0.264927 0.584482 0.0724498
0.341527 0.601373 0.0694133
0.396231 0.614176 0.0713817
0.440482 0.624872 0.0778058
0.480919 0.634226 0.0871138
0.51957 0.642527 0.0990158
0.555917 0.649973 0.114336
0.588907 0.65655 0.13048
0.617426 0.661814 0.146029
0.643595 0.665995 0.161532
0.668009 0.669581 0.176287
0.690867 0.672786 0.189792
0.712291 0.675669 0.20174
0.732677 0.678172 0.211902
0.752285 0.680476 0.220706
0.771038 0.682658 0.22797
0.788174 0.684321 0.233661
0.804227 0.685664 0.237995
0.819364 0.686549 0.241291
0.833692 0.687251 0.243702
0.84715 0.687541 0.245045
0.857969 0.6869 0.245594
0.867002 0.685542 0.245396
0.0878309 0.563104 0.0659953
0.100664 0.563256 0.0670939
0.115236 0.564111 0.0683146
0.13051 0.565438 0.0695201
0.146059 0.56733 0.0705882
0.160922 0.570687 0.0714275
0.175631 0.575631 0.0719158
0.190753 0.582238 0.071931
0.206256 0.590066 0.0719158
0.224598 0.600092 0.0717327
0.259571 0.610605 0.0711681
0.333272 0.627115 0.0687114
0.392767 0.641291 0.0693217
0.439124 0.653025 0.0735637
0.480812 0.66331 0.0806897
0.520729 0.672267 0.0901045
0.55848 0.680232 0.102739
0.592844 0.68719 0.116625
0.622904 0.692622 0.131151
0.650324 0.696849 0.146395
0.676005 0.70042 0.161852
0.69987 0.703456 0.176837
0.722133 0.706203 0.190539
0.743053 0.708598 0.202762
0.762692 0.710582 0.213382
0.780484 0.711971 0.222126
0.797299 0.713329 0.229465
0.813764 0.714977 0.235752
0.829648 0.716579 0.241047
0.84477 0.718059 0.245411
0.859098 0.71928 0.248798
0.871122 0.719707 0.25124
0.881971 0.719539 0.253147
0.0914778 0.586694 0.0654917
0.105196 0.586694 0.0669871
0.1196 0.587625 0.0681621
0.133288 0.589258 0.0690318
0.147723 0.591318 0.0698405
0.162264 0.594568 0.0706798
0.176883 0.599298 0.0715648
0.191836 0.605692 0.072221
0.207126 0.614359 0.0708934
0.224521 0.624094 0.0711376
0.255756 0.634134 0.0711986
0.326299 0.650065 0.0691386
0.390082 0.665492 0.0689555
0.438087 0.67805 0.0713512
0.480781 0.689281 0.0766766
0.521752 0.699138 0.0841077
0.560937 0.707774 0.094377
0.596475 0.715251 0.106111
0.62771 0.721111 0.118959
0.65626 0.725521 0.132967
0.683055 0.729183 0.147875
0.707958 0.73225 0.162768
0.731182 0.734936 0.177325
0.752651 0.737041 0.191058
0.771893 0.738415 0.203204
0.789151 0.739132 0.213703
0.805905 0.74023 0.222477
0.8224 0.741619 0.230228
0.838361 0.743175 0.236912
0.853712 0.744823 0.242695
0.868528 0.746548 0.24773
0.881224 0.747677 0.251774
0.892897 0.748348 0.255421
0.0920272 0.609216 0.0645304
0.106462 0.609201 0.0660258
0.122011 0.61033 0.0673381
0.136629 0.612345 0.0686198
0.150912 0.615 0.069688
0.164889 0.61854 0.0704356
0.178897 0.623224 0.0709087
0.193317 0.629358 0.071107
0.20824 0.636973 0.0712749
0.224842 0.645945 0.0713207
0.253239 0.655909 0.0714122
0.320607 0.671061 0.0698405
0.387839 0.687526 0.068986
0.437629 0.700832 0.0704509
0.481147 0.712978 0.0740978
0.523079 0.723705 0.0800336
0.563378 0.73315 0.0882582
0.599939 0.741131 0.0980545
0.631983 0.747509 0.109133
0.661448 0.752377 0.12137
0.689097 0.756252 0.134752
0.71487 0.759441 0.148821
0.738796 0.762066 0.163134
0.760632 0.763958 0.177386
0.779232 0.764614 0.19028
0.796292 0.764858 0.202121
0.812894 0.76556 0.212528
0.829129 0.766552 0.221698
0.844831 0.767666 0.229496
0.859922 0.768917 0.236133
0.874815 0.770535 0.24242
0.8878 0.771801 0.247791
0.899901 0.772869 0.252674
0.0920119 0.631998 0.0636149
0.106752 0.632044 0.0649271
0.122683 0.633219 0.0661479
0.137667 0.635264 0.0673686
0.152392 0.63801 0.0686046
0.166873 0.641886 0.0697032
0.181292 0.646967 0.0706493
0.195819 0.65333 0.0711528
0.210575 0.660685 0.0713664
0.22649 0.669047 0.0713359
0.253529 0.678279 0.0713054
0.317525 0.692256 0.0700542
0.385504 0.708827 0.0688487
0.436469 0.722667 0.0697948
0.479683 0.735271 0.0721447
0.521645 0.746807 0.076463
