public/filters/konnect/Presets B Darker Skin Tone/Warm v2_22.2021-06-15 11-45-45.cube
TITLE "Generated by Resolve"
LUT_3D_SIZE 9
0.092256 0.0838026 0.073991
0.158022 0.0849012 0.0641794
0.242435 0.0886702 0.0607919
0.344625 0.0904707 0.0505531
0.448356 0.0849928 0.0393988
0.558923 0.0639963 0.0335699
0.660899 0.0636301 0.0295415
0.744945 0.0627604 0.032639
0.816815 0.0610361 0.0359197
0.10277 0.132601 0.0861677
0.15877 0.137362 0.0873121
0.241596 0.140841 0.0691234
0.344701 0.153063 0.0552071
0.461082 0.156542 0.0449531
0.578134 0.123583 0.040589
0.678721 0.119036 0.0407263
0.762661 0.118608 0.0423285
0.833295 0.117311 0.0449836
0.0982834 0.193927 0.0841688
0.162356 0.198291 0.105486
0.228855 0.21561 0.11516
0.332784 0.224353 0.0771649
0.473579 0.233387 0.0479286
0.598779 0.220462 0.0507668
0.697398 0.204349 0.0471962
0.781552 0.199054 0.0487526
0.853315 0.200183 0.0514229
0.0894484 0.270588 0.0911574
0.148898 0.276799 0.0929427
0.248432 0.292653 0.119463
0.340871 0.311498 0.13434
0.448966 0.321798 0.112535
0.592325 0.330083 0.0786908
0.716472 0.328588 0.0590677
0.807034 0.328069 0.0576791
0.881117 0.329442 0.0588693
0.088426 0.367147 0.092668
0.146288 0.373007 0.0950027
0.234272 0.393408 0.0764935
0.383322 0.420768 0.130922
0.490867 0.449317 0.169558
0.576684 0.45716 0.173632
0.67422 0.459205 0.156847
0.775814 0.466224 0.133577
0.869123 0.471107 0.108431
0.0893721 0.478523 0.071397
0.146853 0.485695 0.0763409
0.207935 0.508873 0.0785077
0.401297 0.553887 0.0818189
0.543206 0.584237 0.142428
0.644404 0.604044 0.191806
0.725032 0.612589 0.220706
0.790494 0.613535 0.224369
0.844251 0.615381 0.223362
0.0914778 0.586694 0.0654917
0.147723 0.591318 0.0698405
0.207126 0.614359 0.0708934
0.390082 0.665492 0.0689555
0.560937 0.707774 0.094377
0.683055 0.729183 0.147875
0.771893 0.738415 0.203204
0.838361 0.743175 0.236912
0.892897 0.748348 0.255421
0.082475 0.67599 0.0610208
0.147539 0.676799 0.0631418
0.209186 0.696986 0.0653391
0.37528 0.744259 0.0633555
0.560922 0.801068 0.0758679
0.693919 0.828916 0.105119
0.78938 0.836805 0.149996
0.85919 0.836408 0.195666
0.914061 0.837522 0.227466
0.0901045 0.756283 0.0595407
0.155261 0.763195 0.0624552
0.215717 0.784329 0.0653849
0.382361 0.819623 0.0647135
0.556435 0.872618 0.0698405
0.697047 0.909392 0.0857099
0.797101 0.919066 0.113252
0.870573 0.916396 0.150042
0.925658 0.913771 0.179706
0.0957198 0.0856794 0.111559
0.150942 0.0872816 0.108644
0.232486 0.0885786 0.109224
0.335897 0.085893 0.106981
0.449241 0.0717479 0.0892195
0.557595 0.0644694 0.0791638
0.656138 0.063508 0.0759899
0.742565 0.0638437 0.0757916
0.817624 0.0629587 0.0780652
0.0963455 0.137041 0.124422
0.159854 0.141329 0.125322
0.241306 0.150973 0.120745
0.346914 0.154025 0.114473
0.462638 0.150729 0.0962997
0.575021 0.124254 0.0879988
0.674052 0.121538 0.0841993
0.759075 0.12137 0.0843519
0.833143 0.119768 0.0872358
0.0929427 0.200244 0.13135
0.158511 0.20235 0.144854
0.236988 0.213901 0.148363
0.357794 0.218936 0.116686
0.478187 0.234028 0.100252
0.588312 0.23386 0.0981918
0.689815 0.205768 0.0903792
0.775738 0.202319 0.090959
0.851179 0.201419 0.0938735
0.0899214 0.279362 0.1402
0.149096 0.281941 0.143343
0.249805 0.295476 0.165576
0.344228 0.31725 0.178164
0.455955 0.329168 0.146838
0.592325 0.340612 0.118746
0.711894 0.336019 0.102235
0.80032 0.336873 0.100511
0.876829 0.338125 0.101854
0.0892958 0.37847 0.14342
0.146502 0.38294 0.147051
0.224338 0.400244 0.133745
0.383352 0.430213 0.165164
0.492393 0.457282 0.206302
0.576089 0.464698 0.207584
0.667918 0.467628 0.194415
0.771115 0.476722 0.17496
0.867109 0.482139 0.150195
0.090547 0.49102 0.130083
0.147875 0.496422 0.125933
0.20737 0.517372 0.12314
0.40235 0.563836 0.122103
0.545419 0.593072 0.179828
0.640345 0.610422 0.227863
0.716716 0.618204 0.254124
0.7832 0.619318 0.260624
0.838041 0.621042 0.259892
0.0927596 0.597131 0.10837
0.151141 0.602625 0.114626
0.209506 0.626444 0.118761
0.389929 0.674983 0.115831
0.5617 0.715236 0.134096
0.679133 0.735515 0.181781
0.76495 0.74284 0.234134
0.830884 0.746502 0.271046
0.886183 0.751293 0.290105
0.0923476 0.686687 0.104631
0.155077 0.691539 0.109529
0.212268 0.709834 0.113756
0.376608 0.757336 0.114656
0.553353 0.805173 0.118502
0.687053 0.834989 0.142763
0.780453 0.842252 0.182239
0.853605 0.841245 0.22884
0.909239 0.841718 0.261189
0.091722 0.766751 0.105913
0.151766 0.767086 0.109331
0.212207 0.780789 0.110246
0.368429 0.822385 0.113237
0.542565 0.873075 0.114534
0.687251 0.913817 0.126452
0.786816 0.924544 0.150286
0.864408 0.92256 0.184314
0.920394 0.91928 0.213245
0.086305 0.0874037 0.165896
0.147326 0.0888228 0.155718
0.227024 0.0888228 0.159792
0.329366 0.0784772 0.161028
0.446983 0.0530404 0.162844
0.559319 0.0590829 0.15024
0.654383 0.0632639 0.132021
0.742229 0.0623331 0.125902
0.81651 0.0643626 0.127199
0.0897231 0.140322 0.177752
0.156741 0.141817 0.171984
0.238361 0.147372 0.173236
0.346731 0.150774 0.178195
0.461585 0.137713 0.173358
0.573663 0.126314 0.163653
0.671107 0.123903 0.140124
0.757061 0.123705 0.135378
0.831388 0.122179 0.136202
0.0884871 0.205539 0.189364
0.151003 0.206378 0.190631
0.240162 0.219211 0.196826
0.35903 0.232563 0.191394
0.477516 0.235172 0.186297
0.584085 0.222583 0.172229
0.684504 0.193973 0.147112
0.770993 0.193149 0.143832
0.846494 0.194171 0.145083
0.0885023 0.286824 0.202258
0.144808 0.288746 0.204471
0.244068 0.299718 0.218433
0.352758 0.318746 0.232197
0.489784 0.329198 0.190051
0.599664 0.344976 0.177066
0.692256 0.34551 0.159289
0.792187 0.337087 0.15021
0.868589 0.338872 0.151293
0.0886091 0.388022 0.208896
0.145678 0.391959 0.213886
0.211841 0.404456 0.213367
0.386297 0.435065 0.236576
0.490043 0.460655 0.256123
0.571298 0.467369 0.249912
0.661753 0.47219 0.235355
0.77055 0.482414 0.215763
0.868025 0.487358 0.191974
0.0898756 0.502953 0.206439
0.147189 0.506722 0.211521
0.205066 0.524056 0.201251
0.391058 0.567239 0.177417
0.537346 0.594873 0.22092
0.634836 0.612696 0.272343
0.70927 0.619608 0.293843
0.772824 0.620493 0.300435
0.831708 0.623743 0.29987
0.0914168 0.609995 0.19704
0.150713 0.611337 0.198779
0.208194 0.631464 0.188037
0.377478 0.677562 0.170809
0.557595 0.71986 0.181842
0.676051 0.738888 0.226413
0.753017 0.742657 0.273518
0.81651 0.744198 0.309087
0.877989 0.751949 0.330694
0.0903334 0.702113 0.197528
0.154101 0.702358 0.198962
0.213703 0.719539 0.188739
0.365606 0.763989 0.176196
0.54847 0.812894 0.172274
0.673548 0.837232 0.189471
0.770169 0.845441 0.225193
0.844434 0.845151 0.267643
0.900816 0.844404 0.300526
0.0885176 0.786328 0.207431
0.156725 0.788037 0.210819
0.217197 0.801724 0.205447
0.354559 0.833036 0.190127
0.542168 0.886671 0.175158
0.671962 0.911955 0.177432
0.777096 0.927626 0.19707
0.854902 0.928695 0.226795
0.909972 0.924025 0.251972
0.0796674 0.0828565 0.235798
0.147692 0.0863661 0.226169
0.22887 0.088014 0.228763
0.330968 0.0826123 0.239307
0.447074 0.0559701 0.242924
0.567651 0.0545052 0.241367
0.660197 0.0605478 0.235065
0.744427 0.0584115 0.230365
0.814801 0.0624704 0.226215
0.0797131 0.140398 0.247639
0.14815 0.141939 0.242344
0.237613 0.147677 0.240146
0.347753 0.147875 0.248707
0.467399 0.127718 0.25417
0.583993 0.124712 0.262058
0.674952 0.127382 0.257343
0.757076 0.126177 0.247074
0.827451 0.125856 0.245869
0.0813764 0.207324 0.263478
0.142229 0.209644 0.260807
0.24416 0.218204 0.256931
0.363531 0.225711 0.264408
0.486259 0.228565 0.272587
0.596429 0.212726 0.277256
0.686656 0.192264 0.271015
0.768826 0.188037 0.259419
0.839857 0.189288 0.258778
0.085481 0.291417 0.279362
0.140597 0.295018 0.282017
0.229206 0.302464 0.285191
0.370382 0.325002 0.292165
0.501167 0.342107 0.292073
0.610544 0.34728 0.295171
0.699779 0.3467 0.29398
0.784543 0.33872 0.279744
0.858579 0.338506 0.275242
0.0878157 0.396109 0.2934
0.142535 0.401038 0.298848
0.201541 0.412665 0.302235
0.385992 0.441474 0.328084
0.504509 0.462501 0.35378
0.614786 0.472053 0.332952
0.703792 0.482307 0.324086
0.791485 0.484138 0.3028
0.887404 0.486778 0.290974
0.0898756 0.512398 0.298756
0.145876 0.517174 0.307134
0.201877 0.534218 0.310765
0.362692 0.565957 0.31191
0.550713 0.602045 0.344594
0.641718 0.615167 0.375875
0.706371 0.616114 0.381826
0.763684 0.613886 0.379187
0.837217 0.625071 0.37554
0.0893111 0.62182 0.299931
0.149844 0.622141 0.308293
0.205737 0.63917 0.312245
0.333013 0.670192 0.312856
0.557473 0.720531 0.301122
0.674784 0.734157 0.323735
0.752697 0.740551 0.353994
0.818814 0.745052 0.380941
0.874327 0.749172 0.396338
0.0859236 0.715877 0.306661
0.15407 0.714748 0.313802
0.211032 0.727886 0.319753
0.32755 0.758633 0.321706
0.553094 0.814099 0.317205
0.685542 0.837308 0.313954
0.776394 0.846326 0.338979
0.843565 0.845182 0.369375
0.897673 0.842176 0.397848
0.0827649 0.803006 0.314336
0.156619 0.800488 0.320439
0.215045 0.80885 0.327596
0.32784 0.836789 0.332158
0.541238 0.891768 0.334569
0.680674 0.919539 0.332418
0.7823 0.929747 0.341985
0.857862 0.934325 0.361837
0.917205 0.932067 0.387518
0.0654765 0.0654459 0.328008
0.142611 0.0723583 0.315465
0.231159 0.0722972 0.313344
0.3308 0.0700847 0.319951
0.449561 0.063508 0.328054
0.572854 0.0576486 0.334859
0.672206 0.0611887 0.336233
0.752682 0.0602884 0.336294
0.823056 0.0579843 0.335561
0.070573 0.123674 0.33695
0.145434 0.128252 0.330434
0.24152 0.132342 0.327764
0.349126 0.133257 0.338186
0.472084 0.124926 0.350607
0.593286 0.124743 0.361639
0.692287 0.125444 0.364065
0.768887 0.125917 0.358144
0.836561 0.125887 0.357488
0.0762798 0.198001 0.351324
0.137377 0.204334 0.352148
0.239399 0.215778 0.34725
0.365454 0.223789 0.356466
0.495094 0.217395 0.367636
0.612161 0.19556 0.376074
0.70457 0.191531 0.383062
0.776181 0.191165 0.378302
0.842878 0.191058 0.373022
0.0807507 0.292348 0.373388
0.137636 0.297673 0.378073
0.210391 0.307591 0.378973
0.376303 0.327947 0.382208
0.52192 0.33611 0.391974
0.630671 0.341588 0.402197
0.719142 0.343404 0.409491
0.794461 0.343999 0.405097
0.863279 0.343679 0.399252
0.083772 0.403082 0.394003
0.138796 0.409506 0.400717
0.19707 0.421927 0.407065
0.371786 0.444938 0.418845
0.523796 0.47245 0.43357
0.64477 0.48452 0.424994
0.732082 0.488136 0.430259
0.810575 0.491341 0.431098
0.890288 0.497307 0.427253
0.0795453 0.528099 0.411551
0.143084 0.529305 0.415717
0.198993 0.546807 0.423026
0.326421 0.571771 0.429877
0.561013 0.61619 0.462547
0.666331 0.632685 0.505776
0.730709 0.628962 0.500725
0.790921 0.627344 0.489723
0.859831 0.639567 0.485267
0.0734264 0.636973 0.419593
0.148318 0.634775 0.422354
0.202838 0.652094 0.430426
0.294667 0.680003 0.435676
0.552239 0.730297 0.446769
0.700069 0.754559 0.47837
0.769085 0.755795 0.515633
0.826764 0.756405 0.533028
0.874876 0.752697 0.537316
0.0537881 0.733715 0.431266
0.153323 0.726589 0.428931
0.208774 0.739498 0.43798
0.293339 0.767178 0.443687
0.531106 0.810498 0.458747
0.697047 0.847547 0.462684
0.785672 0.85156 0.484077
0.854093 0.85655 0.515465
0.914305 0.857267 0.537697
0.065919 0.815854 0.434287
0.155856 0.810773 0.436561
0.212024 0.818753 0.444785
0.290654 0.841611 0.450706
0.510201 0.877897 0.467475
0.69633 0.92929 0.471138
0.799908 0.941756 0.479377
0.870207 0.947066 0.495354
0.924193 0.943954 0.509361
0.0649577 0.068864 0.42237
0.135241 0.0723735 0.410483
0.229709 0.0716716 0.408164
0.335515 0.0701305 0.416312
0.456733 0.0677348 0.42681
0.581476 0.063859 0.437369
0.684916 0.0637675 0.44097
0.763287 0.0629892 0.443519
0.831968 0.0591745 0.449805
0.0705272 0.123171 0.432242
0.137667 0.123537 0.428229
0.239231 0.124056 0.424918
0.353872 0.123598 0.435187
0.481636 0.123308 0.448203
0.604761 0.12314 0.460655
0.706752 0.123339 0.466957
0.780133 0.125032 0.465431
0.845182 0.12546 0.467292
0.0728466 0.17882 0.445472
0.137392 0.184436 0.446189
0.236759 0.206607 0.445563
0.367559 0.212589 0.454704
0.499458 0.204105 0.469047
0.616831 0.190509 0.480339
0.715755 0.188281 0.489021
0.79266 0.188556 0.488563
0.857954 0.188083 0.487083
0.075288 0.284779 0.46949
0.133928 0.293019 0.475883
0.199466 0.308904 0.480476
0.373053 0.328923 0.479637
0.525536 0.338033 0.497627
0.647211 0.335821 0.508797
0.738888 0.334203 0.520638
0.809949 0.340551 0.520821
0.872694 0.344305 0.517617
0.0789654 0.40589 0.496803
0.134508 0.414939 0.505226
0.192966 0.42945 0.512657
0.350225 0.451957 0.515526
0.547143 0.482216 0.531701
0.67808 0.48986 0.539818
0.759319 0.492164 0.548379
0.830121 0.496971 0.553933
0.901488 0.504555 0.553429
0.0721752 0.538415 0.521401
0.13994 0.539132 0.524269
0.195743 0.55668 0.53373
0.292607 0.581308 0.539925
0.553582 0.621942 0.566964
0.671794 0.641169 0.600244
0.745541 0.636683 0.579492
0.829786 0.641764 0.577264
0.907362 0.652506 0.577279
0.0658885 0.649271 0.533669
0.145815 0.647089 0.533898
0.199939 0.663569 0.543938
0.267491 0.690745 0.550072
0.530144 0.730999 0.570306
0.714092 0.768521 0.596704
0.794354 0.776425 0.639735
0.855436 0.776532 0.649577
0.889464 0.762875 0.63798
0.0518959 0.741131 0.545342
0.152392 0.738079 0.542245
0.20679 0.751186 0.551003
0.266011 0.777569 0.557443
0.509773 0.809812 0.577493
0.707576 0.857389 0.591226
0.81088 0.869947 0.610285
0.866056 0.86688 0.630884
0.914672 0.861128 0.643748
0.0577096 0.829053 0.549752
0.153323 0.823911 0.549706
0.209964 0.829908 0.55584
0.271229 0.850919 0.562844
0.509926 0.883146 0.582483
0.69456 0.928862 0.597009
0.811048 0.946777 0.60145
0.872129 0.946777 0.607965
0.92813 0.951232 0.620142
0.0716564 0.0740368 0.505714
0.133608 0.0728466 0.50161
0.21944 0.070985 0.501137
0.337072 0.0692607 0.510811
0.461143 0.0683757 0.522896
0.585992 0.0674144 0.534813
0.692164 0.0662699 0.540963
0.771054 0.0662699 0.54284
0.838544 0.062562 0.545327
0.0725567 0.124468 0.522698
0.136919 0.123613 0.52047
0.232029 0.123735 0.518761
0.356222 0.123064 0.530648
0.486961 0.123156 0.545083
0.611292 0.123445 0.558022
0.714137 0.123537 0.565621
0.790188 0.124453 0.566812
0.855222 0.125048 0.570352
0.0721141 0.178637 0.537484
0.136721 0.179309 0.538033
0.231281 0.195636 0.53904
0.367971 0.199985 0.550332
0.504173 0.190066 0.566171
0.628717 0.183429 0.57879
0.728588 0.184588 0.58819
0.805737 0.185885 0.589731
0.86717 0.186542 0.58941
0.0740978 0.267018 0.558114
0.132235 0.283268 0.566552
0.196872 0.307073 0.573236
0.369146 0.328069 0.578225
0.52726 0.337179 0.595178
0.65243 0.335058 0.607355
0.741085 0.332097 0.615213
0.816739 0.335256 0.621012
0.884199 0.340352 0.620417
0.0774395 0.40557 0.592416
0.133257 0.414252 0.600504
0.191394 0.431098 0.60853
0.330114 0.454871 0.612375
0.541238 0.484108 0.62327
0.683238 0.493721 0.641093
0.777035 0.494224 0.650599
0.848783 0.499855 0.660578
0.907729 0.5075 0.661646
0.0797131 0.53962 0.618418
0.13843 0.544747 0.622446
0.193713 0.561685 0.632471
0.275975 0.587137 0.638209
0.538857 0.624857 0.655573
0.700862 0.653147 0.677943
0.799908 0.657954 0.679042
0.86569 0.657115 0.683726
0.936233 0.666941 0.692073
0.0753338 0.653193 0.634394
0.146105 0.655421 0.634714
0.199161 0.671061 0.644129
0.256733 0.698116 0.650965
0.520623 0.736782 0.669886
0.71339 0.774319 0.696483
0.796017 0.781018 0.731243
0.829801 0.766094 0.719905
0.896498 0.773983 0.721233
0.0685283 0.744671 0.645869
0.1523 0.745052 0.642847
0.206989 0.759411 0.650339
0.261616 0.782986 0.657618
0.506432 0.815534 0.675639
0.695964 0.854261 0.698405
0.823407 0.877424 0.714687
0.888395 0.882856 0.742657
0.944686 0.886763 0.764172
0.0556802 0.821271 0.650095
0.154406 0.828183 0.649256
0.210849 0.837537 0.653758
0.265431 0.858183 0.660975
0.507256 0.887984 0.679225
0.687953 0.926192 0.699626
0.822751 0.952697 0.71191
0.893416 0.96022 0.718837
0.936889 0.953338 0.722347
0.0708171 0.0734569 0.588647
0.133471 0.0720226 0.585061
0.211017 0.0700999 0.584924
0.338018 0.0681163 0.595682
0.464347 0.0674754 0.608774
0.590921 0.0669871 0.621881
0.697093 0.0665141 0.629801
0.778012 0.0667735 0.632273
0.843015 0.0677653 0.63563
0.0755627 0.123217 0.603906
0.137743 0.1234 0.602823
0.226062 0.123125 0.603342
0.358007 0.122103 0.616464
0.491005 0.122408 0.632029
0.617166 0.122957 0.64506
0.719188 0.123125 0.653208
0.797665 0.12401 0.655955
0.861967 0.124422 0.658427
0.074464 0.178332 0.618006
0.136797 0.179217 0.618921
0.223789 0.196368 0.622354
0.368109 0.20148 0.635721
0.508019 0.19527 0.652384
0.633783 0.18436 0.664942
0.732479 0.183642 0.673442
0.809216 0.185016 0.676524
0.872663 0.186114 0.677745
0.0748608 0.260273 0.637644
0.133227 0.281498 0.644511
0.196536 0.309056 0.653407
0.36495 0.331945 0.662409
0.528313 0.341283 0.680049
0.658381 0.339025 0.693019
0.753353 0.332753 0.699535
0.827283 0.336004 0.704082
0.891463 0.343954 0.706371
0.0798505 0.405905 0.672618
0.134081 0.414984 0.679194
0.191653 0.432639 0.687633
0.320027 0.458351 0.692836
0.539422 0.48632 0.705928
0.6851 0.497246 0.723522
0.781109 0.497169 0.730999
0.851759 0.501671 0.735546
0.917891 0.509117 0.74081
0.0860914 0.541344 0.700618
0.140963 0.548043 0.704128
0.19472 0.564309 0.712901
0.264607 0.589517 0.71783
0.527718 0.62649 0.73286
0.697581 0.65597 0.749203
0.802945 0.662104 0.761334
0.876722 0.667185 0.768231
0.93724 0.673075 0.773571
0.0912947 0.652842 0.715663
0.148989 0.659892 0.717678
0.201968 0.675258 0.725719
0.256413 0.701427 0.731823
0.514122 0.739467 0.747951
0.707027 0.772213 0.774655
0.80853 0.790722 0.805676
0.879408 0.796872 0.797909
0.947326 0.802731 0.793637
0.090013 0.737621 0.721691
0.154421 0.747158 0.724498
0.210147 0.763867 0.73196
0.263218 0.786709 0.738094
0.502724 0.818906 0.753002
0.692882 0.855085 0.776654
0.82533 0.879286 0.795865
0.880842 0.875395 0.809674
0.906462 0.86125 0.808484
0.0881971 0.816236 0.72932
0.1561 0.826398 0.729717
0.213962 0.842008 0.734737
0.267689 0.862577 0.740551
0.504784 0.890913 0.755993
0.691554 0.927443 0.778775
0.824521 0.951675 0.795834
0.902998 0.962219 0.801785
0.95996 0.965576 0.815991
0.06981 0.0728466 0.663584
0.13286 0.071107 0.660441
0.211627 0.0691386 0.660716
0.339361 0.0669108 0.672206
0.467033 0.0664378 0.68574
0.595148 0.0662394 0.699199
0.702419 0.0658122 0.708278
0.783062 0.0661631 0.711177
0.84921 0.0664073 0.712963
0.075288 0.123232 0.678264
0.137591 0.123064 0.677195
0.226291 0.122728 0.678492
0.359167 0.121447 0.692317
0.492668 0.121477 0.707851
0.619974 0.122301 0.721111
0.721645 0.122591 0.729976
0.800687 0.123476 0.732982
0.8654 0.124361 0.7346
0.0754711 0.178836 0.690883
0.137682 0.179706 0.691707
0.212055 0.213535 0.697948
0.368322 0.223163 0.711803
0.511452 0.217792 0.728542
0.636316 0.196384 0.739895
0.734325 0.186282 0.747448
0.810529 0.186801 0.750835
0.876081 0.188952 0.752453
0.0763256 0.278279 0.711391
0.134142 0.292271 0.716228
0.196384 0.31725 0.725765
0.362234 0.340673 0.735866
0.529946 0.350896 0.754177
0.662242 0.350683 0.767254
0.758175 0.345846 0.773922
0.832212 0.349035 0.778546
0.896361 0.356847 0.781003
0.0824598 0.412955 0.745266
0.136858 0.421027 0.748531
0.19263 0.438453 0.756771
0.314199 0.463355 0.762356
0.53547 0.490059 0.778241
0.685954 0.502098 0.794446
0.784802 0.50277 0.803311
0.858061 0.507683 0.808728
0.92076 0.514733 0.812329
0.089601 0.544076 0.771679
0.144808 0.552438 0.774563
0.197498 0.568307 0.781231
0.261616 0.592187 0.785214
0.52253 0.628244 0.800153
0.697383 0.655421 0.813718
0.803433 0.664073 0.827802
0.878874 0.669062 0.834562
0.941619 0.674495 0.837873
0.0936446 0.654276 0.78819
0.152758 0.663813 0.7897
0.206165 0.680339 0.795743
0.257771 0.704616 0.799603
0.511971 0.741695 0.813596
0.706462 0.774029 0.835309
0.815839 0.793576 0.8551
0.891356 0.800214 0.856077
0.95462 0.804623 0.856962
0.0951247 0.739101 0.794919
0.157229 0.750134 0.796933
0.213901 0.768292 0.80206
0.265354 0.791043 0.806104
0.499489 0.820996 0.817563
0.689647 0.855589 0.840528
0.822522 0.876493 0.863172
0.899504 0.888304 0.885939
0.946242 0.88986 0.89221
0.0938582 0.814145 0.797055
0.159182 0.826673 0.801175
0.218601 0.845258 0.805966
0.271885 0.866987 0.809689
0.5028 0.892989 0.821103
0.690532 0.928862 0.844205
0.82649 0.951354 0.865492
0.908553 0.961807 0.87451
0.967544 0.965286 0.886931
