public/filters/konnect/Presets B Darker Skin Tone/Warm v2_22.2021-06-15 11-45-45.cube
TITLE "Generated by Resolve"
LUT_3D_SIZE 5
0.092256 0.0838026 0.073991
0.242435 0.0886702 0.0607919
0.448356 0.0849928 0.0393988
0.660899 0.0636301 0.0295415
0.816815 0.0610361 0.0359197
0.0982834 0.193927 0.0841688
0.228855 0.21561 0.11516
0.473579 0.233387 0.0479286
0.697398 0.204349 0.0471962
0.853315 0.200183 0.0514229
0.088426 0.367147 0.092668
0.234272 0.393408 0.0764935
0.490867 0.449317 0.169558
0.67422 0.459205 0.156847
0.869123 0.471107 0.108431
0.0914778 0.586694 0.0654917
0.207126 0.614359 0.0708934
0.560937 0.707774 0.094377
0.771893 0.738415 0.203204
0.892897 0.748348 0.255421
0.0901045 0.756283 0.0595407
0.215717 0.784329 0.0653849
0.556435 0.872618 0.0698405
0.797101 0.919066 0.113252
0.925658 0.913771 0.179706
0.086305 0.0874037 0.165896
0.227024 0.0888228 0.159792
0.446983 0.0530404 0.162844
0.654383 0.0632639 0.132021
0.81651 0.0643626 0.127199
0.0884871 0.205539 0.189364
0.240162 0.219211 0.196826
0.477516 0.235172 0.186297
0.684504 0.193973 0.147112
0.846494 0.194171 0.145083
0.0886091 0.388022 0.208896
0.211841 0.404456 0.213367
0.490043 0.460655 0.256123
0.661753 0.47219 0.235355
0.868025 0.487358 0.191974
0.0914168 0.609995 0.19704
0.208194 0.631464 0.188037
0.557595 0.71986 0.181842
0.753017 0.742657 0.273518
0.877989 0.751949 0.330694
0.0885176 0.786328 0.207431
0.217197 0.801724 0.205447
0.542168 0.886671 0.175158
0.777096 0.927626 0.19707
0.909972 0.924025 0.251972
0.0654765 0.0654459 0.328008
0.231159 0.0722972 0.313344
0.449561 0.063508 0.328054
0.672206 0.0611887 0.336233
0.823056 0.0579843 0.335561
0.0762798 0.198001 0.351324
0.239399 0.215778 0.34725
0.495094 0.217395 0.367636
0.70457 0.191531 0.383062
0.842878 0.191058 0.373022
0.083772 0.403082 0.394003
0.19707 0.421927 0.407065
0.523796 0.47245 0.43357
0.732082 0.488136 0.430259
0.890288 0.497307 0.427253
0.0734264 0.636973 0.419593
0.202838 0.652094 0.430426
0.552239 0.730297 0.446769
0.769085 0.755795 0.515633
0.874876 0.752697 0.537316
0.065919 0.815854 0.434287
0.212024 0.818753 0.444785
0.510201 0.877897 0.467475
0.799908 0.941756 0.479377
0.924193 0.943954 0.509361
0.0716564 0.0740368 0.505714
0.21944 0.070985 0.501137
0.461143 0.0683757 0.522896
0.692164 0.0662699 0.540963
0.838544 0.062562 0.545327
0.0721141 0.178637 0.537484
0.231281 0.195636 0.53904
0.504173 0.190066 0.566171
0.728588 0.184588 0.58819
0.86717 0.186542 0.58941
0.0774395 0.40557 0.592416
0.191394 0.431098 0.60853
0.541238 0.484108 0.62327
0.777035 0.494224 0.650599
0.907729 0.5075 0.661646
0.0753338 0.653193 0.634394
0.199161 0.671061 0.644129
0.520623 0.736782 0.669886
0.796017 0.781018 0.731243
0.896498 0.773983 0.721233
0.0556802 0.821271 0.650095
0.210849 0.837537 0.653758
0.507256 0.887984 0.679225
0.822751 0.952697 0.71191
0.936889 0.953338 0.722347
0.06981 0.0728466 0.663584
0.211627 0.0691386 0.660716
0.467033 0.0664378 0.68574
0.702419 0.0658122 0.708278
0.84921 0.0664073 0.712963
0.0754711 0.178836 0.690883
0.212055 0.213535 0.697948
0.511452 0.217792 0.728542
0.734325 0.186282 0.747448
0.876081 0.188952 0.752453
0.0824598 0.412955 0.745266
0.19263 0.438453 0.756771
0.53547 0.490059 0.778241
0.784802 0.50277 0.803311
0.92076 0.514733 0.812329
0.0936446 0.654276 0.78819
0.206165 0.680339 0.795743
0.511971 0.741695 0.813596
0.815839 0.793576 0.8551
0.95462 0.804623 0.856962
0.0938582 0.814145 0.797055
0.218601 0.845258 0.805966
0.5028 0.892989 0.821103
0.82649 0.951354 0.865492
0.967544 0.965286 0.886931
